;FLAVOR:Marlin
;TIME:487
;Filament used: 0.377801m, 0m
;Layer height: 0.3
;MINX:76.52
;MINY:14.783
;MINZ:0.3
;MAXX:92.837
;MAXY:31.01
;MAXZ:8.3
;Generated with Cura_SteamEngine mb-master-20191116
T0
M140 S110
M105
M190 S110
M104 S270
M105
M109 S270
M82 ;absolute extrusion mode
;Sliced at: Sat 16-04-2022 15:23:15
G21 ;metric values
M107
G28
M420 S1
G90 ;absolute positioning
G92 E0; reset extruder distance
G1 X0 Y0 Z5 F5000 ;move nozzle up 5mm for safe homing
G29;ABL
M500
M82 ;set extruder to absolute mode
M107 ;start with the fan off
G1 X0 Y0 Z15.0 F5000 ;move the platform down 15mm
G92 E0 ;zero the extruded length
G1 F200 E3 ;extrude 3mm of feed stock
G1 F200 E0 ;Retract
G4 S2 ;Wait for material to fall
G1 F200 E3
G92 E0 ;zero the extruded length again
M117 Printing...
G92 E0
T0;WIPE
G91
G1 Z-0.5
G1 X -20 F3000
G1 X40
G1 X-20
G1 Z0.5
G90

G92 E0
G1 F2400 E-1
;LAYER_COUNT:26
;LAYER:0
M107
G1 F600 Z0.8
;MESH:gearA_2.STL(1)
G0 F4800 X87.975 Y23.847 Z0.8
;TYPE:WALL-INNER
G1 F600 Z0.3
G1 F2400 E0.02495
G1 F1080 X88.084 Y22.985 E0.08346
G1 X87.978 Y22.14 E0.14082
G1 X87.774 Y21.568 E0.18172
G1 X87.491 Y21.066 E0.22054
G1 X87.128 Y20.618 E0.25937
G1 X86.693 Y20.238 E0.29828
G1 X86.201 Y19.937 E0.33712
G1 X85.664 Y19.724 E0.37603
G1 X85.1 Y19.604 E0.41487
G1 X84.523 Y19.58 E0.45376
G1 X83.949 Y19.656 E0.49276
G1 X83.399 Y19.827 E0.53155
G1 X82.885 Y20.088 E0.57038
G1 X82.421 Y20.434 E0.60936
G1 X82.024 Y20.852 E0.64819
G1 X81.704 Y21.33 E0.68693
G1 X81.467 Y21.855 E0.72573
G1 X81.322 Y22.415 E0.76469
G1 X81.276 Y22.991 E0.80361
G1 X81.326 Y23.565 E0.84241
G1 X81.473 Y24.124 E0.88134
G1 X81.713 Y24.648 E0.92016
G1 X82.036 Y25.126 E0.95902
G1 X82.438 Y25.542 E0.99798
G1 X82.904 Y25.884 E1.03691
G1 X83.421 Y26.142 E1.07583
G1 X83.97 Y26.308 E1.11446
G1 X84.544 Y26.381 E1.15343
G1 X85.123 Y26.353 E1.19247
G1 X85.684 Y26.23 E1.23115
G1 X86.219 Y26.014 E1.27001
G1 X86.711 Y25.71 E1.30896
G1 X87.142 Y25.326 E1.34784
G1 X87.527 Y24.847 E1.38923
G1 X87.975 Y23.847 E1.46303
G0 F4800 X87.391 Y23.683
;TYPE:WALL-OUTER
G1 F1080 X87.479 Y22.985 E1.51042
G1 X87.391 Y22.28 E1.55827
G1 X87.226 Y21.818 E1.59131
G1 X86.993 Y21.405 E1.62325
G1 X86.694 Y21.036 E1.65524
G1 X86.336 Y20.723 E1.68726
G1 X85.932 Y20.476 E1.71916
G1 X85.489 Y20.3 E1.75126
G1 X85.025 Y20.201 E1.78322
G1 X84.55 Y20.182 E1.81524
G1 X84.078 Y20.244 E1.8473
G1 X83.626 Y20.385 E1.87919
G1 X83.202 Y20.6 E1.91121
G1 X82.821 Y20.884 E1.94321
G1 X82.494 Y21.228 E1.97518
G1 X82.23 Y21.622 E2.00712
G1 X82.035 Y22.055 E2.03911
G1 X81.916 Y22.515 E2.07111
G1 X81.878 Y22.989 E2.10314
G1 X81.919 Y23.462 E2.13511
G1 X82.04 Y23.921 E2.16708
G1 X82.238 Y24.353 E2.19909
G1 X82.504 Y24.747 E2.23111
G1 X82.834 Y25.089 E2.26312
G1 X83.217 Y25.37 E2.29511
G1 X83.643 Y25.582 E2.32716
G1 X84.096 Y25.719 E2.35903
G1 X84.568 Y25.779 E2.39108
G1 X85.044 Y25.756 E2.42318
G1 X85.506 Y25.655 E2.45503
G1 X85.947 Y25.477 E2.48706
G1 X86.351 Y25.227 E2.51906
G1 X86.706 Y24.911 E2.55107
G1 X87.011 Y24.531 E2.58388
G1 X87.391 Y23.683 E2.64647
G0 F4800 X87.428 Y23.386
G0 X88.083 Y23.469
G1 F2400 E1.64647
G1 F600 Z0.8
G0 F4800 X79.291 Y23.554 Z0.8
;TYPE:WALL-INNER
G1 F600 Z0.3
G1 F2400 E2.67142
G1 F1080 X79.355 Y22.447 E2.7461
G1 X79.522 Y21.312 E2.82337
G1 X80.039 Y20.316 E2.89895
G1 X80.651 Y19.354 E2.97574
G1 X81.526 Y18.66 E3.05096
G1 X82.479 Y18.027 E3.12801
G1 X83.546 Y17.754 E3.20219
G1 X84.68 Y17.562 E3.27966
G1 X85.785 Y17.748 E3.35513
G1 X86.878 Y18.028 E3.43112
G1 X87.81 Y18.644 E3.50637
G1 X88.704 Y19.354 E3.58326
G1 X89.299 Y20.287 E3.65779
G1 X89.833 Y21.311 E3.73557
G1 X89.996 Y22.417 E3.81086
G1 X90.065 Y23.549 E3.88725
G1 X89.77 Y24.619 E3.962
G1 X89.37 Y25.69 E4.039
G1 X88.672 Y26.536 E4.11287
G1 X87.865 Y27.363 E4.1907
G1 X86.858 Y27.863 E4.26642
G1 X85.796 Y28.281 E4.34329
G1 X84.687 Y28.326 E4.41805
G1 X83.568 Y28.284 E4.49347
G1 X82.515 Y27.872 E4.56962
G1 X81.497 Y27.366 E4.64619
G1 X80.714 Y26.569 E4.72144
G1 X79.989 Y25.699 E4.79771
G1 X79.597 Y24.646 E4.87339
G1 X79.291 Y23.554 E4.94977
G1 F2400 E3.94977
G1 F600 Z0.8
G0 F4800 X76.529 Y23.874 Z0.8
M104 S260
;TYPE:WALL-OUTER
G1 F600 Z0.3
G1 F2400 E4.97472
G1 F1080 X76.52 Y23.784 E4.98081
G1 X76.753 Y23.601 E5.00076
G1 X77.134 Y23.391 E5.03006
G1 X77.55 Y23.243 E5.0598
G1 X77.972 Y23.167 E5.08868
G1 X78.713 Y23.153 E5.1386
G1 X78.758 Y22.382 E5.19062
G1 X78.875 Y21.587 E5.24474
G1 X78.163 Y21.405 E5.29423
G1 X77.756 Y21.238 E5.32386
G1 X77.383 Y21.009 E5.35334
G1 X77.053 Y20.723 E5.38275
G1 X76.865 Y20.498 E5.4025
G1 X76.899 Y20.397 E5.40968
G1 X77.186 Y20.324 E5.42963
G1 X77.62 Y20.287 E5.45896
G1 X78.057 Y20.32 E5.48848
G1 X78.477 Y20.423 E5.5176
G1 X79.158 Y20.711 E5.5674
G1 X79.519 Y20.017 E5.62009
G1 X79.945 Y19.347 E5.67357
G1 X79.363 Y18.889 E5.72345
G1 X79.066 Y18.577 E5.75246
G1 X78.815 Y18.211 E5.78235
G1 X78.632 Y17.82 E5.81143
G1 X78.551 Y17.534 E5.83145
G1 X78.622 Y17.455 E5.8386
G1 X78.918 Y17.507 E5.85884
G1 X79.321 Y17.646 E5.88755
G1 X79.71 Y17.857 E5.91736
G1 X80.055 Y18.124 E5.94674
G1 X80.558 Y18.662 E5.99635
G1 X81.175 Y18.173 E6.04937
G1 X81.83 Y17.738 E6.10233
G1 X81.488 Y17.082 E6.15216
G1 X81.341 Y16.673 E6.18143
G1 X81.262 Y16.243 E6.21087
G1 X81.253 Y15.806 E6.24031
G1 X81.295 Y15.514 E6.26018
G1 X81.394 Y15.47 E6.26748
G1 X81.637 Y15.633 E6.28719
G1 X81.955 Y15.931 E6.31654
G1 X82.224 Y16.281 E6.34627
G1 X82.43 Y16.664 E6.37556
G1 X82.671 Y17.359 E6.4251
G1 X83.431 Y17.165 E6.47793
G1 X84.21 Y17.033 E6.53115
G1 X84.162 Y16.298 E6.58076
G1 X84.195 Y15.863 E6.61014
G1 X84.299 Y15.431 E6.64007
G1 X84.468 Y15.032 E6.66925
G1 X84.624 Y14.783 E6.68904
G1 X84.731 Y14.783 E6.69625
G1 X84.888 Y15.033 E6.71613
G1 X85.057 Y15.434 E6.74544
G1 X85.161 Y15.863 E6.77517
G1 X85.194 Y16.293 E6.80422
G1 X85.13 Y17.029 E6.85397
G1 X85.903 Y17.159 E6.90677
G1 X86.669 Y17.355 E6.96002
G1 X86.924 Y16.667 E7.00944
G1 X87.132 Y16.281 E7.03897
G1 X87.401 Y15.931 E7.0687
G1 X87.719 Y15.633 E7.09806
G1 X87.963 Y15.469 E7.11786
G1 X88.061 Y15.513 E7.12509
G1 X88.103 Y15.805 E7.14496
G1 X88.094 Y16.243 E7.17447
G1 X88.016 Y16.667 E7.2035
G1 X87.866 Y17.088 E7.23361
G1 X87.511 Y17.727 E7.28284
G1 X88.159 Y18.155 E7.33514
G1 X88.784 Y18.651 E7.38888
G1 X89.298 Y18.127 E7.43832
G1 X89.646 Y17.857 E7.46799
G1 X90.036 Y17.646 E7.49785
G1 X90.438 Y17.507 E7.5265
G1 X90.734 Y17.455 E7.54674
G1 X90.806 Y17.534 E7.55394
G1 X90.724 Y17.82 E7.57398
G1 X90.541 Y18.211 E7.60305
G1 X90.29 Y18.577 E7.63295
G1 X89.992 Y18.889 E7.662
G1 X89.402 Y19.333 E7.71174
G1 X89.823 Y19.994 E7.76452
G1 X90.189 Y20.695 E7.81778
G1 X90.877 Y20.423 E7.86761
G1 X91.299 Y20.32 E7.89687
G1 X91.736 Y20.287 E7.92638
G1 X92.171 Y20.324 E7.95579
G1 X92.458 Y20.396 E7.97571
G1 X92.491 Y20.498 E7.98294
G1 X92.303 Y20.723 E8.00268
G1 X91.973 Y21.009 E8.03209
G1 X91.6 Y21.238 E8.06157
G1 X91.192 Y21.405 E8.09127
G1 X90.478 Y21.57 E8.14062
G1 X90.594 Y22.36 E8.1944
G1 X90.641 Y23.136 E8.24676
G1 X91.382 Y23.166 E8.29671
G1 X91.806 Y23.243 E8.32573
G1 X92.222 Y23.391 E8.35547
G1 X92.606 Y23.603 E8.38502
G1 X92.837 Y23.784 E8.40478
G1 X92.825 Y23.89 E8.41197
G1 X92.561 Y24.02 E8.43179
G1 X92.141 Y24.147 E8.46134
G1 X91.712 Y24.204 E8.49049
G1 X91.271 Y24.192 E8.5202
G1 X90.549 Y24.05 E8.56976
G1 X90.34 Y24.806 E8.62259
G1 X90.063 Y25.549 E8.67599
G1 X90.723 Y25.875 E8.72557
G1 X91.088 Y26.123 E8.75529
G1 X91.403 Y26.424 E8.78464
G1 X91.667 Y26.772 E8.81406
G1 X91.804 Y27.032 E8.83385
G1 X91.75 Y27.125 E8.8411
G1 X91.457 Y27.136 E8.86084
G1 X91.022 Y27.081 E8.89037
G1 X90.606 Y26.958 E8.91959
G1 X90.208 Y26.768 E8.9493
G1 X89.606 Y26.347 E8.99877
G1 X89.114 Y26.942 E9.05077
G1 X88.554 Y27.516 E9.10478
G1 X89.022 Y28.082 E9.15425
G1 X89.255 Y28.459 E9.1841
G1 X89.42 Y28.859 E9.21324
G1 X89.52 Y29.286 E9.24278
G1 X89.54 Y29.58 E9.26263
G1 X89.453 Y29.643 E9.26986
G1 X89.179 Y29.533 E9.28975
G1 X88.802 Y29.305 E9.31942
G1 X88.476 Y29.028 E9.34823
G1 X88.191 Y28.691 E9.37796
G1 X87.81 Y28.06 E9.4276
G1 X87.101 Y28.412 E9.48092
G1 X86.373 Y28.699 E9.53362
G1 X86.572 Y29.412 E9.58348
G1 X86.63 Y29.843 E9.61277
G1 X86.619 Y30.279 E9.64214
G1 X86.535 Y30.711 E9.67179
G1 X86.434 Y30.988 E9.69164
G1 X86.33 Y31.01 E9.6988
G1 X86.123 Y30.797 E9.71881
G1 X85.878 Y30.445 E9.74769
G1 X85.685 Y30.042 E9.77779
G1 X85.564 Y29.628 E9.80684
G1 X85.474 Y28.895 E9.85658
G1 X84.688 Y28.927 E9.90956
G1 X83.901 Y28.897 E9.9626
G1 X83.793 Y29.625 E10.01217
G1 X83.671 Y30.042 E10.04144
G1 X83.478 Y30.445 E10.07153
G1 X83.233 Y30.797 E10.10042
G1 X83.026 Y31.01 E10.12042
G1 X82.922 Y30.988 E10.12758
G1 X82.821 Y30.711 E10.14744
G1 X82.737 Y30.279 E10.17708
G1 X82.726 Y29.843 E10.20645
G1 X82.784 Y29.413 E10.23568
G1 X82.999 Y28.706 E10.28545
G1 X82.278 Y28.424 E10.33759
G1 X81.562 Y28.068 E10.39145
G1 X81.169 Y28.687 E10.44083
G1 X80.882 Y29.025 E10.47069
G1 X80.551 Y29.307 E10.49998
G1 X80.178 Y29.533 E10.52936
G1 X79.903 Y29.643 E10.5493
G1 X79.816 Y29.58 E10.55654
G1 X79.836 Y29.286 E10.57639
G1 X79.936 Y28.859 E10.60592
G1 X80.101 Y28.459 E10.63507
G1 X80.332 Y28.086 E10.66462
G1 X80.815 Y27.528 E10.71432
G1 X80.266 Y26.969 E10.76709
G1 X79.76 Y26.361 E10.82037
G1 X79.147 Y26.769 E10.86996
G1 X78.757 Y26.957 E10.89912
G1 X78.334 Y27.081 E10.92881
G1 X77.899 Y27.136 E10.95834
G1 X77.606 Y27.125 E10.97809
G1 X77.552 Y27.032 E10.98533
G1 X77.689 Y26.772 E11.00513
G1 X77.953 Y26.424 E11.03455
G1 X78.269 Y26.123 E11.06394
G1 X78.63 Y25.877 E11.09336
G1 X79.299 Y25.565 E11.14308
G1 X79.025 Y24.83 E11.19591
G1 X78.812 Y24.068 E11.2492
G1 X78.085 Y24.192 E11.29887
G1 X77.644 Y24.204 E11.32859
G1 X77.227 Y24.149 E11.35692
G1 X76.529 Y23.874 E11.40744
G0 F4800 X76.52 Y23.784
G0 X76.685 Y23.655
G1 F2400 E10.40744
G1 F600 Z0.8
G0 F4800 X79.886 Y23.49 Z0.8
;TYPE:SKIN
G1 F600 Z0.3
G1 F2400 E11.43239
G1 F1080 X79.942 Y22.516 E11.4981
G1 X80.092 Y21.494 E11.56767
G1 X80.546 Y20.619 E11.63406
G1 X81.097 Y19.752 E11.70325
G1 X81.868 Y19.141 E11.76951
G1 X82.721 Y18.574 E11.83849
G1 X83.668 Y18.332 E11.90433
G1 X84.681 Y18.16 E11.97353
G1 X85.661 Y18.326 E12.04047
G1 X86.638 Y18.576 E12.1084
G1 X87.459 Y19.12 E12.17473
G1 X88.261 Y19.756 E12.24367
G1 X88.786 Y20.578 E12.30936
G1 X89.263 Y21.495 E12.37898
G1 X89.411 Y22.497 E12.4472
G1 X89.471 Y23.483 E12.51373
G1 X89.209 Y24.434 E12.58017
G1 X88.851 Y25.392 E12.64905
G1 X88.236 Y26.137 E12.71411
G1 X87.513 Y26.88 E12.78394
G1 X86.614 Y27.324 E12.85147
G1 X85.674 Y27.695 E12.91953
G1 X84.685 Y27.736 E12.9862
G1 X83.688 Y27.698 E13.0534
G1 X82.767 Y27.337 E13.12003
G1 X81.846 Y26.879 E13.1893
G1 X81.154 Y26.175 E13.25579
G1 X80.507 Y25.399 E13.32384
G1 X80.157 Y24.46 E13.39133
G1 X79.886 Y23.49 E13.45916
G0 F4800 X80.684 Y22.993
G1 F1080 X80.742 Y23.667 E13.50473
G1 X80.915 Y24.323 E13.55042
G1 X81.197 Y24.938 E13.59599
G1 X81.576 Y25.499 E13.64159
G1 X82.049 Y25.988 E13.68741
G1 X82.595 Y26.389 E13.73304
G1 X83.203 Y26.693 E13.77882
G1 X83.846 Y26.887 E13.82405
G1 X84.521 Y26.973 E13.86988
G1 X85.201 Y26.939 E13.91574
G1 X85.859 Y26.796 E13.96109
G1 X86.487 Y26.543 E14.00669
G1 X87.065 Y26.184 E14.05252
G1 X87.571 Y25.734 E14.09813
G1 X88.034 Y25.158 E14.1479
G1 X88.549 Y24.008 E14.23277
G1 X88.678 Y22.985 E14.30222
G1 X88.556 Y22.002 E14.36893
G1 X88.313 Y21.322 E14.41757
G1 X87.981 Y20.733 E14.4631
G1 X87.555 Y20.207 E14.50869
G1 X87.043 Y19.76 E14.55447
G1 X86.466 Y19.408 E14.59999
G1 X85.835 Y19.157 E14.64573
G1 X85.175 Y19.016 E14.69118
G1 X84.496 Y18.988 E14.73696
G1 X83.821 Y19.078 E14.78282
G1 X83.177 Y19.278 E14.82824
G1 X82.573 Y19.585 E14.87387
G1 X82.028 Y19.991 E14.91964
G1 X81.562 Y20.482 E14.96524
G1 X81.187 Y21.043 E15.01069
G1 X80.908 Y21.658 E15.05617
G1 X80.738 Y22.317 E15.10201
G1 X80.684 Y22.993 E15.14768
G1 F2400 E14.14768
G1 F600 Z0.8
G0 F4800 X81.95 Y26.796 Z0.8
G1 F600 Z0.3
G1 F2400 E15.17263
G1 F1080 X81.204 Y26.05 E15.24368
G0 F4800 X81.284 Y25.281
G1 F1080 X80.209 Y24.207 E15.34603
G0 F4800 X80.652 Y23.801
G1 F1080 X80.023 Y23.172 E15.40594
G0 F4800 X80.572 Y22.872
G1 F1080 X80.082 Y22.382 E15.45261
G0 F4800 X80.665 Y22.116
G1 F1080 X80.19 Y21.641 E15.49786
G0 F4800 X80.453 Y21.056
G1 F1080 X80.862 Y21.465 E15.53682
G0 F4800 X81.141 Y20.895
G1 F1080 X80.755 Y20.51 E15.57353
G0 F4800 X81.085 Y19.991
G1 F1080 X81.484 Y20.39 E15.61154
G0 F4800 X81.897 Y19.954
G1 F1080 X81.515 Y19.572 E15.64792
G0 F4800 X81.993 Y19.202
G1 F1080 X82.373 Y19.582 E15.68412
G0 F4800 X82.915 Y19.275
G1 F1080 X82.503 Y18.863 E15.72336
G0 F4800 X83.091 Y18.603
G1 F1080 X83.53 Y19.042 E15.76518
G0 F4800 X83.773 Y18.436
G1 F1080 X84.237 Y18.9 E15.80937
G0 F4800 X84.497 Y18.312
G1 F1080 X85.076 Y18.891 E15.86452
G0 F4800 X85.445 Y18.411
G1 F1080 X86.211 Y19.178 E15.93753
G0 F4800 X86.564 Y18.681
G1 F1080 X88.856 Y20.974 E16.15589
G0 F4800 X88.488 Y21.454
G1 F1080 X89.247 Y22.213 E16.22819
G0 F4800 X88.744 Y22.559
G1 F1080 X89.33 Y23.145 E16.284
G0 F4800 X88.743 Y23.406
G1 F1080 X89.232 Y23.895 E16.33058
G0 F4800 X88.622 Y24.134
G1 F1080 X89.037 Y24.549 E16.37011
G0 F4800 X88.806 Y25.166
G1 F1080 X88.36 Y24.72 E16.41259
G0 F4800 X88.08 Y25.289
G1 F1080 X88.463 Y25.672 E16.44907
G0 F4800 X88.073 Y26.131
G1 F1080 X87.702 Y25.759 E16.48446
G0 F4800 X87.262 Y26.168
G1 F1080 X87.655 Y26.561 E16.52189
G0 F4800 X87.162 Y26.917
G1 F1080 X86.76 Y26.515 E16.56018
G0 F4800 X86.189 Y26.792
G1 F1080 X86.595 Y27.198 E16.59885
G0 F4800 X85.989 Y27.44
G1 F1080 X85.537 Y26.988 E16.6419
G0 F4800 X85.29 Y27.59
G1 F1080 X84.78 Y27.08 E16.69048
G0 F4800 X84.458 Y27.606
G1 F1080 X83.86 Y27.009 E16.74739
G0 F4800 X83.497 Y27.495
G1 F1080 X82.394 Y26.391 E16.8525
G1 X82.288 Y26.285
G1 F2400 E15.8525
G1 F600 Z0.8
;MESH:NONMESH
G0 F4800 X87.978 Y23.827 Z0.8
;TIME_ELAPSED:23.471372
;LAYER:1
M140 S100
;MESH:gearA_2.STL(1)
G0 F5400 X87.978 Y23.827 Z1.1
;TYPE:WALL-INNER
G1 F600 Z0.6
G1 F2400 E16.87745
G1 F1163.9 X88.083 Y22.994 E16.93399
G1 X87.978 Y22.139 E16.99201
G1 X87.763 Y21.55 E17.03424
G1 X87.478 Y21.048 E17.07312
G1 X87.111 Y20.603 E17.11197
G1 X86.676 Y20.227 E17.1507
G1 X86.181 Y19.929 E17.18961
G1 X85.644 Y19.719 E17.22845
G1 X85.079 Y19.602 E17.26731
G1 X84.501 Y19.583 E17.30626
G1 X83.929 Y19.662 E17.34515
G1 X83.38 Y19.837 E17.38396
G1 X82.868 Y20.1 E17.42273
G1 X82.407 Y20.448 E17.46163
G1 X82.012 Y20.869 E17.50051
G1 X81.694 Y21.35 E17.53935
G1 X81.46 Y21.876 E17.57812
G1 X81.321 Y22.437 E17.61705
G1 X81.277 Y23.013 E17.65596
G1 X81.332 Y23.586 E17.69473
G1 X81.482 Y24.144 E17.73364
G1 X81.724 Y24.666 E17.77239
G1 X82.051 Y25.141 E17.81123
G1 X82.454 Y25.555 E17.85015
G1 X82.923 Y25.894 E17.88912
G1 X83.441 Y26.148 E17.92798
G1 X83.992 Y26.312 E17.9667
G1 X84.566 Y26.38 E18.00563
G1 X85.143 Y26.349 E18.04455
G1 X85.704 Y26.222 E18.08329
G1 X86.238 Y26.003 E18.12216
G1 X86.727 Y25.694 E18.16112
G1 X87.156 Y25.31 E18.1999
G1 X87.538 Y24.827 E18.24137
G1 X87.978 Y23.827 E18.31496
G0 F5400 X87.394 Y23.666
;TYPE:WALL-OUTER
G1 F926.4 X87.478 Y22.993 E18.36064
G1 X87.391 Y22.28 E18.40902
G1 X87.217 Y21.803 E18.44321
G1 X86.982 Y21.39 E18.47522
G1 X86.68 Y21.024 E18.50718
G1 X86.322 Y20.714 E18.53907
G1 X85.915 Y20.469 E18.57107
G1 X85.473 Y20.296 E18.60304
G1 X85.008 Y20.2 E18.63501
G1 X84.532 Y20.184 E18.66709
G1 X84.062 Y20.249 E18.69905
G1 X83.61 Y20.393 E18.731
G1 X83.188 Y20.61 E18.76296
G1 X82.809 Y20.896 E18.79494
G1 X82.484 Y21.242 E18.82691
G1 X82.222 Y21.639 E18.85895
G1 X82.03 Y22.072 E18.89085
G1 X81.915 Y22.533 E18.92285
G1 X81.879 Y23.007 E18.95487
G1 X81.924 Y23.479 E18.9868
G1 X82.048 Y23.938 E19.01882
G1 X82.247 Y24.368 E19.05074
G1 X82.516 Y24.759 E19.0827
G1 X82.848 Y25.099 E19.11471
G1 X83.233 Y25.378 E19.14673
G1 X83.66 Y25.587 E19.17875
G1 X84.114 Y25.722 E19.21065
G1 X84.586 Y25.778 E19.24266
G1 X85.06 Y25.753 E19.27463
G1 X85.523 Y25.648 E19.30661
G1 X85.962 Y25.468 E19.33856
G1 X86.364 Y25.214 E19.37059
G1 X86.717 Y24.897 E19.40255
G1 X87.02 Y24.515 E19.43539
G1 X87.394 Y23.666 E19.49787
G0 F5400 X87.431 Y23.369
G0 X88.086 Y23.451
G1 F2400 E18.49787
G1 F600 Z1.1
G0 F5400 X79.289 Y23.579 Z1.1
;TYPE:WALL-INNER
G1 F600 Z0.6
G1 F2400 E19.52281
G1 F1163.9 X79.356 Y22.455 E19.59865
G1 X79.424 Y21.975 E19.6313
G1 X79.536 Y21.284 E19.67845
