;FLAVOR:Marlin
;TIME:2067
;Filament used: 3.6512m, 0m
;Layer height: 0.3
;MINX:8.73
;MINY:6.252
;MINZ:0.36
;MAXX:81.816
;MAXY:79.338
;MAXZ:5.96
;Generated with Cura_SteamEngine mb-master-20191116
T0
M140 S100
M105
M190 S100
M104 S220
M105
M109 S220
M82 ;absolute extrusion mode
;Sliced at: Thu 07-04-2022 23:55:52
G21 ;metric values
M107
G28
M420 S1
G90 ;absolute positioning
G92 E0; reset extruder distance
G1 X0 Y0 Z5 F5000 ;move nozzle up 5mm for safe homing
G29;ABL
M500
M82 ;set extruder to absolute mode
M107 ;start with the fan off
G1 X0 Y0 Z15.0 F5000 ;move the platform down 15mm
G92 E0 ;zero the extruded length
G1 F200 E3 ;extrude 3mm of feed stock
G1 F200 E0 ;Retract
G4 S2 ;Wait for material to fall
G1 F200 E3
G92 E0 ;zero the extruded length again
M117 Printing...
G92 E0
T0;WIPE
G91
G1 Z-0.5
G1 X -20 F3000
G1 X40
G1 X-20
G1 Z0.5
G90

G92 E0
G1 F2400 E-1
;LAYER_COUNT:13
;LAYER:-6
M107
G0 F6000 X18.902 Y17.936 Z0.36
;TYPE:SUPPORT-INTERFACE
G1 F2400 E0.02495
G1 F1350 X19.848 Y16.988 E0.26548
G1 X20.046 Y16.778 E0.31732
G1 X20.451 Y16.387 E0.41843
G1 X20.857 Y16.014 E0.51745
G1 X21.862 Y15.147 E0.75584
G1 X22.05 Y14.975 E0.8016
G1 X22.518 Y14.586 E0.9109
G1 X22.925 Y14.265 E1.004
G1 X24.315 Y13.241 E1.31408
G1 X24.309 Y13.235 E1.31561
G1 X24.648 Y12.994 E1.39031
G1 X25.112 Y12.68 E1.49094
G1 X26.228 Y11.976 E1.72792
G1 X26.322 Y11.911 E1.74845
G1 X26.464 Y11.819 E1.77884
G1 X26.953 Y11.523 E1.8815
G1 X27.424 Y11.254 E1.97892
G1 X28.61 Y10.626 E2.21995
G1 X28.848 Y10.492 E2.26901
G1 X29.318 Y10.254 E2.36363
G1 X29.786 Y10.029 E2.45689
G1 X31.266 Y9.373 E2.74765
G1 X31.826 Y9.139 E2.85666
G1 X32.29 Y8.958 E2.94611
G1 X34.349 Y8.238 E3.33787
G1 X34.827 Y8.091 E3.42769
G1 X36.183 Y7.728 E3.67981
G1 X36.36 Y7.673 E3.7131
G1 X36.52 Y7.629 E3.7429
G1 X36.974 Y7.515 E3.82698
G1 X37.438 Y7.409 E3.91246
G1 X38.815 Y7.15 E4.16411
G1 X39.156 Y7.075 E4.22682
G1 X39.632 Y6.993 E4.31357
G1 X40.191 Y6.912 E4.41502
G1 X41.507 Y6.764 E4.65287
G1 X41.824 Y6.72 E4.71035
G1 X42.306 Y6.673 E4.79733
G1 X42.867 Y6.634 E4.89833
G1 X44.211 Y6.583 E5.13989
G1 X44.491 Y6.564 E5.1903
G1 X45.076 Y6.553 E5.29539
G1 X45.521 Y6.554 E5.37531
G1 X46.914 Y6.605 E5.62567
G1 X47.225 Y6.607 E5.68153
G1 X48.299 Y6.68 E5.87487
G1 X49.603 Y6.828 E6.11057
G1 X49.937 Y6.856 E6.17077
G1 X50.437 Y6.922 E6.26135
G1 X50.921 Y6.994 E6.34924
G1 X52.285 Y7.254 E6.59863
G1 X52.654 Y7.313 E6.66575
G1 X53.334 Y7.46 E6.7907
G1 X53.627 Y7.529 E6.84476
G1 X54.924 Y7.877 E7.08595
G1 X55.279 Y7.964 E7.1516
G1 X55.77 Y8.106 E7.2434
G1 X56.213 Y8.244 E7.32673
G1 X57.518 Y8.699 E7.57495
G1 X57.771 Y8.778 E7.62256
G1 X58.331 Y8.985 E7.72979
G1 X58.778 Y9.163 E7.8162
G1 X60.018 Y9.703 E8.05911
G1 X60.274 Y9.806 E8.10867
G1 X60.827 Y10.059 E8.2179
G1 X61.285 Y10.283 E8.30947
G1 X62.464 Y10.906 E8.54897
G1 X62.731 Y11.037 E8.60238
G1 X63.186 Y11.288 E8.69571
G1 X63.613 Y11.535 E8.78431
G1 X65.458 Y12.694 E9.17564
G1 X65.861 Y12.967 E9.26306
G1 X65.917 Y13.007 E9.27542
G1 X67.021 Y13.822 E9.52188
G1 X67.295 Y14.013 E9.58187
G1 X67.686 Y14.313 E9.67039
G1 X68.116 Y14.659 E9.76951
G1 X69.125 Y15.527 E10.00856
G1 X69.364 Y15.721 E10.06385
G1 X69.749 Y16.065 E10.15658
G1 X70.11 Y16.401 E10.24516
G1 X71.269 Y17.547 E10.5379
G1 X71.681 Y17.972 E10.64421
G1 X72.033 Y18.354 E10.7375
G1 X72.919 Y19.382 E10.98125
G1 X73.108 Y19.589 E11.03159
G1 X73.493 Y20.054 E11.14002
G1 X73.78 Y20.414 E11.22271
G1 X74.603 Y21.528 E11.47147
G1 X74.766 Y21.734 E11.51865
G1 X75.075 Y22.17 E11.61463
G1 X75.388 Y22.634 E11.71515
G1 X76.098 Y23.76 E11.95423
G1 X76.255 Y23.995 E12.00499
G1 X76.57 Y24.517 E12.1145
G1 X76.817 Y24.95 E12.20403
G1 X77.439 Y26.12 E12.44201
G1 X77.54 Y26.298 E12.47877
G1 X77.818 Y26.844 E12.58882
G1 X78.044 Y27.316 E12.68281
G1 X78.595 Y28.574 E12.92947
G1 X78.704 Y28.805 E12.97535
G1 X78.918 Y29.316 E13.07485
G1 X79.107 Y29.802 E13.1685
G1 X79.566 Y31.112 E13.41781
G1 X79.668 Y31.378 E13.46898
G1 X79.834 Y31.882 E13.56428
G1 X79.974 Y32.333 E13.6491
G1 X80.342 Y33.703 E13.90388
G1 X80.437 Y34.024 E13.964
G1 X80.548 Y34.471 E14.04672
G1 X80.661 Y34.964 E14.13757
G1 X80.845 Y35.928 E14.31383
G1 X80.961 Y36.686 E14.45156
G1 X80.979 Y36.686 E14.45479
G1 X81.055 Y37.048 E14.52122
G1 X81.086 Y37.226 E14.55367
G1 X81.15 Y37.659 E14.63229
G1 X81.396 Y39.828 E15.02435
G1 X81.435 Y40.389 E15.12535
G1 X81.486 Y41.733 E15.36691
G1 X81.505 Y42.013 E15.41732
G1 X81.516 Y42.543 E15.51253
G1 X81.516 Y43.026 E15.59928
G1 X81.464 Y44.427 E15.85108
G1 X81.458 Y44.815 E15.92077
G1 X81.434 Y45.252 E15.99938
G1 X81.39 Y45.805 E16.09901
G1 X81.242 Y47.124 E16.3374
G1 X81.215 Y47.441 E16.39454
G1 X81.141 Y47.999 E16.49563
G1 X81.065 Y48.494 E16.58558
G1 X80.818 Y49.8 E16.8243
G1 X80.767 Y50.121 E16.88268
G1 X80.661 Y50.626 E16.97536
G1 X80.546 Y51.128 E17.06785
G1 X80.189 Y52.454 E17.31449
G1 X80.116 Y52.766 E17.37204
G1 X79.977 Y53.247 E17.46196
G1 X79.826 Y53.734 E17.55354
G1 X79.371 Y55.036 E17.80125
G1 X79.279 Y55.326 E17.8559
G1 X79.087 Y55.845 E17.95529
G1 X78.906 Y56.3 E18.04323
G1 X78.36 Y57.551 E18.28839
G1 X78.297 Y57.714 E18.31977
G1 X78.238 Y57.851 E18.34656
G1 X78.027 Y58.314 E18.43795
G1 X77.786 Y58.807 E18.53651
G1 X77.163 Y59.986 E18.77601
G1 X77.027 Y60.263 E18.83143
G1 X76.78 Y60.709 E18.923
G1 X76.521 Y61.156 E19.01578
G1 X75.765 Y62.358 E19.27082
G1 X75.646 Y62.566 E19.31386
G1 X75.351 Y63.017 E19.41065
G1 X75.029 Y63.483 E19.51238
G1 X74.251 Y64.537 E19.74767
G1 X74.09 Y64.77 E19.79854
G1 X73.661 Y65.327 E19.92481
G1 X73.41 Y65.637 E19.99645
G1 X72.552 Y66.634 E20.2327
G1 X72.351 Y66.883 E20.29017
G1 X71.996 Y67.28 E20.38582
G1 X71.652 Y67.649 E20.47643
G1 X70.696 Y68.608 E20.71963
G1 X70.606 Y68.707 E20.74366
G1 X70.517 Y68.797 E20.7664
G1 X70.067 Y69.231 E20.87868
G1 X69.71 Y69.559 E20.96576
G1 X68.687 Y70.441 E21.20835
G1 X68.565 Y70.557 E21.23859
G1 X68.48 Y70.63 E21.25871
G1 X68.015 Y71.015 E21.36714
G1 X67.653 Y71.303 E21.45022
G1 X66.541 Y72.125 E21.69858
G1 X66.337 Y72.286 E21.74526
G1 X65.887 Y72.605 E21.84433
G1 X65.435 Y72.91 E21.94226
G1 X64.292 Y73.631 E22.18498
G1 X64.221 Y73.683 E22.20079
G1 X64.096 Y73.763 E22.22744
G1 X63.617 Y74.054 E22.32811
G1 X63.148 Y74.323 E22.42521
G1 X61.927 Y74.97 E22.6734
G1 X61.708 Y75.094 E22.7186
G1 X61.206 Y75.348 E22.81964
G1 X60.749 Y75.567 E22.91066
G1 X59.509 Y76.11 E23.15379
G1 X59.265 Y76.224 E23.20216
G1 X58.718 Y76.453 E23.30866
G1 X58.214 Y76.648 E23.40572
G1 X56.842 Y77.127 E23.66673
G1 X56.842 Y77.135 E23.66816
G1 X56.758 Y77.166 E23.68425
G1 X56.141 Y77.371 E23.80102
G1 X55.734 Y77.496 E23.87749
G1 X54.21 Y77.912 E24.16122
G1 X54.035 Y77.961 E24.19386
G1 X53.565 Y78.077 E24.28081
G1 X53.062 Y78.19 E24.3734
G1 X52.128 Y78.367 E24.54414
G1 X51.852 Y78.41 E24.5943
G1 X51.587 Y78.458 E24.64267
G1 X50.994 Y78.582 E24.75148
G1 X50.843 Y78.608 E24.779
G1 X50.41 Y78.672 E24.85762
G1 X48.826 Y78.86 E25.14411
G1 X48.743 Y78.87 E25.15912
G1 X48.234 Y78.919 E25.25096
G1 X47.68 Y78.957 E25.3507
G1 X46.336 Y79.008 E25.59226
G1 X46.056 Y79.027 E25.64267
G1 X45.471 Y79.038 E25.74775
G1 X45.026 Y79.037 E25.82768
G1 X43.642 Y78.986 E26.07642
G1 X43.254 Y78.98 E26.14611
G1 X42.793 Y78.954 E26.22904
G1 X42.25 Y78.911 E26.32687
G1 X40.945 Y78.764 E26.56274
G1 X40.615 Y78.735 E26.62224
G1 X40.073 Y78.664 E26.72042
G1 X39.574 Y78.587 E26.8111
G1 X38.253 Y78.336 E27.0526
G1 X37.91 Y78.28 E27.11502
G1 X37.46 Y78.185 E27.19763
G1 X36.948 Y78.067 E27.29199
G1 X35.43 Y77.67 E27.5738
G1 X35.351 Y77.65 E27.58844
G1 X34.806 Y77.493 E27.69031
G1 X34.335 Y77.348 E27.77882
G1 X33.016 Y76.887 E28.02977
G1 X32.747 Y76.801 E28.08049
G1 X32.273 Y76.626 E28.17124
G1 X31.795 Y76.439 E28.26343
G1 X30.311 Y75.8 E28.55362
G1 X30.239 Y75.769 E28.5677
G1 X29.759 Y75.549 E28.66253
G1 X29.293 Y75.324 E28.75547
G1 X28.09 Y74.688 E28.99988
G1 X27.831 Y74.562 E29.05161
G1 X27.368 Y74.307 E29.14654
G1 X26.923 Y74.05 E29.23884
G1 X25.747 Y73.312 E29.4882
G1 X25.527 Y73.183 E29.534
G1 X25.023 Y72.854 E29.6421
G1 X24.623 Y72.579 E29.72928
G1 X23.524 Y71.769 E29.97449
G1 X23.304 Y71.616 E30.02262
G1 X22.86 Y71.277 E30.12295
G1 X22.496 Y70.987 E30.20654
G1 X21.187 Y69.873 E30.51525
G1 X20.787 Y69.517 E30.61143
G1 X20.42 Y69.174 E30.70165
G1 X19.456 Y68.211 E30.94638
G1 X19.251 Y68.017 E30.99707
G1 X18.852 Y67.604 E31.10021
G1 X18.517 Y67.241 E31.18892
G1 X17.621 Y66.2 E31.43561
G1 X17.435 Y65.997 E31.48506
G1 X17.081 Y65.571 E31.58454
G1 X16.756 Y65.161 E31.67851
G1 X15.944 Y64.063 E31.92378
G1 X15.77 Y63.84 E31.97458
G1 X15.453 Y63.394 E32.07286
G1 X15.184 Y62.999 E32.15869
G1 X14.294 Y61.598 E32.4568
G1 X13.998 Y61.109 E32.55946
G1 X13.746 Y60.669 E32.65053
G1 X13.115 Y59.478 E32.89261
G1 X12.97 Y59.222 E32.94545
G1 X12.734 Y58.755 E33.03943
G1 X12.498 Y58.265 E33.13711
G1 X11.844 Y56.786 E33.42756
G1 X11.604 Y56.211 E33.53946
G1 X11.421 Y55.736 E33.63089
G1 X10.942 Y54.364 E33.89189
G1 X10.934 Y54.364 E33.89333
G1 X10.878 Y54.21 E33.92276
G1 X10.713 Y53.709 E34.0175
G1 X10.567 Y53.237 E34.10623
G1 X10.21 Y51.908 E34.35339
G1 X10.114 Y51.581 E34.4146
G1 X9.996 Y51.108 E34.50216
G1 X9.886 Y50.626 E34.59095
G1 X9.624 Y49.244 E34.84359
G1 X9.56 Y48.954 E34.89692
G1 X9.475 Y48.454 E34.98801
G1 X9.396 Y47.923 E35.08443
G1 X9.15 Y45.751 E35.47703
G1 X9.112 Y45.202 E35.57587
G1 X9.061 Y43.858 E35.81743
G1 X9.042 Y43.578 E35.86784
G1 X9.031 Y43.048 E35.96305
G1 X9.031 Y42.565 E36.0498
G1 X9.083 Y41.14 E36.3059
G1 X9.082 Y40.975 E36.33554
G1 X9.087 Y40.824 E36.36267
G1 X9.113 Y40.339 E36.44991
G1 X9.158 Y39.77 E36.55242
G1 X9.306 Y38.46 E36.7892
G1 X9.326 Y38.196 E36.83675
G1 X9.407 Y37.581 E36.94816
G1 X9.487 Y37.069 E37.04124
G1 X9.733 Y35.773 E37.27816
G1 X9.757 Y35.609 E37.30793
G1 X9.788 Y35.433 E37.34003
G1 X9.886 Y34.964 E37.42608
G1 X10.006 Y34.447 E37.5214
G1 X10.353 Y33.151 E37.76237
G1 X10.427 Y32.843 E37.81926
G1 X10.584 Y32.299 E37.92096
G1 X10.726 Y31.844 E38.00656
G1 X11.179 Y30.544 E38.25382
G1 X11.257 Y30.297 E38.30034
G1 X11.436 Y29.811 E38.39336
G1 X11.63 Y29.317 E38.48868
G1 X12.242 Y27.895 E38.76673
G1 X12.288 Y27.785 E38.78814
G1 X12.515 Y27.288 E38.88628
G1 X12.76 Y26.784 E38.98693
G1 X13.378 Y25.615 E39.22442
G1 X13.513 Y25.341 E39.27928
G1 X13.762 Y24.89 E39.37181
G1 X14.015 Y24.452 E39.46265
G1 X14.757 Y23.269 E39.71346
G1 X14.887 Y23.048 E39.75951
G1 X15.187 Y22.587 E39.8583
G1 X15.495 Y22.139 E39.95594
G1 X16.3 Y21.048 E40.19946
G1 X16.491 Y20.774 E40.25945
G1 X16.78 Y20.396 E40.34491
G1 X17.137 Y19.953 E40.44709
G1 X18.103 Y18.82 E40.71451
G1 X18.19 Y18.715 E40.739
G1 X18.567 Y18.294 E40.8405
G1 X18.902 Y17.936 E40.92856
G0 F6000 X19.2 Y17.637
G1 F1350 X19.2 Y67.964 E49.96752
G1 F2400 E48.96752
G1 F600 Z0.86
G0 F6000 X21.6 Y70.224 Z0.86
G1 F600 Z0.36
G1 F2400 E49.99247
G1 F1350 X21.6 Y15.373 E59.84397
G1 F2400 E58.84397
G1 F600 Z0.86
G0 F6000 X24 Y13.473 Z0.86
G1 F600 Z0.36
G1 F2400 E59.86891
G1 F1350 X24 Y72.119 E70.40201
G1 F2400 E69.40201
G1 F600 Z0.86
G0 F6000 X26.4 Y73.721 Z0.86
G1 F600 Z0.36
G1 F2400 E70.42696
G1 F1350 X26.4 Y11.86 E81.53748
G1 F2400 E80.53748
G1 F600 Z0.86
G0 F6000 X28.8 Y10.519 Z0.86
G1 F600 Z0.36
G1 F2400 E81.56243
G1 F1350 X28.8 Y75.063 E93.15484
G1 F2400 E92.15484
G1 F600 Z0.86
G0 F6000 X31.2 Y76.182 Z0.86
G1 F600 Z0.36
G1 F2400 E93.17978
G1 F1350 X31.2 Y9.402 E105.17379
G1 F2400 E104.17379
G1 F600 Z0.86
G0 F6000 X33.6 Y8.499 Z0.86
G1 F600 Z0.36
G1 F2400 E105.19873
G1 F1350 X33.6 Y77.091 E117.51818
G1 F2400 E116.51818
G1 F600 Z0.86
G0 F6000 X36 Y77.819 Z0.86
G1 F600 Z0.36
G1 F2400 E117.54312
G1 F1350 X36 Y7.776 E130.12318
G1 F2400 E129.12318
G1 F600 Z0.86
G0 F6000 X38.4 Y7.228 Z0.86
G1 F600 Z0.36
G1 F2400 E130.14812
G1 F1350 X38.4 Y78.363 E142.92431
G1 F2400 E141.92431
G1 F600 Z0.86
G0 F6000 X40.8 Y78.751 Z0.86
G1 F600 Z0.36
G1 F2400 E142.94925
G1 F1350 X40.8 Y6.843 E155.86427
G1 F2400 E154.86427
G1 F600 Z0.86
G0 F6000 X43.2 Y6.621 Z0.86
G1 F600 Z0.36
G1 F2400 E155.88921
G1 F1350 X43.2 Y78.976 E168.88451
G1 F2400 E167.88451
G1 F600 Z0.86
G0 F6000 X45.6 Y79.036 Z0.86
G1 F600 Z0.36
G1 F2400 E168.90946
G1 F1350 X45.6 Y6.557 E181.92703
G1 F2400 E180.92703
G1 F600 Z0.86
G0 F6000 X48 Y6.66 Z0.86
G1 F600 Z0.36
G1 F2400 E181.95197
G1 F1350 X48 Y78.936 E194.93309
G1 F2400 E193.93309
G1 F600 Z0.86
G0 F6000 X50.4 Y78.674 Z0.86
G1 F600 Z0.36
G1 F2400 E194.95803
G1 F1350 X50.4 Y6.918 E207.84575
G1 F2400 E206.84575
G1 F600 Z0.86
G0 F6000 X52.8 Y7.345 Z0.86
G1 F600 Z0.36
G1 F2400 E207.87069
G1 F1350 X52.8 Y78.24 E220.60377
G1 F2400 E219.60377
G1 F600 Z0.86
G0 F6000 X55.2 Y77.642 Z0.86
G1 F600 Z0.36
G1 F2400 E220.62872
G1 F1350 X55.2 Y7.945 E233.14663
G1 F2400 E232.14663
G1 F600 Z0.86
G0 F6000 X57.6 Y8.725 Z0.86
G1 F600 Z0.36
G1 F2400 E233.17157
G1 F1350 X57.6 Y76.863 E245.40948
G1 F2400 E244.40948
G1 F600 Z0.86
G0 F6000 X60 Y75.895 Z0.86
G1 F600 Z0.36
G1 F2400 E245.43442
G1 F1350 X60 Y9.696 E257.32408
G1 F2400 E256.32408
G1 F600 Z0.86
G0 F6000 X62.4 Y10.873 Z0.86
G1 F600 Z0.36
G1 F2400 E257.34902
G1 F1350 X62.4 Y74.72 E268.81625
G1 F2400 E267.81625
G1 F600 Z0.86
G0 F6000 X64.8 Y73.311 Z0.86
G1 F600 Z0.36
G1 F2400 E268.84119
G1 F1350 X64.8 Y12.281 E279.80247
G1 F2400 E278.80247
G1 F600 Z0.86
G0 F6000 X67.2 Y13.947 Z0.86
G1 F600 Z0.36
G1 F2400 E279.82741
G1 F1350 X67.2 Y71.638 E290.18899
G1 F2400 E289.18899
G1 F600 Z0.86
G0 F6000 X69.6 Y69.654 Z0.86
G1 F600 Z0.36
G1 F2400 E290.21393
G1 F1350 X69.6 Y15.932 E299.86266
G1 F2400 E298.86266
G1 F600 Z0.86
G0 F6000 X72 Y18.319 Z0.86
G1 F600 Z0.36
G1 F2400 E299.8876
G1 F1350 X72 Y67.276 E308.68051
G1 F2400 E307.68051
G1 F600 Z0.86
G0 F6000 X74.4 Y64.336 Z0.86
G1 F600 Z0.36
G1 F2400 E308.70546
G1 F1350 X74.4 Y21.254 E316.44319
G1 F2400 E315.44319
G1 F600 Z0.86
G0 F6000 X76.8 Y24.921 Z0.86
M104 S210
G1 F600 Z0.36
G1 F2400 E316.46813
G1 F1350 X76.8 Y60.673 E322.88936
G1 F2400 E321.88936
G1 F600 Z0.86
G0 F6000 X79.2 Y55.54 Z0.86
G1 F600 Z0.36
G1 F2400 E322.91431
G1 F1350 X79.2 Y30.068 E327.4892
G1 F2400 E326.4892
G1 F600 Z0.86
G0 F6000 X16.8 Y20.371 Z0.86
G1 F600 Z0.36
G1 F2400 E327.51414
G1 F1350 X16.8 Y65.216 E335.56852
G1 F2400 E334.56852
G1 F600 Z0.86
G0 F6000 X14.4 Y61.764 Z0.86
G1 F600 Z0.36
G1 F2400 E335.59346
G1 F1350 X14.4 Y23.838 E342.40515
G1 F2400 E341.40515
G1 F600 Z0.86
G0 F6000 X12 Y28.457 Z0.86
G1 F600 Z0.36
G1 F2400 E342.4301
G1 F1350 X12 Y57.138 E347.58134
G1 F2400 E346.58134
G1 F600 Z0.86
G0 F6000 X9.6 Y49.135 Z0.86
G1 F600 Z0.36
G1 F2400 E347.60629
G1 F1350 X9.6 Y36.473 E349.88044
G1 F2400 E348.88044
G1 F600 Z0.86
G0 F6000 X10.933 Y54.363 Z0.86
;TIME_ELAPSED:110.505543
;LAYER:-5
M140 S90
G0 X10.933 Y54.363 Z1.31
;TYPE:SUPPORT
G1 F600 Z0.81
G1 F2400 E349.90539
G1 F1350 X10.878 Y54.209 E349.9421
G1 X10.713 Y53.708 E350.06052
G1 X10.567 Y53.236 E350.17144
G1 X10.21 Y51.907 E350.48038
G1 X10.16 Y51.738 E350.51995
G1 X36.325 Y77.903 E358.82732
G1 X36.947 Y78.066 E358.97168
G1 X37.46 Y78.184 E359.08986
G1 X37.91 Y78.278 E359.19307
G1 X38.253 Y78.334 E359.27109
G1 X38.85 Y78.448 E359.40754
G1 X9.617 Y49.215 E368.689
G1 X9.56 Y48.953 E368.7492
G1 X9.474 Y48.453 E368.8631
G1 X9.396 Y47.922 E368.98359
G1 X9.279 Y46.897 E369.2152
G1 X41.17 Y78.788 E379.34057
G1 X42.249 Y78.91 E379.58436
G1 X42.793 Y78.953 E379.70687
G1 X43.253 Y78.979 E379.81031
G1 X43.342 Y78.98 E379.83029
G1 X9.093 Y44.731 E390.70432
G1 X9.06 Y43.857 E390.90068
G1 X9.041 Y43.576 E390.96391
G1 X9.031 Y43.047 E391.0827
G1 X9.03 Y42.688 E391.1633
G1 X45.378 Y79.036 E402.70376
G1 X45.471 Y79.037 E402.72464
G1 X46.055 Y79.026 E402.85578
G1 X46.336 Y79.007 E402.91901
G1 X47.292 Y78.97 E403.13379
G1 X9.089 Y40.768 E415.26306
G1 X9.112 Y40.338 E415.35974
G1 X9.158 Y39.769 E415.4879
G1 X9.25 Y38.948 E415.67337
G1 X49.124 Y78.823 E428.3335
G1 X50.409 Y78.671 E428.624
G1 X50.843 Y78.606 E428.72252
G1 X50.881 Y78.599 E428.73119
G1 X9.468 Y37.186 E441.87979
G1 X9.487 Y37.068 E441.90663
G1 X9.732 Y35.772 E442.20274
G1 X9.756 Y35.608 E442.23995
G1 X9.773 Y35.512 E442.26184
G1 X52.547 Y78.286 E455.84255
G1 X53.061 Y78.189 E455.95999
G1 X53.564 Y78.075 E456.07578
G1 X54.034 Y77.96 E456.18441
G1 X54.165 Y77.923 E456.21497
G1 X10.149 Y33.908 E470.18986
G1 X10.352 Y33.149 E470.36625
G1 X10.426 Y32.842 E470.43715
