;FLAVOR:Marlin
;TIME:1392
;Filament used: 1.63774m, 0m
;Layer height: 0.3
;MINX:37.941
;MINY:12.847
;MINZ:0.3
;MAXX:90.1
;MAXY:65.003
;MAXZ:13.4
;Generated with Cura_SteamEngine mb-master-20191116
T0
M140 S110
M105
M190 S110
M104 S270
M105
M109 S270
M82 ;absolute extrusion mode
;Sliced at: Sat 16-04-2022 17:07:34
G21 ;metric values
M107
G28
M420 S1
G90 ;absolute positioning
G92 E0; reset extruder distance
G1 X0 Y0 Z5 F5000 ;move nozzle up 5mm for safe homing
G29;ABL
M500
M82 ;set extruder to absolute mode
M107 ;start with the fan off
G1 X0 Y0 Z15.0 F5000 ;move the platform down 15mm
G92 E0 ;zero the extruded length
G1 F200 E3 ;extrude 3mm of feed stock
G1 F200 E0 ;Retract
G4 S2 ;Wait for material to fall
G1 F200 E3
G92 E0 ;zero the extruded length again
M117 Printing...
G92 E0
T0;WIPE
G91
G1 Z-0.5
G1 X -20 F3000
G1 X40
G1 X-20
G1 Z0.5
G90

G92 E0
G1 F2400 E-1
;LAYER_COUNT:43
;LAYER:0
M107
G1 F600 Z0.8
G0 F4800 X41.526 Y25.723 Z0.8
;TYPE:SKIRT
G1 F600 Z0.3
G1 F2400 E0.02495
G1 F1080 X42.114 Y24.755 E0.10123
G1 X42.253 Y24.541 E0.11841
G1 X42.907 Y23.608 E0.19515
G1 X42.963 Y23.531 E0.20157
G1 X43.377 Y22.97 E0.24853
G1 X43.518 Y22.79 E0.26393
G1 X44.291 Y21.862 E0.34527
G1 X44.312 Y21.837 E0.34747
G1 X44.517 Y21.595 E0.36883
G1 X44.583 Y21.52 E0.37556
G1 X44.732 Y21.353 E0.39063
G1 X44.798 Y21.28 E0.39726
G1 X44.997 Y21.068 E0.41685
G1 X45.078 Y20.984 E0.42471
G1 X45.878 Y20.181 E0.50105
G1 X45.956 Y20.105 E0.50838
G1 X46.446 Y19.64 E0.55388
G1 X46.621 Y19.484 E0.56967
G1 X47.565 Y18.69 E0.65275
G1 X47.642 Y18.627 E0.65945
G1 X48.247 Y18.144 E0.71159
G1 X48.446 Y17.995 E0.72833
G1 X48.725 Y17.8 E0.75126
G1 X48.996 Y17.605 E0.77375
G1 X49.053 Y17.565 E0.77844
G1 X49.78 Y17.062 E0.83798
G1 X49.932 Y16.962 E0.85023
G1 X50.236 Y16.772 E0.87438
G1 X50.352 Y16.702 E0.8835
G1 X51.349 Y16.126 E0.96105
G1 X51.437 Y16.077 E0.96784
G1 X52.066 Y15.735 E1.01606
G1 X52.245 Y15.643 E1.02961
G1 X52.623 Y15.462 E1.05784
G1 X52.667 Y15.442 E1.0611
G1 X53.707 Y14.96 E1.1383
G1 X53.872 Y14.888 E1.15043
G1 X54.276 Y14.723 E1.17982
G1 X54.411 Y14.67 E1.18959
G1 X55.395 Y14.31 E1.26016
G1 X55.488 Y14.278 E1.26678
G1 X56.294 Y14.006 E1.32407
G1 X56.521 Y13.937 E1.34005
G1 X57.093 Y13.782 E1.37997
G1 X57.114 Y13.776 E1.38144
G1 X58.095 Y13.516 E1.44979
G1 X58.295 Y13.469 E1.46363
G1 X58.658 Y13.393 E1.48861
G1 X58.776 Y13.37 E1.4967
G1 X59.961 Y13.16 E1.57776
G1 X60.061 Y13.144 E1.58458
G1 X60.665 Y13.053 E1.62572
G1 X60.88 Y13.026 E1.64031
G1 X61.899 Y12.93 E1.70925
G1 X61.941 Y12.926 E1.71209
G1 X62.445 Y12.884 E1.74615
G1 X62.537 Y12.878 E1.75236
G1 X62.822 Y12.861 E1.77159
G1 X62.947 Y12.855 E1.78002
G1 X63.202 Y12.848 E1.7972
G1 X63.309 Y12.847 E1.80441
G1 X63.683 Y12.847 E1.8296
G1 X63.756 Y12.848 E1.83452
G1 X64.048 Y12.853 E1.85419
G1 X65.269 Y12.867 E1.93643
G1 X65.566 Y12.882 E1.95646
G1 X66.896 Y12.999 E2.04638
G1 X67.01 Y13.011 E2.0541
G1 X67.477 Y13.066 E2.08577
G1 X67.686 Y13.096 E2.09999
G1 X69.038 Y13.33 E2.19241
G1 X69.151 Y13.351 E2.20015
G1 X69.755 Y13.474 E2.24166
G1 X69.97 Y13.525 E2.25655
G1 X70.904 Y13.771 E2.3216
G1 X71.009 Y13.8 E2.32893
G1 X72.055 Y14.107 E2.40236
G1 X72.287 Y14.183 E2.4188
G1 X73.354 Y14.57 E2.49524
G1 X73.453 Y14.607 E2.50236
G1 X74.098 Y14.861 E2.54905
G1 X74.298 Y14.946 E2.56369
G1 X75.362 Y15.435 E2.64256
G1 X75.43 Y15.468 E2.64765
G1 X75.881 Y15.686 E2.68138
G1 X76.028 Y15.76 E2.69247
G1 X76.356 Y15.936 E2.71754
G1 X76.457 Y15.993 E2.72535
G1 X77.187 Y16.413 E2.78207
G1 X77.268 Y16.46 E2.78838
G1 X78.196 Y17.024 E2.86152
G1 X78.414 Y17.167 E2.87908
G1 X79.705 Y18.075 E2.98539
G1 X79.878 Y18.204 E2.99992
G1 X80.144 Y18.414 E3.02275
G1 X80.233 Y18.487 E3.0305
G1 X81.088 Y19.204 E3.10565
G1 X81.094 Y19.209 E3.10618
G1 X81.322 Y19.401 E3.12626
G1 X81.402 Y19.47 E3.13337
G1 X81.61 Y19.655 E3.15212
G1 X81.681 Y19.72 E3.1586
G1 X81.85 Y19.878 E3.17418
G1 X81.943 Y19.968 E3.1829
G1 X82.848 Y20.872 E3.26905
G1 X82.926 Y20.952 E3.27658
G1 X83.289 Y21.336 E3.31217
G1 X83.431 Y21.494 E3.32648
G1 X84.207 Y22.41 E3.40733
G1 X84.278 Y22.496 E3.41485
G1 X84.779 Y23.123 E3.4689
G1 X84.911 Y23.299 E3.48372
G1 X85.382 Y23.962 E3.53849
G1 X85.409 Y24 E3.54163
G1 X85.842 Y24.625 E3.59284
G1 X85.941 Y24.775 E3.60495
G1 X86.171 Y25.142 E3.63412
G1 X86.243 Y25.262 E3.64354
G1 X86.786 Y26.202 E3.71666
G1 X86.826 Y26.274 E3.72221
G1 X87.189 Y26.934 E3.77294
G1 X87.301 Y27.153 E3.78951
G1 X87.76 Y28.129 E3.86215
G1 X87.771 Y28.152 E3.86386
G1 X87.992 Y28.63 E3.89933
G1 X88.063 Y28.795 E3.91143
G1 X88.222 Y29.185 E3.9398
G1 X88.273 Y29.315 E3.9492
G1 X88.62 Y30.262 E4.01713
G1 X88.655 Y30.362 E4.02427
G1 X88.951 Y31.243 E4.08686
G1 X89.015 Y31.453 E4.10165
G1 X89.175 Y32.036 E4.14237
G1 X89.185 Y32.075 E4.14508
G1 X89.427 Y32.994 E4.20909
G1 X89.471 Y33.177 E4.22176
G1 X89.547 Y33.535 E4.24641
G1 X89.572 Y33.665 E4.25533
G1 X89.781 Y34.845 E4.33604
G1 X89.798 Y34.947 E4.34301
G1 X89.896 Y35.601 E4.38754
G1 X89.922 Y35.818 E4.40226
G1 X89.998 Y36.636 E4.4576
G1 X90.001 Y36.665 E4.45956
G1 X90.065 Y37.415 E4.51026
G1 X90.076 Y37.593 E4.52227
G1 X90.094 Y38.048 E4.55294
G1 X90.097 Y38.191 E4.56257
G1 X90.1 Y39.212 E4.63134
G1 X90.099 Y39.32 E4.63861
G1 X90.077 Y40.2 E4.6979
G1 X90.064 Y40.438 E4.71395
G1 X89.945 Y41.819 E4.80731
G1 X89.933 Y41.936 E4.81523
G1 X89.887 Y42.33 E4.84195
G1 X89.857 Y42.534 E4.85584
G1 X89.63 Y43.865 E4.94678
G1 X89.608 Y43.986 E4.95506
G1 X89.471 Y44.66 E5.00138
G1 X89.42 Y44.879 E5.01653
G1 X89.16 Y45.863 E5.08508
G1 X89.133 Y45.96 E5.09186
G1 X88.851 Y46.926 E5.15963
G1 X88.774 Y47.16 E5.17623
G1 X88.395 Y48.207 E5.25122
G1 X88.355 Y48.313 E5.25885
G1 X88.08 Y49.009 E5.30926
G1 X87.989 Y49.22 E5.32473
G1 X87.28 Y50.745 E5.438
G1 X87.169 Y50.966 E5.45466
G1 X87.022 Y51.236 E5.47536
G1 X86.973 Y51.323 E5.48209
G1 X86.541 Y52.07 E5.54021
G1 X86.505 Y52.131 E5.54498
G1 X85.939 Y53.07 E5.61882
G1 X85.791 Y53.298 E5.63713
G1 X84.875 Y54.603 E5.74452
G1 X84.746 Y54.776 E5.75905
G1 X84.549 Y55.026 E5.78049
G1 X84.478 Y55.113 E5.78805
G1 X83.694 Y56.051 E5.87039
G1 X83.628 Y56.129 E5.87727
G1 X83.264 Y56.542 E5.91435
G1 X83.107 Y56.71 E5.92984
G1 X82.095 Y57.73 E6.02661
G1 X82.029 Y57.795 E6.03285
G1 X81.668 Y58.142 E6.06657
G1 X81.546 Y58.253 E6.07768
G1 X81.375 Y58.404 E6.09305
G1 X81.311 Y58.46 E6.09878
G1 X80.608 Y59.054 E6.16076
G1 X80.52 Y59.127 E6.16846
G1 X79.795 Y59.704 E6.23087
G1 X79.628 Y59.829 E6.24492
G1 X78.993 Y60.281 E6.29742
G1 X78.953 Y60.309 E6.3007
G1 X78.321 Y60.747 E6.35249
G1 X78.175 Y60.843 E6.36426
G1 X77.83 Y61.06 E6.39171
G1 X77.703 Y61.137 E6.40172
G1 X76.668 Y61.734 E6.48219
G1 X76.6 Y61.772 E6.48744
G1 X76.046 Y62.077 E6.53003
G1 X75.836 Y62.185 E6.54594
G1 X74.965 Y62.598 E6.61086
G1 X74.93 Y62.614 E6.61345
G1 X74.337 Y62.888 E6.65745
G1 X74.178 Y62.957 E6.66912
G1 X73.765 Y63.126 E6.69918
G1 X73.629 Y63.179 E6.70901
G1 X72.679 Y63.527 E6.77715
G1 X72.58 Y63.562 E6.78422
G1 X71.702 Y63.857 E6.84661
G1 X71.468 Y63.928 E6.86308
G1 X69.965 Y64.33 E6.96786
G1 X69.761 Y64.378 E6.98198
G1 X69.372 Y64.46 E7.00876
G1 X69.248 Y64.484 E7.01726
G1 X68.135 Y64.681 E7.09339
G1 X68.035 Y64.698 E7.10022
G1 X67.324 Y64.805 E7.14865
G1 X67.096 Y64.832 E7.16411
G1 X66.071 Y64.925 E7.23343
G1 X66.053 Y64.927 E7.23465
G1 X65.588 Y64.967 E7.26608
G1 X65.474 Y64.975 E7.27378
G1 X65.191 Y64.991 E7.29287
G1 X65.079 Y64.995 E7.30042
G1 X64.863 Y65.001 E7.31497
G1 X64.755 Y65.003 E7.32225
G1 X63.597 Y65.003 E7.40024
G1 X63.505 Y65.002 E7.40644
G1 X62.786 Y64.985 E7.45488
G1 X62.553 Y64.972 E7.4706
G1 X61.239 Y64.862 E7.55941
G1 X61.12 Y64.851 E7.56745
G1 X60.623 Y64.794 E7.60115
G1 X60.41 Y64.763 E7.61565
G1 X59.071 Y64.534 E7.70714
G1 X58.954 Y64.512 E7.71516
G1 X58.287 Y64.377 E7.76099
G1 X58.068 Y64.326 E7.77614
G1 X57.111 Y64.074 E7.84279
G1 X57.013 Y64.047 E7.84964
G1 X56.018 Y63.757 E7.91944
G1 X55.778 Y63.679 E7.93644
G1 X54.759 Y63.309 E8.00945
G1 X54.661 Y63.272 E8.01651
G1 X53.94 Y62.988 E8.0687
G1 X53.741 Y62.903 E8.08327
G1 X52.633 Y62.394 E8.1654
G1 X52.566 Y62.362 E8.1704
G1 X52.162 Y62.167 E8.20061
G1 X52.008 Y62.089 E8.21224
G1 X51.696 Y61.921 E8.2361
G1 X51.598 Y61.866 E8.24367
G1 X50.789 Y61.4 E8.30655
G1 X50.713 Y61.355 E8.3125
G1 X49.864 Y60.84 E8.37938
G1 X49.656 Y60.705 E8.39608
G1 X48.787 Y60.099 E8.46744
G1 X48.699 Y60.036 E8.47473
G1 X48.054 Y59.559 E8.52876
G1 X47.917 Y59.453 E8.54042
G1 X47.69 Y59.269 E8.56011
G1 X47.637 Y59.225 E8.56474
G1 X46.724 Y58.458 E8.64506
G1 X46.631 Y58.377 E8.65336
G1 X46.411 Y58.18 E8.67325
G1 X46.34 Y58.115 E8.67974
G1 X46.187 Y57.971 E8.69389
G1 X46.104 Y57.89 E8.7017
G1 X45.168 Y56.955 E8.7908
G1 X45.098 Y56.884 E8.79752
G1 X44.766 Y56.535 E8.82996
G1 X44.614 Y56.365 E8.84532
G1 X43.849 Y55.46 E8.92513
G1 X43.777 Y55.372 E8.93279
G1 X43.22 Y54.673 E8.99299
G1 X43.09 Y54.501 E9.00751
G1 X42.732 Y53.997 E9.04915
G1 X42.709 Y53.964 E9.05186
G1 X42.159 Y53.172 E9.1168
G1 X42.039 Y52.989 E9.13154
G1 X41.854 Y52.688 E9.15534
G1 X41.804 Y52.604 E9.16192
G1 X41.238 Y51.629 E9.23785
G1 X41.182 Y51.53 E9.24551
G1 X40.841 Y50.901 E9.2937
G1 X40.757 Y50.735 E9.30623
G1 X40.517 Y50.237 E9.34346
G1 X40.49 Y50.18 E9.34771
G1 X40.075 Y49.282 E9.41434
G1 X40.033 Y49.188 E9.42127
G1 X39.931 Y48.951 E9.43865
G1 X39.888 Y48.848 E9.44617
G1 X39.805 Y48.639 E9.46132
G1 X39.765 Y48.534 E9.46888
G1 X39.43 Y47.614 E9.53483
G1 X39.406 Y47.545 E9.53975
G1 X39.115 Y46.696 E9.60019
G1 X39.044 Y46.465 E9.61647
G1 X38.843 Y45.734 E9.66753
G1 X38.832 Y45.695 E9.67026
G1 X38.618 Y44.884 E9.72675
G1 X38.573 Y44.696 E9.73977
G1 X38.488 Y44.294 E9.76745
G1 X38.464 Y44.168 E9.77609
G1 X38.261 Y43.024 E9.85434
G1 X38.244 Y42.922 E9.86131
G1 X38.14 Y42.229 E9.9085
G1 X38.116 Y42.03 E9.922
G1 X38.088 Y41.744 E9.94136
G1 X38.084 Y41.705 E9.944
G1 X37.986 Y40.59 E10.01938
G1 X37.978 Y40.487 E10.02634
G1 X37.954 Y40.095 E10.05279
G1 X37.949 Y39.969 E10.06129
G1 X37.943 Y39.76 E10.07537
G1 X37.941 Y39.648 E10.08291
G1 X37.941 Y38.503 E10.16003
G1 X37.942 Y38.407 E10.1665
G1 X37.96 Y37.676 E10.21575
G1 X37.973 Y37.447 E10.2312
G1 X38.081 Y36.157 E10.31838
G1 X38.093 Y36.033 E10.32677
G1 X38.152 Y35.524 E10.36129
G1 X38.182 Y35.316 E10.37544
G1 X38.411 Y33.977 E10.46693
G1 X38.433 Y33.86 E10.47495
G1 X38.568 Y33.193 E10.52079
G1 X38.619 Y32.971 E10.53613
G1 X38.868 Y32.028 E10.60182
G1 X38.896 Y31.93 E10.60868
G1 X39.199 Y30.893 E10.68145
G1 X39.277 Y30.653 E10.69844
G1 X39.669 Y29.576 E10.77564
G1 X39.704 Y29.483 E10.78233
G1 X39.945 Y28.87 E10.82669
G1 X40.032 Y28.666 E10.84163
G1 X40.519 Y27.608 E10.92007
G1 X40.544 Y27.556 E10.92396
G1 X40.777 Y27.069 E10.96032
G1 X40.862 Y26.901 E10.973
G1 X41.034 Y26.582 E10.99741
G1 X41.082 Y26.496 E11.00404
G1 X41.474 Y25.811 E11.0572
G1 X41.526 Y25.723 E11.06408
G0 F4800 X42.039 Y26.035
G1 F1080 X42.627 Y25.067 E11.14037
G1 X42.745 Y24.886 E11.15492
G1 X43.399 Y23.953 E11.23166
G1 X43.446 Y23.888 E11.23706
G1 X43.86 Y23.327 E11.28402
G1 X43.979 Y23.174 E11.29708
G1 X44.752 Y22.246 E11.37842
G1 X44.77 Y22.225 E11.38028
G1 X44.975 Y21.983 E11.40164
G1 X45.031 Y21.919 E11.40737
G1 X45.18 Y21.752 E11.42245
G1 X45.236 Y21.69 E11.42807
G1 X45.435 Y21.478 E11.44766
G1 X45.503 Y21.408 E11.45423
G1 X46.303 Y20.605 E11.53057
G1 X46.369 Y20.54 E11.53681
G1 X46.859 Y20.075 E11.58231
G1 X47.007 Y19.944 E11.59562
G1 X47.951 Y19.15 E11.6787
G1 X48.016 Y19.096 E11.68439
G1 X48.621 Y18.613 E11.73653
G1 X48.79 Y18.487 E11.75073
G1 X49.033 Y18.317 E11.7707
G1 X49.346 Y18.092 E11.79667
G1 X49.394 Y18.058 E11.80063
G1 X50.121 Y17.555 E11.86017
G1 X50.25 Y17.471 E11.87054
G1 X50.554 Y17.281 E11.89468
G1 X50.652 Y17.222 E11.90239
G1 X51.649 Y16.646 E11.97994
G1 X51.724 Y16.604 E11.98573
G1 X52.353 Y16.262 E12.03395
G1 X52.504 Y16.185 E12.04537
G1 X52.882 Y16.004 E12.07359
G1 X52.919 Y15.986 E12.07636
G1 X53.959 Y15.504 E12.15357
G1 X54.099 Y15.443 E12.16385
G1 X54.503 Y15.278 E12.19325
G1 X54.617 Y15.234 E12.20148
G1 X55.601 Y14.874 E12.27205
G1 X55.68 Y14.846 E12.27769
G1 X56.486 Y14.574 E12.33498
G1 X56.678 Y14.516 E12.34849
G1 X57.25 Y14.361 E12.38841
G1 X57.268 Y14.356 E12.38967
G1 X58.249 Y14.096 E12.45802
G1 X58.418 Y14.056 E12.46972
G1 X58.781 Y13.98 E12.49469
G1 X58.881 Y13.961 E12.50155
G1 X60.066 Y13.751 E12.58261
G1 X60.15 Y13.737 E12.58834
G1 X60.754 Y13.646 E12.62948
G1 X60.936 Y13.624 E12.64183
G1 X61.955 Y13.528 E12.71076
G1 X61.991 Y13.524 E12.7132
G1 X62.495 Y13.482 E12.74727
G1 X62.573 Y13.477 E12.75253
G1 X62.858 Y13.46 E12.77176
G1 X62.963 Y13.455 E12.77884
G1 X63.218 Y13.448 E12.79602
G1 X63.309 Y13.447 E12.80215
G1 X63.683 Y13.447 E12.82734
G1 X63.745 Y13.448 E12.83152
G1 X64.041 Y13.454 E12.85146
G1 X65.262 Y13.467 E12.9337
G1 X65.513 Y13.48 E12.95063
G1 X66.843 Y13.597 E13.04055
G1 X66.94 Y13.607 E13.04712
G1 X67.407 Y13.662 E13.07879
G1 X67.584 Y13.687 E13.09083
G1 X68.936 Y13.921 E13.18324
G1 X69.032 Y13.939 E13.18982
G1 X69.636 Y14.062 E13.23133
G1 X69.818 Y14.105 E13.24393
G1 X70.752 Y14.351 E13.30898
G1 X70.84 Y14.376 E13.31514
G1 X71.886 Y14.683 E13.38857
G1 X72.082 Y14.747 E13.40245
G1 X73.149 Y15.134 E13.4789
G1 X73.233 Y15.166 E13.48495
G1 X73.878 Y15.42 E13.53164
G1 X74.047 Y15.492 E13.54401
G1 X75.111 Y15.981 E13.62288
G1 X75.169 Y16.008 E13.62719
G1 X75.62 Y16.226 E13.66093
G1 X75.744 Y16.289 E13.6703
G1 X76.072 Y16.465 E13.69537
G1 X76.158 Y16.513 E13.702
G1 X76.888 Y16.933 E13.75872
G1 X76.956 Y16.973 E13.76404
G1 X77.884 Y17.537 E13.83718
G1 X78.068 Y17.658 E13.85201
G1 X79.359 Y18.566 E13.95831
G1 X79.506 Y18.675 E13.97064
G1 X79.772 Y18.885 E13.99346
G1 X79.847 Y18.946 E13.99998
G1 X80.702 Y19.663 E14.07513
G1 X80.708 Y19.668 E14.07566
G1 X80.936 Y19.86 E14.09573
G1 X81.003 Y19.918 E14.1017
G1 X81.211 Y20.103 E14.12045
G1 X81.272 Y20.158 E14.12598
G1 X81.441 Y20.316 E14.14156
G1 X81.519 Y20.392 E14.1489
G1 X82.424 Y21.296 E14.23505
G1 X82.49 Y21.364 E14.24143
G1 X82.853 Y21.748 E14.27702
G1 X82.973 Y21.882 E14.28914
G1 X83.749 Y22.798 E14.37
G1 X83.809 Y22.871 E14.37636
G1 X84.31 Y23.498 E14.43042
G1 X84.422 Y23.647 E14.44297
G1 X84.893 Y24.31 E14.49774
G1 X84.916 Y24.342 E14.5004
G1 X85.349 Y24.967 E14.55161
G1 X85.432 Y25.094 E14.56183
G1 X85.662 Y25.461 E14.591
G1 X85.724 Y25.562 E14.59898
G1 X86.267 Y26.502 E14.6721
G1 X86.301 Y26.563 E14.6768
G1 X86.664 Y27.223 E14.72753
G1 X86.758 Y27.409 E14.74157
G1 X87.217 Y28.385 E14.81421
G1 X87.226 Y28.404 E14.81562
G1 X87.447 Y28.882 E14.85109
G1 X87.508 Y29.021 E14.86132
G1 X87.667 Y29.411 E14.88968
G1 X87.71 Y29.522 E14.8977
G1 X88.057 Y30.469 E14.96563
G1 X88.086 Y30.553 E14.97162
G1 X88.382 Y31.434 E15.03421
G1 X88.436 Y31.612 E15.04674
G1 X88.596 Y32.195 E15.08746
G1 X88.605 Y32.228 E15.08976
G1 X88.847 Y33.147 E15.15377
G1 X88.884 Y33.302 E15.1645
G1 X88.96 Y33.66 E15.18915
G1 X88.981 Y33.769 E15.19663
G1 X89.19 Y34.949 E15.27734
G1 X89.205 Y35.036 E15.28328
G1 X89.303 Y35.69 E15.32782
G1 X89.325 Y35.874 E15.34031
G1 X89.401 Y36.692 E15.39564
G1 X89.403 Y36.716 E15.39726
G1 X89.467 Y37.466 E15.44796
G1 X89.476 Y37.617 E15.45814
G1 X89.494 Y38.072 E15.48881
G1 X89.497 Y38.192 E15.4969
G1 X89.5 Y39.213 E15.56566
G1 X89.499 Y39.305 E15.57186
G1 X89.477 Y40.185 E15.63115
G1 X89.466 Y40.386 E15.64471
G1 X89.347 Y41.767 E15.73806
G1 X89.337 Y41.867 E15.74483
G1 X89.291 Y42.261 E15.77155
G1 X89.266 Y42.433 E15.78326
G1 X89.039 Y43.764 E15.8742
G1 X89.02 Y43.866 E15.88118
G1 X88.883 Y44.54 E15.92751
G1 X88.84 Y44.726 E15.94037
G1 X88.58 Y45.71 E16.00891
G1 X88.557 Y45.792 E16.01465
G1 X88.275 Y46.758 E16.08243
G1 X88.21 Y46.956 E16.09646
G1 X87.831 Y48.003 E16.17146
G1 X87.797 Y48.093 E16.17794
G1 X87.522 Y48.789 E16.22834
G1 X87.445 Y48.967 E16.2414
G1 X86.736 Y50.492 E16.35467
G1 X86.642 Y50.679 E16.36877
G1 X86.495 Y50.949 E16.38947
G1 X86.454 Y51.023 E16.39517
G1 X86.022 Y51.77 E16.45329
G1 X85.991 Y51.822 E16.45737
G1 X85.425 Y52.761 E16.53121
G1 X85.3 Y52.953 E16.54664
G1 X84.384 Y54.258 E16.65403
G1 X84.275 Y54.404 E16.6663
G1 X84.078 Y54.654 E16.68774
G1 X84.018 Y54.728 E16.69415
G1 X83.234 Y55.666 E16.77649
G1 X83.178 Y55.732 E16.78232
G1 X82.814 Y56.145 E16.8194
G1 X82.681 Y56.287 E16.8325
G1 X81.669 Y57.307 E16.92928
