;FLAVOR:Marlin
;TIME:261
;Filament used: 0.230138m, 0m
;Layer height: 0.3
;MINX:76.238
;MINY:12.086
;MINZ:0.3
;MAXX:80.768
;MAXY:72.086
;MAXZ:4.1
;Generated with Cura_SteamEngine mb-master-20191116
T0
M140 S100
M105
M190 S100
M104 S220
M105
M109 S220
M82 ;absolute extrusion mode
;Sliced at: Wed 13-04-2022 23:58:36
G21 ;metric values
M107
G28
M420 S1
G90 ;absolute positioning
G92 E0; reset extruder distance
G1 X0 Y0 Z5 F5000 ;move nozzle up 5mm for safe homing
G29;ABL
M500
M82 ;set extruder to absolute mode
M107 ;start with the fan off
G1 X0 Y0 Z15.0 F5000 ;move the platform down 15mm
G92 E0 ;zero the extruded length
G1 F200 E3 ;extrude 3mm of feed stock
G1 F200 E0 ;Retract
G4 S2 ;Wait for material to fall
G1 F200 E3
G92 E0 ;zero the extruded length again
M117 Printing...
G92 E0
T0;WIPE
G91
G1 Z-0.5
G1 X -20 F3000
G1 X40
G1 X-20
G1 Z0.5
G90

G92 E0
G1 F2400 E-1
;LAYER_COUNT:13
;LAYER:0
M107
G1 F600 Z0.8
G0 F4800 X76.839 Y13.739 Z0.8
;TYPE:SKIRT
G1 F600 Z0.3
G1 F2400 E0.02495
G1 F976.3 X77.139 Y13.739 E0.04515
G1 X77.139 Y16.182 E0.20969
G1 X76.839 Y16.182 E0.2299
G1 X76.839 Y13.739 E0.39444
G1 F2400 E-0.60556
G1 F600 Z0.8
G0 F4800 X79.869 Y13.739 Z0.8
G1 F600 Z0.3
G1 F2400 E0.41938
G1 F976.3 X80.169 Y13.739 E0.43959
G1 X80.169 Y16.182 E0.60413
G1 X79.869 Y16.182 E0.62433
G1 X79.869 Y13.739 E0.78887
G1 F2400 E-0.21113
G1 F600 Z0.8
G0 F4800 X78.49 Y67.306 Z0.8
G1 F600 Z0.3
G1 F2400 E0.81382
G1 F976.3 X78.52 Y67.306 E0.81584
G1 X78.546 Y67.316 E0.81772
G1 X78.568 Y67.335 E0.81967
G1 X78.583 Y67.36 E0.82164
G1 X78.589 Y67.388 E0.82357
G1 X78.585 Y67.415 E0.8254
G1 X78.573 Y67.439 E0.82721
G1 X78.55 Y67.46 E0.82931
G1 X78.522 Y67.473 E0.83139
G1 X78.497 Y67.474 E0.83307
G1 X78.465 Y67.465 E0.83531
G1 X78.445 Y67.451 E0.83696
G1 X78.427 Y67.427 E0.83898
G1 X78.421 Y67.406 E0.84045
G1 X78.468 Y67.317 E0.84723
G1 X78.471 Y67.312 E0.84762
G1 X78.49 Y67.306 E0.84896
G0 F4800 X78.39 Y66.707
;TYPE:SUPPORT-INTERFACE
G1 F976.3 X78.174 Y66.779 E0.85748
G1 X78.06 Y66.87 E0.86294
G1 X78.025 Y66.87 E0.86425
G1 X77.826 Y67.249 E0.88027
G1 X77.815 Y67.467 E0.88843
G1 X77.88 Y67.695 E0.8973
G1 X78.019 Y67.886 E0.90614
G1 X78.207 Y68.016 E0.9147
G1 X78.434 Y68.08 E0.92352
G1 X78.906 Y68.047 E0.94123
G1 X78.903 Y67.952 E0.94478
G1 X79.058 Y67.807 E0.95272
G1 X79.165 Y67.6 E0.96144
G1 X79.193 Y67.401 E0.96896
G1 X79.193 Y67.348 E0.97095
G1 X79.151 Y67.141 E0.97885
G1 X79.034 Y66.944 E0.98742
G1 X78.987 Y66.903 E0.98976
G1 X78.859 Y66.796 E0.996
G1 X78.39 Y66.587 E1.01521
G1 X78.39 Y66.707 E1.0197
G1 F2400 E0.0197
G1 F600 Z0.8
G0 F4800 X76.462 Y72.086 Z0.8
G1 F600 Z0.3
G1 F2400 E1.04465
G1 F976.3 X76.462 Y57.086 E1.60591
G1 X76.319 Y57.086 E1.61126
G1 X76.319 Y56.086 E1.64868
G1 X76.559 Y56.086 E1.65766
G1 X76.559 Y57.986 E1.72875
G1 X80.451 Y57.986 E1.87438
G1 X80.451 Y56.086 E1.94548
G1 X80.69 Y56.086 E1.95442
G1 X80.69 Y57.086 E1.99184
G1 X80.561 Y57.086 E1.99666
G1 X80.545 Y72.086 E2.55793
G1 X76.462 Y72.086 E2.7107
G0 F4800 X77.061 Y71.486
G1 F976.3 X78.012 Y71.485 E2.74629
G1 X77.061 Y70.534 E2.79661
G1 F2400 E1.79661
G1 F600 Z0.8
G0 F4800 X78.012 Y71.485 Z0.8
M104 S210
G1 F600 Z0.3
G1 F2400 E2.82156
G1 F976.3 X79.317 Y71.485 E2.87039
G1 X77.061 Y69.229 E2.98977
G1 X77.061 Y67.923 E3.03863
G1 X79.945 Y70.808 E3.19127
G1 X79.946 Y69.504 E3.24006
G1 X79.079 Y68.636 E3.28597
G1 X79.523 Y68.605 E3.30262
G1 X79.509 Y68.204 E3.31764
G1 X79.543 Y68.174 E3.31933
G1 X79.671 Y67.923 E3.32988
G1 X79.948 Y68.2 E3.34453
G1 X79.949 Y66.896 E3.39333
G1 X77.061 Y64.008 E3.54615
G1 X77.061 Y62.702 E3.59502
G1 X79.951 Y65.592 E3.74795
G1 X79.952 Y64.288 E3.79674
G1 X77.061 Y61.397 E3.94972
G1 X77.061 Y60.092 E3.99855
G1 X79.953 Y62.984 E4.15159
G1 X79.955 Y61.68 E4.20038
G1 X77.061 Y58.786 E4.35352
G1 X77.061 Y58.585 E4.36104
G1 X78.166 Y58.586 E4.40239
G1 X79.956 Y60.377 E4.49713
G1 X79.958 Y59.073 E4.54593
G1 X79.471 Y58.586 E4.5717
G1 X79.958 Y58.586 E4.58992
G1 F2400 E3.58992
G1 F600 Z0.8
G0 F4800 X77.789 Y66.041 Z0.8
G1 F600 Z0.3
G1 F2400 E4.61486
G1 F976.3 X77.061 Y65.313 E4.65339
G1 X77.061 Y66.618 E4.70222
G1 X77.335 Y66.893 E4.71674
G1 X77.233 Y67.086 E4.72491
G1 X77.209 Y67.535 E4.74174
G1 X77.331 Y67.96 E4.75828
G1 X77.592 Y68.322 E4.77498
G1 X77.947 Y68.566 E4.7911
G1 X78.371 Y68.685 E4.80758
G1 F2400 E3.80758
G1 F600 Z0.8
G0 F4800 X79.671 Y67.923 Z0.8
G1 F600 Z0.3
G1 F2400 E4.83252
G1 F976.3 X79.743 Y67.783 E4.83841
G1 X79.792 Y67.443 E4.85126
G1 X79.792 Y67.287 E4.8571
G1 X79.717 Y66.921 E4.87108
G1 X79.5 Y66.555 E4.887
G1 X79.376 Y66.447 E4.89315
G1 X79.178 Y66.282 E4.9028
G1 X77.789 Y65.662 E4.95971
G1 F2400 E3.95971
G1 F600 Z0.8
;MESH:Part1.STL
G0 F4800 X78.951 Y56.486 Z0.8
;TYPE:WALL-OUTER
G1 F600 Z0.3
G1 F2400 E4.98466
G1 F976.3 X78.059 Y56.486 E5.04474
G1 X78.059 Y27.086 E7.02488
G1 X78.951 Y27.086 E7.08496
G1 X78.951 Y56.486 E9.0651
G0 F4800 X78.651 Y56.486
G0 X78.505 Y56.04
;TYPE:SKIN
G1 F976.3 X78.505 Y27.532 E11.05237
G1 F2400 E10.05237
G1 F600 Z0.8
;MESH:NONMESH
G0 F4800 X78.533 Y67.464 Z0.8
;TIME_ELAPSED:23.011887
;LAYER:1
M140 S90
G0 F5400 X78.533 Y67.464 Z1.1
;TYPE:SUPPORT
G1 F600 Z0.6
G1 F2400 E11.07731
G1 F1980 X78.519 Y67.471 E11.07837
G1 X78.503 Y67.473 E11.07945
G1 X78.465 Y67.464 E11.08208
G1 X78.449 Y67.453 E11.08339
G1 X78.432 Y67.43 E11.08532
G1 X78.424 Y67.407 E11.08696
G1 X78.469 Y67.315 E11.09385
G1 X78.492 Y67.307 E11.09549
G1 X78.516 Y67.307 E11.09711
G1 X78.541 Y67.315 E11.09888
G1 X78.565 Y67.334 E11.10094
G1 X78.581 Y67.358 E11.10288
G1 X78.588 Y67.39 E11.10509
G1 X78.585 Y67.414 E11.10672
G1 X78.574 Y67.436 E11.10837
G0 F5400 X78.572 Y67.439
G1 F1980 X78.555 Y67.456 E11.10999
G1 X78.538 Y67.464 E11.11126
G1 X78.533 Y67.464 E11.1116
G0 F5400 X78.683 Y68.058
;TYPE:SUPPORT-INTERFACE
G1 F1800 X78.671 Y68.064 E11.1121
G1 X78.626 Y68.063 E11.11378
G1 X78.505 Y68.075 E11.11833
G1 X78.44 Y68.075 E11.12076
G1 X78.223 Y68.022 E11.12912
G1 X78.193 Y68.002 E11.13047
G1 X76.461 Y69.734 E11.22212
G1 X76.461 Y68.428 E11.27099
G1 X80.552 Y64.338 E11.48745
G1 X80.553 Y63.031 E11.53635
G1 X76.461 Y67.123 E11.75288
G1 X76.461 Y65.818 E11.80171
G1 X80.555 Y61.724 E12.01836
G1 X80.556 Y60.418 E12.06722
G1 X76.461 Y64.512 E12.28389
G1 X76.461 Y63.207 E12.33272
G1 X80.557 Y59.111 E12.54947
G1 X80.559 Y57.804 E12.59837
G1 X76.461 Y61.902 E12.81522
G1 X76.461 Y60.596 E12.86409
G1 X79.072 Y57.985 E13.00226
G1 X79.904 Y57.985 E13.03339
G1 X79.904 Y57.535 E13.05022
G1 X80.516 Y57.535 E13.07312
G1 F2400 E12.07312
G1 F600 Z1.1
G0 F5400 X80.768 Y56.289 Z1.1
G1 F600 Z0.6
G1 F2400 E13.09807
G1 F1800 X80.517 Y56.54 E13.11135
G1 X80.517 Y56.085 E13.12838
G1 X80.768 Y56.086 E13.13777
G1 F2400 E12.13777
G1 F600 Z1.1
G0 F5400 X79.072 Y57.985 Z1.1
G1 F600 Z0.6
G1 F2400 E13.16271
G1 F1800 X77.767 Y57.985 E13.21154
G1 X76.461 Y59.291 E13.28065
G1 X76.461 Y57.986 E13.32948
G1 X76.912 Y57.535 E13.35335
G1 X76.489 Y57.535 E13.36918
G1 X76.489 Y56.652 E13.40222
G1 X76.238 Y56.903 E13.4155
G1 X76.238 Y56.085 E13.44611
G1 X76.491 Y56.085 E13.45557
G1 F2400 E12.45557
G1 F600 Z1.1
G0 F5400 X78.552 Y66.705 Z1.1
G1 F600 Z0.6
G1 F2400 E13.48052
G1 F1800 X78.625 Y66.71 E13.48325
G1 X78.783 Y66.765 E13.48951
G1 X78.838 Y66.784 E13.49169
G1 X78.96 Y66.881 E13.49752
G1 X79.021 Y66.935 E13.50057
G1 X79.11 Y67.072 E13.50669
G1 X79.115 Y67.08 E13.50704
G1 X80.55 Y65.644 E13.583
G1 X80.549 Y66.951 E13.6319
G1 X76.461 Y71.039 E13.84823
G1 X76.461 Y72.086 E13.8874
G1 X76.72 Y72.086 E13.8971
G1 X80.547 Y68.258 E14.09963
G1 X80.546 Y69.565 E14.14854
G1 X78.025 Y72.086 E14.28194
G1 X79.331 Y72.086 E14.33081
G1 X80.545 Y70.871 E14.39508
G1 X80.544 Y72.086 E14.44054
G1 F2400 E13.44054
G1 F600 Z1.1
G0 F5400 X78.686 Y68.058 Z1.1
G1 F600 Z0.6
G1 F2400 E14.46548
G1 F1800 X78.709 Y68.046 E14.46645
G1 X78.894 Y67.96 E14.47409
G1 X78.946 Y67.911 E14.47676
G1 X79.059 Y67.802 E14.48264
G1 X79.108 Y67.706 E14.48667
G1 X79.168 Y67.587 E14.49166
G1 X79.177 Y67.508 E14.49463
G1 X79.193 Y67.351 E14.50054
G1 X79.142 Y67.124 E14.50924
G0 F5400 X78.552 Y66.705
G1 F1800 X78.36 Y66.708 E14.51643
G1 X78.313 Y66.732 E14.5184
G1 X78.158 Y66.791 E14.52461
G1 X77.998 Y66.923 E14.53237
G1 X77.944 Y67.022 E14.53659
G1 X77.822 Y67.267 E14.54683
G1 X77.818 Y67.476 E14.55465
G1 X77.837 Y67.546 E14.55736
G1 X77.89 Y67.713 E14.56392
G1 X77.928 Y67.759 E14.56615
G1 X78.027 Y67.892 E14.57236
G1 X78.085 Y67.933 E14.57501
G1 F2400 E13.57501
G1 F600 Z1.1
;MESH:Part1.STL
G0 F5400 X78.142 Y55.886 Z1.1
;TYPE:WALL-INNER
G1 F600 Z0.6
G1 F2400 E14.59996
G1 F1470 X78.141 Y27.686 E16.49928
G1 X78.339 Y27.686 E16.51261
G1 F882 X78.339 Y27.086 E16.55303
;TYPE:WALL-INNER
;BRIDGE
G1 F840 X78.339 Y12.686 E17.52289
G1 X78.669 Y12.686 E17.54512
G1 X78.669 Y27.086 E18.51498
;TYPE:WALL-INNER
G1 F882 X78.669 Y27.686 E18.5857
G1 F1470 X78.867 Y27.686 E18.59904
G1 X78.868 Y55.886 E20.49836
G1 X78.142 Y55.886 E20.54726
G0 F5400 X77.541 Y56.486
;TYPE:WALL-OUTER
G1 F702 X77.542 Y56.02 E20.57864
G1 X77.541 Y27.086 E22.5274
;TYPE:WALL-OUTER
;BRIDGE
G1 F840 X77.739 Y27.086 E22.54073
G1 X77.739 Y12.086 E23.55101
G1 X79.269 Y12.086 E23.65406
G1 X79.269 Y27.086 E24.66433
G1 X79.467 Y27.086 E24.67767
;TYPE:WALL-OUTER
G1 F702 X79.468 Y56.486 E26.65781
G1 X77.541 Y56.486 E26.7876
G0 F5400 X77.541 Y56.186
G0 X78.201 Y55.826
G0 X78.746 Y55.321
;TYPE:SKIN
G1 F1440 X78.301 Y55.765 E26.82994
G0 F5400 X78.261 Y54.957
G1 F1440 X78.746 Y54.472 E26.87613
G0 F5400 X78.261 Y54.108
G1 F1440 X78.746 Y53.624 E26.92228
G0 F5400 X78.261 Y53.259
G1 F1440 X78.746 Y52.775 E26.96843
G0 F5400 X78.261 Y52.411
G1 F1440 X78.746 Y51.927 E27.01458
G0 F5400 X78.261 Y51.562
G1 F1440 X78.746 Y51.078 E27.06073
G0 F5400 X78.261 Y50.714
G1 F1440 X78.746 Y50.23 E27.10688
G0 F5400 X78.261 Y49.865
G1 F1440 X78.746 Y49.381 E27.15303
G0 F5400 X78.261 Y49.017
G1 F1440 X78.746 Y48.532 E27.19922
G0 F5400 X78.261 Y48.168
G1 F1440 X78.746 Y47.684 E27.24537
G0 F5400 X78.261 Y47.32
G1 F1440 X78.746 Y46.835 E27.29157
G0 F5400 X78.261 Y46.471
G1 F1440 X78.746 Y45.987 E27.33771
G0 F5400 X78.261 Y45.623
G1 F1440 X78.746 Y45.138 E27.38391
G0 F5400 X78.261 Y44.774
G1 F1440 X78.746 Y44.29 E27.43006
G0 F5400 X78.261 Y43.926
G1 F1440 X78.746 Y43.441 E27.47626
G0 F5400 X78.261 Y43.077
G1 F1440 X78.746 Y42.593 E27.5224
G0 F5400 X78.261 Y42.229
G1 F1440 X78.746 Y41.744 E27.5686
G0 F5400 X78.261 Y41.381
G1 F1440 X78.746 Y40.896 E27.6148
G0 F5400 X78.261 Y40.532
G1 F1440 X78.746 Y40.047 E27.66099
G0 F5400 X78.261 Y39.684
G1 F1440 X78.746 Y39.199 E27.70719
G0 F5400 X78.261 Y38.835
G1 F1440 X78.746 Y38.35 E27.75338
G0 F5400 X78.261 Y37.987
G1 F1440 X78.746 Y37.502 E27.79958
G0 F5400 X78.261 Y37.138
G1 F1440 X78.746 Y36.653 E27.84578
G0 F5400 X78.261 Y36.29
G1 F1440 X78.746 Y35.805 E27.89197
G0 F5400 X78.261 Y35.441
G1 F1440 X78.746 Y34.956 E27.93817
G0 F5400 X78.261 Y34.593
G1 F1440 X78.746 Y34.108 E27.98437
G0 F5400 X78.261 Y33.744
G1 F1440 X78.746 Y33.259 E28.03056
G0 F5400 X78.261 Y32.896
G1 F1440 X78.746 Y32.41 E28.07681
G0 F5400 X78.261 Y32.047
G1 F1440 X78.746 Y31.562 E28.123
G0 F5400 X78.261 Y31.198
G1 F1440 X78.746 Y30.713 E28.1692
G0 F5400 X78.261 Y30.35
G1 F1440 X78.746 Y29.865 E28.21539
G0 F5400 X78.261 Y29.501
G1 F1440 X78.746 Y29.016 E28.26159
G0 F5400 X78.261 Y28.653
G1 F1440 X78.746 Y28.168 E28.30779
;MESH:NONMESH
G0 F600 X78.746 Y28.168 Z0.9
G0 F5400 X77.849 Y27.686
;TIME_ELAPSED:45.558791
;LAYER:2
;TYPE:WALL-INNER
;MESH:Part1.STL
G1 F1385.8 X78.339 Y27.686 E28.34079
G1 X78.339 Y12.686 E29.35107
G1 X78.669 Y12.686 E29.37329
G1 X78.669 Y27.686 E30.38357
G1 X79.158 Y27.686 E30.4165
G1 X79.159 Y55.886 E32.31582
G1 X77.849 Y55.886 E32.40405
G1 X77.849 Y27.686 E34.30337
G0 F6000 X77.739 Y27.086
;TYPE:WALL-OUTER
G1 F938.7 X77.739 Y12.086 E35.31365
G1 X79.269 Y12.086 E35.4167
G1 X79.269 Y27.086 E36.42697
G1 F563.2 X79.758 Y27.086 E36.45991
G1 X79.759 Y56.486 E38.44005
G1 X77.249 Y56.486 E38.60911
G1 X77.249 Y27.086 E40.58925
G1 X77.739 Y27.086 E40.62225
G0 F6000 X77.739 Y26.786
G0 X78.399 Y26.786
G1 F2400 E39.62225
G1 F600 Z1.4
G0 F6000 X78.439 Y28.276 Z1.4
;TYPE:SKIN
G1 F600 Z0.9
G1 F2400 E40.64719
G1 F1341.1 X78.568 Y28.276 E40.65588
G1 X78.569 Y55.296 E42.47573
G1 X78.439 Y55.296 E42.48448
G1 X78.439 Y28.276 E44.30433
G1 F2400 E43.30433
G1 F600 Z1.4
;MESH:NONMESH
G0 F6000 X78.339 Y13.757 Z1.4
;TIME_ELAPSED:61.669503
;LAYER:3
;MESH:Part1.STL
G0 X78.339 Y13.757 Z1.7
;TYPE:WALL-INNER
G1 F600 Z1.2
G1 F2400 E44.32927
G1 F1860 X78.339 Y12.686 E44.40141
G1 X78.669 Y12.686 E44.42363
G1 X78.669 Y13.756 E44.4957
G1 X78.339 Y13.757 E44.51793
G0 F6000 X77.739 Y14.357
;TYPE:WALL-OUTER
G1 F1260 X77.739 Y12.086 E44.67088
G1 X79.269 Y12.086 E44.77393
G1 X79.269 Y14.356 E44.92682
G1 X77.739 Y14.357 E45.02987
G0 F6000 X77.739 Y14.057
G0 X78.4 Y13.696
G1 F2400 E44.02987
G1 F600 Z1.7
G0 F6000 X78.256 Y65.494 Z1.7
G0 X77.646 Y52.609
;TYPE:WALL-INNER
G1 F600 Z1.2
G1 F2400 E45.05481
G1 F1860 X77.65 Y27.686 E46.73342
G1 X78.339 Y27.686 E46.77983
G1 X78.339 Y16.164 E47.55585
G1 X78.669 Y16.163 E47.57808
G1 X78.669 Y27.686 E48.35417
G1 X79.357 Y27.686 E48.40051
G1 F1116 X79.362 Y56.486 E50.34024
;TYPE:WALL-INNER
;BRIDGE
G1 F840 X79.362 Y56.786 E50.36045
G1 X79.352 Y65.698 E50.96069
G1 X78.901 Y65.518 E50.99339
G1 X78.256 Y65.494 E51.03687
G1 X77.662 Y65.676 E51.07871
G1 X77.662 Y56.784 E51.6776
G1 X77.661 Y56.486 E51.69767
;TYPE:WALL-INNER
G1 F1116 X77.658 Y55.486 E51.83237
G1 X77.654 Y54.486 E51.94014
G1 X77.65 Y53.486 E52.03385
G1 X77.646 Y52.609 E52.1087
G1 F2400 E51.1087
G1 F600 Z1.7
G0 F6000 X77.662 Y69.104 Z1.7
;TYPE:WALL-INNER
;BRIDGE
G1 F600 Z1.2
G1 F2400 E52.13365
G1 F840 X78.267 Y69.288 E52.17624
G1 X78.915 Y69.257 E52.21993
G1 X79.349 Y69.081 E52.25148
G1 X79.347 Y70.886 E52.37305
G1 X77.662 Y70.886 E52.48654
G1 X77.662 Y69.104 E52.60656
G1 F2400 E51.60656
G1 F600 Z1.7
G0 F6000 X78.335 Y66.097 Z1.7
;TYPE:WALL-OUTER
;BRIDGE
G1 F600 Z1.2
G1 F2400 E52.6315
G1 F840 X77.915 Y66.226 E52.66109
G1 X77.549 Y66.498 E52.69181
G1 X77.241 Y67.053 E52.73456
G1 X77.205 Y67.505 E52.7651
G1 X77.317 Y67.93 E52.7947
G1 X77.565 Y68.295 E52.82442
G1 X77.921 Y68.556 E52.85415
G1 X78.342 Y68.684 E52.88379
G1 X78.784 Y68.663 E52.91359
G1 X79.19 Y68.498 E52.94311
G1 X79.521 Y68.207 E52.97279
G1 X79.735 Y67.82 E53.00257
G1 X79.808 Y67.386 E53.03222
G1 X79.733 Y66.952 E53.06188
G1 X79.516 Y66.568 E53.09159
G1 X79.184 Y66.277 E53.12132
G1 X78.775 Y66.114 E53.15098
G1 X78.335 Y66.097 E53.18063
G0 F6000 X78.048 Y66.185
G0 X77.855 Y65.554
G1 F2400 E52.18063
G1 F600 Z1.7
G0 F6000 X79.269 Y15.563 Z1.7
;TYPE:WALL-OUTER
G1 F600 Z1.2
G1 F2400 E53.20558
G1 F1260 X79.269 Y27.086 E53.98167
G1 X79.957 Y27.086 E54.02801
G1 F756 X79.962 Y56.486 E56.00815
;TYPE:WALL-OUTER
;BRIDGE
G1 F840 X79.962 Y56.786 E56.02836
G1 X79.946 Y71.486 E57.01843
G1 X77.062 Y71.486 E57.21267
G1 X77.062 Y56.785 E58.20281
G1 X77.061 Y56.486 E58.22295
;TYPE:WALL-OUTER
G1 F756 X77.058 Y55.486 E58.32398
G1 X77.054 Y54.486 E58.41378
G1 X77.05 Y53.486 E58.49667
G1 X77.046 Y52.609 E58.56541
G1 F1260 X77.05 Y27.086 E60.28443
G1 X77.739 Y27.086 E60.33083
G1 X77.739 Y15.564 E61.10686
G1 X79.269 Y15.563 E61.20991
G0 F6000 X79.269 Y15.863
G0 X78.608 Y16.224
G1 F2400 E60.20991
G1 F600 Z1.7
G0 F6000 X78.817 Y28.226 Z1.7
;TYPE:FILL
G1 F600 Z1.2
G1 F2400 E61.23485
G1 F3600 X78.19 Y28.226 E61.27708
G1 X78.189 Y32.552 E61.56845
G1 X78.816 Y32.384 E61.61217
G1 X78.816 Y29.371 E61.8151
G1 X78.188 Y28.743 E61.87491
G1 F2400 E60.87491
G1 F600 Z1.7
G0 F6000 X78.187 Y41.87 Z1.7
G1 F600 Z1.2
G1 F2400 E61.89986
G1 F3600 X78.817 Y41.701 E61.94379
G1 X78.818 Y40.611 E62.0172
G1 X78.187 Y42.966 E62.18141
G1 X78.186 Y41.469 E62.28224
G1 X78.819 Y42.101 E62.34248
G1 X78.819 Y51.018 E62.94306
G1 X78.185 Y51.188 E62.98727
G1 X78.186 Y52.609 E63.08298
G1 X78.197 Y55.646 E63.28752
G1 X78.822 Y55.646 E63.32962
G1 X78.821 Y54.831 E63.38451
G1 X78.19 Y54.201 E63.44457
G1 F2400 E62.44457
G1 F600 Z1.7
G0 F6000 X78.248 Y55.876 Z1.7
;TYPE:SKIN
G1 F600 Z1.2
G1 F2400 E63.46951
G1 F1800 X78.772 Y55.876 E63.5048
G1 F1080 X78.771 Y56.486 E63.54589
;TYPE:SKIN
;BRIDGE
G1 F1200 X78.762 Y64.922 E64.11407
G1 X78.252 Y64.903 E64.14844
G1 X78.248 Y56.486 E64.71534
;TYPE:SKIN
