; generated by PrusaSlicer 2.4.1+win64 on 2022-04-01 at 12:50:21 UTC


;
;

;
;
; 

; external perimeters extrusion width = 0.45mm
; perimeters extrusion width = 0.45mm
; infill extrusion width = 0.45mm
; solid infill extrusion width = 0.45mm
; top infill extrusion width = 0.40mm
; first layer extrusion width = 0.42mm

M73 P0 R41
M201 X2500 Y2500 Z400 E5000 ; sets maximum accelerations, mm/sec^2
M203 X180 Y180 Z12 E80 ; sets maximum feedrates, mm / sec
M204 P1250 R1250 T2500 ; sets acceleration (P, T) and retract acceleration (R), mm/sec^2
M205 X8.00 Y8.00 Z2.00 E10.00 ; sets the jerk limits, mm/sec
M205 S0 T0 ; sets the minimum extruding and travel feed rate, mm/sec
M107
;TYPE:Custom
M862.3 P "MINI" ; printer model check
G90 ; use absolute coordinates
M83 ; extruder relative mode
M104 S170 ; set extruder temp for bed leveling
M140 S60 ; set bed temp
M109 R170 ; wait for bed leveling temp
M190 S60 ; wait for bed temp
M204 T1250 ; set travel acceleration
G28 ; home all without mesh bed level
G29 ; mesh bed leveling 
M204 T2500 ; restore travel acceleration
M104 S215 ; set extruder temp
G92 E0
G1 Y-2 X179 F2400
G1 Z3 F720
M109 S215 ; wait for extruder temp

; intro line
G1 X170 F1000
G1 Z0.2 F720
G1 X110 E8 F900
G1 X40 E10 F700
G92 E0

M221 S95 ; set flow
G21 ; set units to millimeters
G90 ; use absolute coordinates
M83 ; use relative distances for extrusion
M900 K0.2 ; Filament gcode LA 1.5
; ; Filament gcode LA 1.0
M107
;LAYER_CHANGE
;Z:0.2
;HEIGHT:0.2
;BEFORE_LAYER_CHANGE
G92 E0.0
;0.2


G1 E-3.2 F4200
G1 Z.2 F720
;AFTER_LAYER_CHANGE
;0.2
G1 Z.4
G1 X48.411 Y10.687 F9000
G1 Z.2 F720
G1 E3.2 F2400
M204 P800
;TYPE:Skirt/Brim
;WIDTH:0.42
G1 F1200
G1 X49.082 Y9.5 E.04278
G1 X50.729 Y8.837 E.05565
G1 X130.729 Y8.837 E2.50834
G1 X132.036 Y9.229 E.04278
G1 X132.912 Y10.274 E.04278
G1 X132.954 Y12.049 E.05565
G1 X102.954 Y92.049 E2.67891
G1 X102.129 Y93.135 E.04278
G1 X100.729 Y93.591 E.04617
G1 X80.729 Y93.591 E.62709
G1 X79.421 Y93.199 E.04278
M73 P1 R41
G1 X78.503 Y92.049 E.04617
G1 X48.503 Y12.049 E2.67891
G1 X48.415 Y10.747 E.0409
M204 P1000
; printing object Part2(1).STL id:0 copy 0
M73 P1 R40
G1 E-2.24 F4200
;WIPE_START
G1 F7200
G1 X49.082 Y9.5 E-.78411
G1 X49.296 Y9.413 E-.12789
;WIPE_END
G1 E-.048 F4200
G1 Z.4 F720
G1 X51.864 Y12.001 F9000
G1 Z.2 F720
G1 E3.2 F2400
M204 P800
;TYPE:Perimeter
G1 F1200
G1 X129.593 Y12.001 E2.43712
G1 X100.183 Y90.427 E2.6262
G1 X81.274 Y90.427 E.59288
G1 X51.885 Y12.057 E2.62432
M204 P1000
G1 X51.32 Y11.624 F9000
M204 P800
;TYPE:External perimeter
G1 F1200
G1 X130.137 Y11.624 E2.47124
G1 X100.444 Y90.804 E2.65145
G1 X81.013 Y90.804 E.60927
M73 P2 R40
G1 X51.341 Y11.68 E2.64957
M204 P1000
G1 X51.697 Y11.757 F9000
G1 E-2.24 F4200
;WIPE_START
G1 F7200
G1 X52.987 Y11.679 E-.912
;WIPE_END
G1 E-.048 F4200
G1 Z.4 F720
G1 X128.672 Y12.114 F9000
G1 Z.2 F720
G1 E3.2 F2400
M204 P800
;TYPE:Solid infill
;WIDTH:0.421506
G1 F1200
G1 X129.091 Y12.533 E.01865
G1 X128.945 Y12.922 E.01309
G1 X128.307 Y12.284 E.02843
G1 X127.771 Y12.284 E.01685
G1 X128.799 Y13.312 E.04576
G1 X128.653 Y13.701 E.01309
G1 X127.236 Y12.284 E.0631
G1 X126.701 Y12.284 E.01685
G1 X128.507 Y14.091 E.08043
G1 X128.361 Y14.48 E.01309
G1 X126.165 Y12.284 E.09777
G1 X125.63 Y12.284 E.01685
G1 X128.215 Y14.869 E.1151
G1 X128.069 Y15.259 E.01309
G1 X125.094 Y12.284 E.13244
G1 X124.559 Y12.284 E.01685
G1 X127.923 Y15.648 E.14977
G1 X127.777 Y16.037 E.01309
G1 X124.023 Y12.284 E.16711
G1 X123.488 Y12.284 E.01685
G1 X127.631 Y16.427 E.18444
G1 X127.485 Y16.816 E.01309
G1 X122.953 Y12.284 E.20178
G1 X122.417 Y12.284 E.01685
G1 X127.339 Y17.206 E.21911
G1 X127.193 Y17.595 E.01309
G1 X121.882 Y12.284 E.23644
G1 X121.346 Y12.284 E.01685
G1 X127.047 Y17.984 E.25378
G1 X126.901 Y18.374 E.01309
G1 X120.811 Y12.284 E.27111
G1 X120.276 Y12.284 E.01685
G1 X126.755 Y18.763 E.28845
G1 X126.609 Y19.153 E.01309
G1 X119.74 Y12.284 E.30578
G1 X119.205 Y12.284 E.01685
G1 X126.463 Y19.542 E.32312
G1 X126.317 Y19.931 E.01309
G1 X118.669 Y12.284 E.34045
G1 X118.134 Y12.284 E.01685
G1 X126.171 Y20.321 E.35779
G1 X126.025 Y20.71 E.01309
G1 X117.599 Y12.284 E.37512
G1 X117.063 Y12.284 E.01685
G1 X125.879 Y21.099 E.39246
G1 X125.733 Y21.489 E.01309
G1 X116.528 Y12.284 E.40979
G1 X115.992 Y12.284 E.01685
G1 X125.587 Y21.878 E.42713
G1 X125.441 Y22.268 E.01309
G1 X115.457 Y12.284 E.44446
G1 X114.922 Y12.284 E.01685
G1 X125.295 Y22.657 E.4618
G1 X125.149 Y23.046 E.01309
G1 X114.386 Y12.284 E.47913
G1 X113.851 Y12.284 E.01685
G1 X125.003 Y23.436 E.49647
G1 X124.857 Y23.825 E.01309
G1 X113.315 Y12.284 E.5138
G1 X112.78 Y12.284 E.01685
G1 X124.711 Y24.214 E.53114
G1 X124.565 Y24.604 E.01309
G1 X112.245 Y12.284 E.54847
G1 X111.709 Y12.284 E.01685
G1 X124.419 Y24.993 E.56581
G1 X124.273 Y25.383 E.01309
G1 X111.174 Y12.284 E.58314
G1 X110.638 Y12.284 E.01685
M73 P3 R40
G1 X124.127 Y25.772 E.60048
G1 X123.981 Y26.161 E.01309
G1 X110.103 Y12.284 E.61781
G1 X109.568 Y12.284 E.01685
G1 X123.835 Y26.551 E.63515
G1 X123.689 Y26.94 E.01309
G1 X109.032 Y12.284 E.65248
G1 X108.497 Y12.284 E.01685
G1 X123.543 Y27.33 E.66982
G1 X123.397 Y27.719 E.01309
G1 X107.961 Y12.284 E.68715
G1 X107.426 Y12.284 E.01685
G1 X123.251 Y28.108 E.70449
G1 X123.104 Y28.498 E.01309
G1 X106.891 Y12.284 E.72182
G1 X106.355 Y12.284 E.01685
G1 X122.958 Y28.887 E.73916
G1 X122.812 Y29.276 E.01309
G1 X105.82 Y12.284 E.75649
G1 X105.284 Y12.284 E.01685
G1 X122.666 Y29.666 E.77383
G1 X122.52 Y30.055 E.01309
G1 X104.749 Y12.284 E.79116
G1 X104.214 Y12.284 E.01685
M73 P3 R39
G1 X122.374 Y30.445 E.8085
G1 X122.228 Y30.834 E.01309
G1 X103.678 Y12.284 E.82583
G1 X103.143 Y12.284 E.01685
G1 X122.082 Y31.223 E.84317
G1 X121.936 Y31.613 E.01309
G1 X102.607 Y12.284 E.8605
G1 X102.072 Y12.284 E.01685
G1 X121.79 Y32.002 E.87783
G1 X121.644 Y32.392 E.01309
G1 X101.537 Y12.284 E.89517
G1 X101.001 Y12.284 E.01685
G1 X121.498 Y32.781 E.9125
G1 X121.352 Y33.17 E.01309
G1 X100.466 Y12.284 E.92984
G1 X99.93 Y12.284 E.01685
M73 P4 R39
G1 X121.206 Y33.56 E.94717
G1 X121.06 Y33.949 E.01309
G1 X99.395 Y12.284 E.96451
G1 X98.86 Y12.284 E.01685
G1 X120.914 Y34.338 E.98184
G1 X120.768 Y34.728 E.01309
G1 X98.324 Y12.284 E.99918
G1 X97.789 Y12.284 E.01685
G1 X120.622 Y35.117 E1.01651
G1 X120.476 Y35.507 E.01309
G1 X97.253 Y12.284 E1.03385
G1 X96.718 Y12.284 E.01685
G1 X120.33 Y35.896 E1.05118
G1 X120.184 Y36.285 E.01309
G1 X96.183 Y12.284 E1.06852
G1 X95.647 Y12.284 E.01685
G1 X120.038 Y36.675 E1.08585
G1 X119.892 Y37.064 E.01309
G1 X95.112 Y12.284 E1.10319
G1 X94.576 Y12.284 E.01685
G1 X119.746 Y37.454 E1.12052
G1 X119.6 Y37.843 E.01309
G1 X94.041 Y12.284 E1.13786
G1 X93.506 Y12.284 E.01685
G1 X119.454 Y38.232 E1.15519
G1 X119.308 Y38.622 E.01309
G1 X92.97 Y12.284 E1.17253
G1 X92.435 Y12.284 E.01685
M73 P5 R39
G1 X119.162 Y39.011 E1.18986
G1 X119.016 Y39.4 E.01309
G1 X91.899 Y12.284 E1.2072
G1 X91.364 Y12.284 E.01685
G1 X118.87 Y39.79 E1.22453
G1 X118.724 Y40.179 E.01309
G1 X90.829 Y12.284 E1.24187
G1 X90.293 Y12.284 E.01685
G1 X118.578 Y40.569 E1.2592
G1 X118.432 Y40.958 E.01309
G1 X89.758 Y12.284 E1.27654
G1 X89.222 Y12.284 E.01685
G1 X118.286 Y41.347 E1.29387
G1 X118.14 Y41.737 E.01309
G1 X88.687 Y12.284 E1.31121
G1 X88.152 Y12.284 E.01685
G1 X117.994 Y42.126 E1.32854
G1 X117.848 Y42.515 E.01309
G1 X87.616 Y12.284 E1.34588
G1 X87.081 Y12.284 E.01685
G1 X117.702 Y42.905 E1.36321
G1 X117.556 Y43.294 E.01309
G1 X86.545 Y12.284 E1.38055
G1 X86.01 Y12.284 E.01685
M73 P6 R38
G1 X117.41 Y43.684 E1.39788
G1 X117.264 Y44.073 E.01309
G1 X85.475 Y12.284 E1.41522
G1 X84.939 Y12.284 E.01685
G1 X117.118 Y44.462 E1.43255
G1 X116.972 Y44.852 E.01309
G1 X84.404 Y12.284 E1.44989
G1 X83.868 Y12.284 E.01685
G1 X116.826 Y45.241 E1.46722
G1 X116.68 Y45.631 E.01309
G1 X83.333 Y12.284 E1.48456
G1 X82.798 Y12.284 E.01685
G1 X116.534 Y46.02 E1.50189
G1 X116.388 Y46.409 E.01309
G1 X82.262 Y12.284 E1.51922
G1 X81.727 Y12.284 E.01685
G1 X116.242 Y46.799 E1.53656
G1 X116.096 Y47.188 E.01309
G1 X81.191 Y12.284 E1.55389
G1 X80.656 Y12.284 E.01685
G1 X115.95 Y47.577 E1.57123
G1 X115.804 Y47.967 E.01309
M73 P7 R38
G1 X80.121 Y12.284 E1.58856
G1 X79.585 Y12.284 E.01685
G1 X115.658 Y48.356 E1.6059
G1 X115.512 Y48.746 E.01309
G1 X79.05 Y12.284 E1.62323
G1 X78.514 Y12.284 E.01685
G1 X115.366 Y49.135 E1.64057
G1 X115.219 Y49.524 E.01309
G1 X77.979 Y12.284 E1.6579
G1 X77.444 Y12.284 E.01685
G1 X115.073 Y49.914 E1.67524
G1 X114.927 Y50.303 E.01309
G1 X76.908 Y12.284 E1.69257
G1 X76.373 Y12.284 E.01685
G1 X114.781 Y50.693 E1.70991
G1 X114.635 Y51.082 E.01309
G1 X75.837 Y12.284 E1.72724
G1 X75.302 Y12.284 E.01685
M73 P8 R38
G1 X114.489 Y51.471 E1.74458
G1 X114.343 Y51.861 E.01309
G1 X74.767 Y12.284 E1.76191
G1 X74.231 Y12.284 E.01685
G1 X114.197 Y52.25 E1.77925
G1 X114.051 Y52.639 E.01309
G1 X73.696 Y12.284 E1.79658
G1 X73.16 Y12.284 E.01685
M73 P8 R37
G1 X113.905 Y53.029 E1.81392
G1 X113.759 Y53.418 E.01309
G1 X72.625 Y12.284 E1.83125
G1 X72.09 Y12.284 E.01685
G1 X113.613 Y53.808 E1.84859
G1 X113.467 Y54.197 E.01309
G1 X71.554 Y12.284 E1.86592
G1 X71.019 Y12.284 E.01685
G1 X113.321 Y54.586 E1.88326
G1 X113.175 Y54.976 E.01309
M73 P9 R37
G1 X70.483 Y12.284 E1.90059
G1 X69.948 Y12.284 E.01685
G1 X113.029 Y55.365 E1.91793
G1 X112.883 Y55.755 E.01309
G1 X69.413 Y12.284 E1.93526
G1 X68.877 Y12.284 E.01685
G1 X112.737 Y56.144 E1.9526
G1 X112.591 Y56.533 E.01309
G1 X68.342 Y12.284 E1.96993
G1 X67.806 Y12.284 E.01685
G1 X112.445 Y56.923 E1.98727
G1 X112.299 Y57.312 E.01309
G1 X67.271 Y12.284 E2.0046
G1 X66.736 Y12.284 E.01685
G1 X112.153 Y57.701 E2.02194
G1 X112.007 Y58.091 E.01309
M73 P10 R37
G1 X66.2 Y12.284 E2.03927
G1 X65.665 Y12.284 E.01685
G1 X111.861 Y58.48 E2.05661
G1 X111.715 Y58.87 E.01309
G1 X65.129 Y12.284 E2.07394
G1 X64.594 Y12.284 E.01685
G1 X111.569 Y59.259 E2.09128
G1 X111.423 Y59.648 E.01309
G1 X64.059 Y12.284 E2.10861
G1 X63.523 Y12.284 E.01685
G1 X111.277 Y60.038 E2.12595
G1 X111.131 Y60.427 E.01309
M73 P10 R36
G1 X62.988 Y12.284 E2.14328
G1 X62.452 Y12.284 E.01685
M73 P11 R36
G1 X110.985 Y60.816 E2.16061
G1 X110.839 Y61.206 E.01309
G1 X61.917 Y12.284 E2.17795
G1 X61.382 Y12.284 E.01685
G1 X110.693 Y61.595 E2.19528
G1 X110.547 Y61.985 E.01309
G1 X60.846 Y12.284 E2.21262
G1 X60.311 Y12.284 E.01685
G1 X110.401 Y62.374 E2.22995
G1 X110.255 Y62.763 E.01309
G1 X59.775 Y12.284 E2.24729
G1 X59.24 Y12.284 E.01685
G1 X110.109 Y63.153 E2.26462
G1 X109.963 Y63.542 E.01309
M73 P12 R36
G1 X58.705 Y12.284 E2.28196
G1 X58.169 Y12.284 E.01685
G1 X109.817 Y63.932 E2.29929
G1 X109.671 Y64.321 E.01309
G1 X57.634 Y12.284 E2.31663
G1 X57.098 Y12.284 E.01685
G1 X109.525 Y64.71 E2.33396
G1 X109.379 Y65.1 E.01309
G1 X56.563 Y12.284 E2.3513
G1 X56.028 Y12.284 E.01685
G1 X109.233 Y65.489 E2.36863
G1 X109.087 Y65.878 E.01309
G1 X55.492 Y12.284 E2.38597
G1 X54.957 Y12.284 E.01685
M73 P13 R36
G1 X108.941 Y66.268 E2.4033
G1 X108.795 Y66.657 E.01309
M73 P13 R35
G1 X54.421 Y12.284 E2.42064
G1 X53.886 Y12.284 E.01685
G1 X108.649 Y67.047 E2.43797
G1 X108.503 Y67.436 E.01309
G1 X53.351 Y12.284 E2.45531
G1 X52.815 Y12.284 E.01685
G1 X108.357 Y67.825 E2.47264
G1 X108.211 Y68.215 E.01309
G1 X52.272 Y12.284 E2.49014
G1 X52.589 Y13.129 E.0284
M73 P14 R35
G1 X108.065 Y68.604 E2.4697
G1 X107.919 Y68.994 E.01309
G1 X52.91 Y13.985 E2.4489
G1 X53.232 Y14.842 E.0288
G1 X107.773 Y69.383 E2.4281
G1 X107.627 Y69.772 E.01309
G1 X53.553 Y15.699 E2.40729
G1 X53.874 Y16.555 E.0288
G1 X107.481 Y70.162 E2.38649
G1 X107.334 Y70.551 E.01309
G1 X54.195 Y17.412 E2.36569
G1 X54.517 Y18.269 E.0288
G1 X107.188 Y70.94 E2.34489
G1 X107.042 Y71.33 E.01309
M73 P15 R35
G1 X54.838 Y19.125 E2.32409
G1 X55.159 Y19.982 E.0288
G1 X106.896 Y71.719 E2.30328
G1 X106.75 Y72.109 E.01309
G1 X55.48 Y20.839 E2.28248
G1 X55.802 Y21.695 E.0288
G1 X106.604 Y72.498 E2.26168
G1 X106.458 Y72.887 E.01309
M73 P15 R34
G1 X56.123 Y22.552 E2.24088
G1 X56.444 Y23.408 E.0288
G1 X106.312 Y73.277 E2.22008
G1 X106.166 Y73.666 E.01309
M73 P16 R34
G1 X56.765 Y24.265 E2.19928
G1 X57.087 Y25.122 E.0288
G1 X106.02 Y74.056 E2.17847
G1 X105.874 Y74.445 E.01309
G1 X57.408 Y25.978 E2.15767
G1 X57.729 Y26.835 E.0288
G1 X105.728 Y74.834 E2.13687
G1 X105.582 Y75.224 E.01309
G1 X58.05 Y27.692 E2.11607
G1 X58.372 Y28.548 E.0288
G1 X105.436 Y75.613 E2.09527
G1 X105.29 Y76.002 E.01309
G1 X58.693 Y29.405 E2.07446
G1 X59.014 Y30.262 E.0288
G1 X105.144 Y76.392 E2.05366
G1 X104.998 Y76.781 E.01309
M73 P17 R34
G1 X59.335 Y31.118 E2.03286
G1 X59.656 Y31.975 E.0288
G1 X104.852 Y77.171 E2.01206
G1 X104.706 Y77.56 E.01309
G1 X59.978 Y32.832 E1.99126
G1 X60.299 Y33.688 E.0288
G1 X104.56 Y77.949 E1.97046
G1 X104.414 Y78.339 E.01309
G1 X60.62 Y34.545 E1.94965
G1 X60.941 Y35.401 E.0288
G1 X104.268 Y78.728 E1.92885
G1 X104.122 Y79.117 E.01309
G1 X61.263 Y36.258 E1.90805
G1 X61.584 Y37.115 E.0288
M73 P18 R34
G1 X103.976 Y79.507 E1.88725
G1 X103.83 Y79.896 E.01309
M73 P18 R33
G1 X61.905 Y37.971 E1.86645
G1 X62.226 Y38.828 E.0288
G1 X103.684 Y80.286 E1.84564
G1 X103.538 Y80.675 E.01309
G1 X62.548 Y39.685 E1.82484
G1 X62.869 Y40.541 E.0288
G1 X103.392 Y81.064 E1.80404
G1 X103.246 Y81.454 E.01309
G1 X63.19 Y41.398 E1.78324
G1 X63.511 Y42.255 E.0288
G1 X103.1 Y81.843 E1.76244
G1 X102.954 Y82.233 E.01309
G1 X63.833 Y43.111 E1.74163
G1 X64.154 Y43.968 E.0288
G1 X102.808 Y82.622 E1.72083
G1 X102.662 Y83.011 E.01309
M73 P19 R33
G1 X64.475 Y44.825 E1.70003
G1 X64.796 Y45.681 E.0288
G1 X102.516 Y83.401 E1.67923
G1 X102.37 Y83.79 E.01309
G1 X65.118 Y46.538 E1.65843
G1 X65.439 Y47.394 E.0288
G1 X102.224 Y84.179 E1.63763
G1 X102.078 Y84.569 E.01309
G1 X65.76 Y48.251 E1.61682
G1 X66.081 Y49.108 E.0288
G1 X101.932 Y84.958 E1.59602
G1 X101.786 Y85.348 E.01309
G1 X66.403 Y49.964 E1.57522
G1 X66.724 Y50.821 E.0288
G1 X101.64 Y85.737 E1.55442
G1 X101.494 Y86.126 E.01309
G1 X67.045 Y51.678 E1.53362
G1 X67.366 Y52.534 E.0288
M73 P20 R33
G1 X101.348 Y86.516 E1.51281
G1 X101.202 Y86.905 E.01309
G1 X67.688 Y53.391 E1.49201
G1 X68.009 Y54.248 E.0288
G1 X101.056 Y87.295 E1.47121
G1 X100.91 Y87.684 E.01309
G1 X68.33 Y55.104 E1.45041
G1 X68.651 Y55.961 E.0288
G1 X100.764 Y88.073 E1.42961
G1 X100.618 Y88.463 E.01309
M73 P20 R32
G1 X68.972 Y56.818 E1.40881
G1 X69.294 Y57.674 E.0288
G1 X100.472 Y88.852 E1.388
G1 X100.326 Y89.241 E.01309
G1 X69.615 Y58.531 E1.3672
G1 X69.936 Y59.387 E.0288
G1 X100.18 Y89.631 E1.3464
G1 X100.034 Y90.02 E.01309
G1 X70.257 Y60.244 E1.3256
G1 X70.579 Y61.101 E.0288
G1 X99.622 Y90.144 E1.29298
G1 X99.087 Y90.144 E.01685
M73 P21 R32
G1 X70.9 Y61.957 E1.25484
G1 X71.221 Y62.814 E.0288
G1 X98.551 Y90.144 E1.2167
G1 X98.016 Y90.144 E.01685
G1 X71.542 Y63.671 E1.17857
G1 X71.864 Y64.527 E.0288
G1 X97.48 Y90.144 E1.14043
G1 X96.945 Y90.144 E.01685
G1 X72.185 Y65.384 E1.10229
G1 X72.506 Y66.241 E.0288
G1 X96.41 Y90.144 E1.06416
G1 X95.874 Y90.144 E.01685
G1 X72.827 Y67.097 E1.02602
G1 X73.149 Y67.954 E.0288
G1 X95.339 Y90.144 E.98788
G1 X94.803 Y90.144 E.01685
G1 X73.47 Y68.81 E.94975
G1 X73.791 Y69.667 E.0288
G1 X94.268 Y90.144 E.91161
G1 X93.733 Y90.144 E.01685
G1 X74.112 Y70.524 E.87347
G1 X74.434 Y71.38 E.0288
G1 X93.197 Y90.144 E.83534
G1 X92.662 Y90.144 E.01685
G1 X74.755 Y72.237 E.7972
G1 X75.076 Y73.094 E.0288
G1 X92.126 Y90.144 E.75906
G1 X91.591 Y90.144 E.01685
G1 X75.397 Y73.95 E.72093
G1 X75.719 Y74.807 E.0288
G1 X91.056 Y90.144 E.68279
G1 X90.52 Y90.144 E.01685
M73 P22 R32
G1 X76.04 Y75.664 E.64465
G1 X76.361 Y76.52 E.0288
G1 X89.985 Y90.144 E.60652
G1 X89.449 Y90.144 E.01685
G1 X76.682 Y77.377 E.56838
G1 X77.003 Y78.234 E.0288
G1 X88.914 Y90.144 E.53024
G1 X88.379 Y90.144 E.01685
G1 X77.325 Y79.09 E.49211
G1 X77.646 Y79.947 E.0288
G1 X87.843 Y90.144 E.45397
G1 X87.308 Y90.144 E.01685
G1 X77.967 Y80.803 E.41583
G1 X78.288 Y81.66 E.0288
G1 X86.772 Y90.144 E.3777
G1 X86.237 Y90.144 E.01685
G1 X78.61 Y82.517 E.33956
G1 X78.931 Y83.373 E.0288
G1 X85.702 Y90.144 E.30142
G1 X85.166 Y90.144 E.01685
G1 X79.252 Y84.23 E.26329
G1 X79.573 Y85.087 E.0288
G1 X84.631 Y90.144 E.22515
G1 X84.095 Y90.144 E.01685
G1 X79.895 Y85.943 E.18701
G1 X80.216 Y86.8 E.0288
G1 X83.56 Y90.144 E.14888
G1 X83.025 Y90.144 E.01685
G1 X80.537 Y87.657 E.11074
G1 X80.858 Y88.513 E.0288
