;FLAVOR:Marlin
;TIME:1070
;Filament used: 2.4814m, 0m
;Layer height: 0.45
;Generated with Cura_SteamEngine master
T0
M140 S70
M105
M190 S70
M104 S220
M105
M109 S220
M82 ;absolute extrusion mode
;Sliced at: Fri 01-04-2022 10:42:17
G21 ;metric values
M107
G28
M420 S1
G90 ;absolute positioning
G92 E0; reset extruder distance
G1 X0 Y0 Z5 F5000 ;move nozzle up 5mm for safe homing
G29;ABL
M500
M82 ;set extruder to absolute mode
M107 ;start with the fan off
G1 X0 Y0 Z15.0 F5000 ;move the platform down 15mm
G92 E0 ;zero the extruded length
G1 F200 E3 ;extrude 3mm of feed stock
G1 F200 E0 ;Retract
G4 S2 ;Wait for material to fall
G1 F200 E3
G92 E0 ;zero the extruded length again
M117 Printing...
G92 E0
G1 F2400 E-1
;LAYER_COUNT:5
;LAYER:0
M107
M204 S800
M205 X10 Y10
G0 F4800 X4.579 Y11.025 Z0.3
;TYPE:SKIRT
G1 F2400 E0
G1 F1080 X4.97 Y10.902 E0.03067
G1 X5.4 Y10.858 E0.06302
G1 X55.399 Y10.858 E3.80471
G1 X55.806 Y10.898 E3.83532
G1 X56.198 Y11.016 E3.86595
G1 X56.56 Y11.208 E3.89662
G1 X56.877 Y11.467 E3.92725
G1 X57.139 Y11.782 E3.95791
G1 X57.334 Y12.142 E3.98855
G1 X57.425 Y12.405 E4.00938
G1 X63.003 Y32.858 E5.59589
G1 X67.795 Y32.858 E5.9545
G1 X73.373 Y12.405 E7.541
G1 X73.519 Y12.023 E7.57161
G1 X73.736 Y11.676 E7.60223
G1 X74.016 Y11.378 E7.63284
G1 X74.349 Y11.139 E7.66351
G1 X74.722 Y10.97 E7.69415
G1 X75.121 Y10.877 E7.72481
G1 X75.399 Y10.858 E7.74567
G1 X125.398 Y10.858 E11.48736
G1 X125.805 Y10.898 E11.51796
G1 X126.197 Y11.016 E11.5486
G1 X126.559 Y11.208 E11.57926
G1 X126.876 Y11.467 E11.6099
G1 X127.138 Y11.782 E11.64056
G1 X127.333 Y12.142 E11.6712
G1 X127.454 Y12.533 E11.70183
G1 X127.498 Y12.94 E11.73246
G1 X127.462 Y13.347 E11.76304
G1 X127.347 Y13.74 E11.79368
G1 X127.145 Y14.123 E11.82609
G1 X107.146 Y44.123 E14.52427
G1 X106.887 Y44.44 E14.5549
G1 X106.571 Y44.7 E14.58553
G1 X106.211 Y44.895 E14.61617
G1 X105.82 Y45.015 E14.64678
G1 X105.399 Y45.058 E14.67844
G1 X25.399 Y45.058 E20.66527
G1 X24.992 Y45.018 E20.69587
G1 X24.6 Y44.9 E20.72651
G1 X24.238 Y44.708 E20.75717
G1 X23.921 Y44.449 E20.78781
G1 X23.652 Y44.123 E20.81944
G1 X3.653 Y14.123 E23.51762
G1 X3.46 Y13.762 E23.54826
G1 X3.341 Y13.37 E23.57891
G1 X3.3 Y12.963 E23.60953
G1 X3.339 Y12.555 E23.6402
G1 X3.456 Y12.163 E23.67081
G1 X3.648 Y11.801 E23.70148
G1 X3.905 Y11.483 E23.73207
G1 X4.22 Y11.221 E23.76274
G1 X4.579 Y11.025 E23.79334
G0 F4800 X4.942 Y11.53
G1 F1080 X5.4 Y11.458 E23.82804
G1 X55.399 Y11.458 E27.56973
G1 X55.743 Y11.498 E27.59565
G1 X56.068 Y11.615 E27.6215
G1 X56.358 Y11.804 E27.6474
G1 X56.596 Y12.054 E27.67323
G1 X56.771 Y12.353 E27.69916
G1 X56.846 Y12.563 E27.71585
G1 X62.545 Y33.458 E29.33665
G1 X68.253 Y33.458 E29.76381
G1 X73.952 Y12.563 E31.38461
G1 X74.081 Y12.242 E31.4105
G1 X74.28 Y11.959 E31.43639
G1 X74.538 Y11.73 E31.4622
G1 X74.842 Y11.565 E31.48809
G1 X75.176 Y11.475 E31.51398
G1 X75.399 Y11.458 E31.53071
G1 X125.398 Y11.458 E35.2724
G1 X125.742 Y11.498 E35.29832
G1 X126.067 Y11.615 E35.32417
G1 X126.357 Y11.804 E35.35007
G1 X126.595 Y12.054 E35.3759
G1 X126.77 Y12.353 E35.40183
G1 X126.873 Y12.683 E35.4277
G1 X126.896 Y13.028 E35.45358
G1 X126.841 Y13.369 E35.47943
G1 X126.646 Y13.79 E35.51415
G1 X106.647 Y43.79 E38.21233
G1 X106.423 Y44.054 E38.23824
G1 X106.145 Y44.259 E38.26409
G1 X105.827 Y44.396 E38.29
G1 X105.399 Y44.458 E38.32237
G1 X25.399 Y44.458 E44.30919
G1 X25.055 Y44.418 E44.33511
G1 X24.73 Y44.301 E44.36096
G1 X24.44 Y44.112 E44.38686
G1 X24.151 Y43.79 E44.41924
G1 X4.152 Y13.79 E47.11742
G1 X3.995 Y13.482 E47.14329
G1 X3.912 Y13.146 E47.1692
G1 X3.908 Y12.8 E47.19509
G1 X3.984 Y12.463 E47.22094
G1 X4.135 Y12.152 E47.24681
G1 X4.353 Y11.884 E47.27267
G1 X4.627 Y11.672 E47.29859
G1 X4.942 Y11.53 E47.32445
G0 F4800 X5.076 Y12.118
G1 F1080 X5.4 Y12.058 E47.34911
G1 X55.399 Y12.058 E51.0908
G1 X55.664 Y12.098 E51.11086
G1 X55.905 Y12.214 E51.13087
G1 X56.101 Y12.395 E51.15084
G1 X56.267 Y12.721 E51.17822
G1 X62.086 Y34.058 E52.83329
G1 X68.712 Y34.058 E53.32915
G1 X74.531 Y12.721 E54.98423
G1 X74.639 Y12.476 E55.00426
G1 X74.814 Y12.274 E55.02426
G1 X75.041 Y12.132 E55.0443
G1 X75.399 Y12.058 E55.07166
G1 X125.398 Y12.058 E58.81335
G1 X125.663 Y12.098 E58.8334
G1 X125.904 Y12.214 E58.85342
G1 X126.1 Y12.395 E58.87339
G1 X126.235 Y12.627 E58.89347
G1 X126.295 Y12.887 E58.91344
G1 X126.276 Y13.154 E58.93347
G1 X126.147 Y13.457 E58.95812
G1 X106.148 Y43.457 E61.6563
G1 X105.968 Y43.655 E61.67633
G1 X105.738 Y43.792 E61.69636
G1 X105.399 Y43.858 E61.72221
G1 X25.399 Y43.858 E67.70903
G1 X25.134 Y43.818 E67.72909
G1 X24.893 Y43.702 E67.7491
G1 X24.65 Y43.457 E67.77493
G1 X4.651 Y13.457 E70.47311
G1 X4.537 Y13.215 E70.49313
G1 X4.5 Y12.95 E70.51315
G1 X4.542 Y12.686 E70.53316
G1 X4.66 Y12.446 E70.55317
G1 X4.843 Y12.251 E70.57318
G1 X5.076 Y12.118 E70.59326
G0 F4800 X5.229 Y12.711
G1 F1080 X5.4 Y12.658 E70.60666
G1 X55.399 Y12.658 E74.34835
G1 X55.548 Y12.697 E74.35987
G1 X55.657 Y12.805 E74.37136
G1 X55.688 Y12.879 E74.37736
G1 X61.628 Y34.658 E76.06673
G1 X69.17 Y34.658 E76.63114
G1 X75.11 Y12.879 E78.32051
G1 X75.187 Y12.746 E78.33201
G1 X75.319 Y12.669 E78.34345
G1 X75.399 Y12.658 E78.34949
G1 X125.398 Y12.658 E82.09118
G1 X125.547 Y12.697 E82.10271
G1 X125.656 Y12.805 E82.11419
G1 X125.698 Y12.953 E82.1257
G1 X125.648 Y13.124 E82.13904
G1 X105.649 Y43.124 E84.83722
G1 X105.534 Y43.226 E84.84872
G1 X105.399 Y43.258 E84.85911
G1 X25.399 Y43.258 E90.84593
G1 X25.25 Y43.219 E90.85746
G1 X25.149 Y43.124 E90.86783
G1 X5.15 Y13.124 E93.56602
G1 X5.101 Y12.979 E93.57747
G1 X5.13 Y12.828 E93.58898
G1 X5.229 Y12.711 E93.60045
;MESH:Part3.STL
G0 F4800 X5.96 Y13.258
;TYPE:WALL-OUTER
G1 F1080 X55.17 Y13.258 E97.28309
G1 X61.17 Y35.258 E98.9896
G1 X69.628 Y35.258 E99.62256
G1 X75.628 Y13.258 E101.32906
G1 X124.838 Y13.258 E105.01171
G1 X105.238 Y42.658 E107.65597
G1 X25.56 Y42.658 E113.6187
G1 X5.96 Y13.258 E116.26296
G0 F4800 X6.26 Y13.258
G0 X7.081 Y13.858
;TYPE:WALL-INNER
G1 F1080 X54.712 Y13.858 E119.82744
G1 X60.712 Y35.858 E121.53395
G1 X70.086 Y35.858 E122.23545
G1 X76.086 Y13.858 E123.94196
G1 X123.717 Y13.858 E127.50644
G1 X104.917 Y42.058 E130.04277
G1 X25.881 Y42.058 E135.95745
G1 X7.081 Y13.858 E138.49379
G0 F4800 X8.184 Y14.068
G0 X8.184 Y14.448
;TYPE:SKIN
G1 F1080 X54.261 Y14.448 E141.94197
G1 X60.261 Y36.448 E143.64848
G1 X70.537 Y36.448 E144.41749
G1 X76.537 Y14.448 E146.12399
G1 X122.614 Y14.448 E149.57218
G1 X104.601 Y41.468 E152.00237
G1 X26.197 Y41.468 E157.86976
G1 X8.184 Y14.448 E160.29994
G0 F4800 X8.184 Y14.068
G0 X9.305 Y14.068
G0 X9.305 Y15.048
G1 F1080 X53.803 Y15.048 E163.62997
G1 X59.803 Y37.048 E165.33647
G1 X70.995 Y37.048 E166.17403
G1 X76.995 Y15.048 E167.88054
G1 X121.493 Y15.048 E171.21056
G1 X104.28 Y40.868 E173.53282
G1 X26.518 Y40.868 E179.35216
G1 X9.305 Y15.048 E181.67442
G1 F2400 E180.67442
G0 F4800 X9.305 Y14.068
G0 X7.625 Y14.15
G0 X26.029 Y41.783
G0 X27.171 Y41.848
G0 X27.171 Y40.747
G1 F2400 E181.67442
G1 F1080 X25.406 Y38.982 E181.86121
G1 X25.3 Y38.876
G0 F4800 X24.408 Y39.469
G0 X22.793 Y37.046
G0 X23.709 Y36.437
G1 F1080 X28.019 Y40.747 E182.31735
G0 F4800 X28.868 Y40.747
G1 F1080 X22.012 Y33.891 E183.04295
G1 X21.906 Y33.785
G0 F4800 X21.014 Y34.378
G0 X19.398 Y31.955
G0 X20.315 Y31.346
G1 F1080 X29.716 Y40.747 E184.03788
G0 F4800 X30.565 Y40.747
G1 F1080 X18.618 Y28.8 E185.30227
G1 X18.512 Y28.694
G0 F4800 X17.62 Y29.288
G0 X16.005 Y26.865
G0 X16.921 Y26.255
G1 F1080 X31.413 Y40.747 E186.836
G0 F4800 X32.262 Y40.747
G1 F1080 X15.224 Y23.709 E188.63919
G1 X15.118 Y23.603
G0 F4800 X14.226 Y24.196
G0 X12.611 Y21.773
G0 X13.527 Y21.164
G1 F1080 X33.11 Y40.747 E190.71172
G0 F4800 X33.959 Y40.747
G1 F1080 X11.83 Y18.618 E193.0537
G1 X11.724 Y18.512
G0 F4800 X10.832 Y19.105
G0 X9.216 Y16.682
G0 X10.133 Y16.073
G1 F1080 X34.808 Y40.747 E195.66508
G0 F4800 X35.656 Y40.747
G1 F1080 X10.076 Y15.167 E198.37229
G0 F4800 X10.924 Y15.167
G1 F1080 X36.505 Y40.747 E201.07955
G0 F4800 X37.353 Y40.747
G1 F1080 X11.773 Y15.167 E203.78676
G0 F4800 X12.621 Y15.167
G1 F1080 X38.202 Y40.747 E206.49403
G0 F4800 X39.05 Y40.747
G1 F1080 X13.47 Y15.167 E209.20124
G0 F4800 X14.318 Y15.167
G1 F1080 X39.899 Y40.747 E211.9085
G0 F4800 X40.747 Y40.747
G1 F1080 X15.167 Y15.167 E214.61571
G0 F4800 X16.015 Y15.167
G1 F1080 X41.596 Y40.747 E217.32298
G0 F4800 X42.444 Y40.747
G1 F1080 X16.864 Y15.167 E220.03019
G0 F4800 X17.713 Y15.167
G1 F1080 X43.293 Y40.747 E222.7374
G0 F4800 X44.141 Y40.747
G1 F1080 X18.561 Y15.167 E225.44461
G0 F4800 X19.41 Y15.167
G1 F1080 X44.99 Y40.747 E228.15182
G0 F4800 X45.838 Y40.747
G1 F1080 X20.258 Y15.167 E230.85903
G0 F4800 X21.107 Y15.167
G1 F1080 X46.687 Y40.747 E233.56624
G0 F4800 X47.535 Y40.747
G1 F1080 X21.955 Y15.167 E236.27345
G0 F4800 X22.804 Y15.167
G1 F1080 X48.384 Y40.747 E238.98066
G0 F4800 X49.233 Y40.747
G1 F1080 X23.652 Y15.167 E241.68793
G0 F4800 X24.501 Y15.167
G1 F1080 X50.081 Y40.747 E244.39514
G0 F4800 X50.93 Y40.747
G1 F1080 X25.349 Y15.167 E247.1024
G0 F4800 X26.198 Y15.167
G1 F1080 X51.778 Y40.747 E249.80961
G0 F4800 X52.627 Y40.747
G1 F1080 X27.046 Y15.167 E252.51687
G0 F4800 X27.895 Y15.167
G1 F1080 X53.475 Y40.747 E255.22408
G0 F4800 X54.324 Y40.747
G1 F1080 X28.743 Y15.167 E257.93135
G0 F4800 X29.592 Y15.167
G1 F1080 X55.172 Y40.747 E260.63856
G0 F4800 X56.021 Y40.747
G1 F1080 X30.44 Y15.167 E263.34582
G0 F4800 X31.289 Y15.167
G1 F1080 X56.869 Y40.747 E266.05303
G0 F4800 X57.718 Y40.747
G1 F1080 X32.138 Y15.167 E268.76024
G0 F4800 X32.986 Y15.167
G1 F1080 X58.566 Y40.747 E271.46746
G0 F4800 X59.415 Y40.747
G1 F1080 X33.835 Y15.167 E274.17467
G0 F4800 X34.683 Y15.167
G1 F1080 X60.263 Y40.747 E276.88188
G0 F4800 X61.112 Y40.747
G1 F1080 X35.532 Y15.167 E279.58909
G0 F4800 X36.38 Y15.167
G1 F1080 X61.96 Y40.747 E282.2963
G0 F4800 X62.809 Y40.747
G1 F1080 X37.229 Y15.167 E285.00351
G0 F4800 X38.077 Y15.167
G1 F1080 X59.574 Y36.664 E287.2786
G0 F4800 X60.078 Y37.168
G1 F1080 X63.657 Y40.747 E287.65738
G0 F4800 X64.506 Y40.747
G1 F1080 X60.927 Y37.168 E288.03616
G0 F4800 X61.775 Y37.168
G1 F1080 X65.355 Y40.747 E288.41499
G0 F4800 X66.203 Y40.747
G1 F1080 X62.624 Y37.168 E288.79376
G0 F4800 X63.472 Y37.168
G1 F1080 X67.052 Y40.747 E289.17259
G0 F4800 X67.9 Y40.747
G1 F1080 X64.321 Y37.168 E289.55137
G0 F4800 X65.169 Y37.168
G1 F1080 X68.749 Y40.747 E289.9302
G0 F4800 X69.597 Y40.747
G1 F1080 X66.018 Y37.168 E290.30898
G0 F4800 X66.866 Y37.168
G1 F1080 X70.446 Y40.747 E290.6878
G0 F4800 X71.294 Y40.747
G1 F1080 X67.715 Y37.168 E291.06658
G0 F4800 X68.563 Y37.168
G1 F1080 X72.143 Y40.747 E291.44541
G0 F4800 X72.991 Y40.747
G1 F1080 X69.412 Y37.168 E291.82419
G0 F4800 X70.26 Y37.168
G1 F1080 X73.84 Y40.747 E292.20302
G0 F4800 X74.688 Y40.747
G1 F1080 X71.09 Y37.149 E292.5838
G0 F4800 X71.272 Y36.482
G1 F1080 X75.537 Y40.747 E293.03518
G0 F4800 X76.385 Y40.747
G1 F1080 X71.453 Y35.815 E293.55715
G0 F4800 X71.635 Y35.148
G1 F1080 X77.234 Y40.747 E294.14971
G0 F4800 X78.082 Y40.747
G1 F1080 X71.818 Y34.482 E294.8127
G0 F4800 X71.999 Y33.815
G1 F1080 X78.931 Y40.747 E295.54634
G0 F4800 X79.78 Y40.747
G1 F1080 X72.181 Y33.149 E296.35051
G0 F4800 X72.363 Y32.482
G1 F1080 X80.628 Y40.747 E297.22522
G0 F4800 X81.477 Y40.747
G1 F1080 X72.544 Y31.815 E298.17058
G0 F4800 X72.726 Y31.148
G1 F1080 X82.325 Y40.747 E299.18647
G0 F4800 X83.174 Y40.747
G1 F1080 X72.909 Y30.482 E300.27284
G0 F4800 X73.09 Y29.815
G1 F1080 X84.022 Y40.747 E301.42981
G0 F4800 X84.871 Y40.747
G1 F1080 X73.272 Y29.149 E302.65732
G0 F4800 X73.454 Y28.482
G1 F1080 X85.719 Y40.747 E303.95536
G0 F4800 X86.568 Y40.747
G1 F1080 X73.635 Y27.815 E305.32405
G0 F4800 X73.818 Y27.149
G1 F1080 X87.416 Y40.747 E306.76317
G0 F4800 X88.265 Y40.747
G1 F1080 X74 Y26.482 E308.27287
G0 F4800 X74.181 Y25.815
G1 F1080 X89.113 Y40.747 E309.85317
G0 F4800 X89.962 Y40.747
G1 F1080 X74.363 Y25.148 E311.50406
G0 F4800 X74.545 Y24.482
G1 F1080 X90.81 Y40.747 E313.22544
G0 F4800 X91.659 Y40.747
G1 F1080 X74.727 Y23.815 E315.01741
G0 F4800 X74.909 Y23.149
G1 F1080 X92.507 Y40.747 E316.87986
G0 F4800 X93.356 Y40.747
G1 F1080 X75.091 Y22.482 E318.8129
G0 F4800 X75.272 Y21.815
G1 F1080 X94.205 Y40.747 E320.81658
G0 F4800 X95.053 Y40.747
G1 F1080 X75.454 Y21.148 E322.89081
G0 F4800 X75.636 Y20.482
G1 F1080 X95.902 Y40.747 E325.03557
G0 F4800 X96.75 Y40.747
G1 F1080 X75.818 Y19.815 E327.25087
G0 F4800 X76 Y19.149
G1 F1080 X97.599 Y40.747 E329.5367
G0 F4800 X98.447 Y40.747
G1 F1080 X76.182 Y18.482 E331.89308
G0 F4800 X76.363 Y17.815
G1 F1080 X99.296 Y40.747 E334.32009
G0 F4800 X100.144 Y40.747
G1 F1080 X76.545 Y17.148 E336.81765
G0 F4800 X76.727 Y16.481
G1 F1080 X100.993 Y40.747 E339.3858
G0 F4800 X101.841 Y40.747
G1 F1080 X76.909 Y15.815 E342.02443
G0 F4800 X77.11 Y15.168
G1 F1080 X102.69 Y40.747 E344.73158
G0 F4800 X103.538 Y40.747
G1 F1080 X77.959 Y15.168 E347.43869
G0 F4800 X78.807 Y15.168
G1 F1080 X104.284 Y40.644 E350.13495
G0 F4800 X104.623 Y40.135
G1 F1080 X79.656 Y15.168 E352.77728
G0 F4800 X80.504 Y15.168
G1 F1080 X104.962 Y39.626 E355.36575
G0 F4800 X105.302 Y39.117
G1 F1080 X81.353 Y15.168 E357.90034
G0 F4800 X82.201 Y15.168
G1 F1080 X105.641 Y38.608 E360.38107
G0 F4800 X105.981 Y38.098
G1 F1080 X83.05 Y15.168 E362.80788
G0 F4800 X83.898 Y15.168
G1 F1080 X106.32 Y37.589 E365.18081
G0 F4800 X106.659 Y37.08
G1 F1080 X84.747 Y15.168 E367.49983
G0 F4800 X85.595 Y15.168
G1 F1080 X106.999 Y36.571 E369.76503
G0 F4800 X107.338 Y36.062
G1 F1080 X86.444 Y15.168 E371.97631
G0 F4800 X87.293 Y15.168
G1 F1080 X107.678 Y35.553 E374.13371
G0 F4800 X108.017 Y35.044
G1 F1080 X88.141 Y15.168 E376.23725
G0 F4800 X88.99 Y15.168
G1 F1080 X108.357 Y34.535 E378.28692
G0 F4800 X108.696 Y34.025
G1 F1080 X89.838 Y15.168 E380.28267
G0 F4800 X90.687 Y15.168
G1 F1080 X109.035 Y33.516 E382.22449
G0 F4800 X109.375 Y33.007
G1 F1080 X91.535 Y15.168 E384.1125
G0 F4800 X92.384 Y15.168
G1 F1080 X109.714 Y32.498 E385.94659
G0 F4800 X110.054 Y31.989
G1 F1080 X93.232 Y15.168 E387.72686
G0 F4800 X94.081 Y15.168
G1 F1080 X110.393 Y31.48 E389.45321
G0 F4800 X110.732 Y30.971
G1 F1080 X94.929 Y15.168 E391.12569
G0 F4800 X95.778 Y15.168
G1 F1080 X111.072 Y30.462 E392.74431
G0 F4800 X111.411 Y29.953
G1 F1080 X96.626 Y15.168 E394.30905
G0 F4800 X97.475 Y15.168
G1 F1080 X111.751 Y29.443 E395.81987
G0 F4800 X112.09 Y28.934
G1 F1080 X98.323 Y15.168 E397.27682
G0 F4800 X99.172 Y15.168
G1 F1080 X112.429 Y28.425 E398.67985
G0 F4800 X112.769 Y27.916
G1 F1080 X100.02 Y15.168 E400.02906
G0 F4800 X100.869 Y15.168
G1 F1080 X113.108 Y27.407 E401.32435
G0 F4800 X113.448 Y26.898
G1 F1080 X101.718 Y15.168 E402.56578
G0 F4800 X102.566 Y15.168
G1 F1080 X113.787 Y26.389 E403.75333
G0 F4800 X114.127 Y25.88
G1 F1080 X103.415 Y15.168 E404.88701
G0 F4800 X104.263 Y15.168
G1 F1080 X114.466 Y25.37 E405.96678
G0 F4800 X114.805 Y24.861
G1 F1080 X105.112 Y15.168 E406.99262
G0 F4800 X105.96 Y15.168
G1 F1080 X115.145 Y24.352 E407.96464
G0 F4800 X115.484 Y23.843
G1 F1080 X106.809 Y15.168 E408.88274
G0 F4800 X107.657 Y15.168
G1 F1080 X115.824 Y23.334 E409.74703
G0 F4800 X116.163 Y22.825
G1 F1080 X108.506 Y15.168 E410.55739
G0 F4800 X109.354 Y15.168
G1 F1080 X116.502 Y22.316 E411.31389
G0 F4800 X116.842 Y21.807
G1 F1080 X110.203 Y15.168 E412.01651
G0 F4800 X111.051 Y15.168
G1 F1080 X117.181 Y21.298 E412.66527
G0 F4800 X117.521 Y20.788
G1 F1080 X111.9 Y15.168 E413.2601
G0 F4800 X112.748 Y15.168
G1 F1080 X117.86 Y20.279 E413.80107
G0 F4800 X118.199 Y19.77
G1 F1080 X113.597 Y15.168 E414.28811
G0 F4800 X114.445 Y15.168
G1 F1080 X118.539 Y19.261 E414.72134
G0 F4800 X118.878 Y18.752
G1 F1080 X115.294 Y15.168 E415.10065
G0 F4800 X116.142 Y15.168
G1 F1080 X119.218 Y18.243 E415.42614
G0 F4800 X119.557 Y17.734
G1 F1080 X116.991 Y15.168 E415.69771
G0 F4800 X117.84 Y15.168
G1 F1080 X119.897 Y17.225 E415.9154
G0 F4800 X120.236 Y16.716
G1 F1080 X118.688 Y15.168 E416.07923
G0 F4800 X119.537 Y15.168
G1 F1080 X120.575 Y16.206 E416.18909
G0 F4800 X120.915 Y15.697
G1 F1080 X120.385 Y15.168 E416.24513
G1 F2400 E415.24513
G0 F4800 X120.385 Y14.068
G0 X76.299 Y14.137
G0 X69.881 Y35.589
G0 X60.917 Y35.589
G0 X59.362 Y31.708
G0 X58.301 Y31.997
G1 F2400 E416.24513
