;FLAVOR:Marlin
;TIME:7003
;Filament used: 20.8149m, 0m
;Layer height: 0.45
;Generated with Cura_SteamEngine master
T0
M140 S70
M105
M190 S70
M104 S220
M105
M109 S220
M82 ;absolute extrusion mode
;Sliced at: Fri 01-04-2022 10:40:08
G21 ;metric values
M107
G28
M420 S1
G90 ;absolute positioning
G92 E0; reset extruder distance
G1 X0 Y0 Z5 F5000 ;move nozzle up 5mm for safe homing
G29;ABL
M500
M82 ;set extruder to absolute mode
M107 ;start with the fan off
G1 X0 Y0 Z15.0 F5000 ;move the platform down 15mm
G92 E0 ;zero the extruded length
G1 F200 E3 ;extrude 3mm of feed stock
G1 F200 E0 ;Retract
G4 S2 ;Wait for material to fall
G1 F200 E3
G92 E0 ;zero the extruded length again
M117 Printing...
G92 E0
G1 F2400 E-1
;LAYER_COUNT:26
;LAYER:0
M107
M204 S800
M205 X10 Y10
G0 F4800 X31.263 Y37.924 Z0.3
;TYPE:SKIRT
G1 F2400 E0
G1 F1080 X31.353 Y37.861 E0.00822
G1 X41.001 Y31.371 E0.87839
G1 X41.097 Y31.31 E0.8869
G1 X50.754 Y25.549 E1.72841
G1 X50.856 Y25.492 E1.73715
G1 X60.535 Y20.425 E2.55474
G1 X60.643 Y20.372 E2.56374
G1 X70.351 Y15.976 E3.36125
G1 X70.463 Y15.929 E3.37034
G1 X80.216 Y12.178 E4.15233
G1 X80.333 Y12.137 E4.16161
G1 X90.144 Y9.015 E4.93209
G1 X90.264 Y8.981 E4.94143
G1 X100.145 Y6.471 E5.70436
G1 X100.268 Y6.443 E5.7138
G1 X110.24 Y4.537 E6.47357
G1 X110.363 Y4.518 E6.48288
G1 X120.44 Y3.207 E7.24335
G1 X120.564 Y3.194 E7.25268
G1 X130.763 Y2.477 E8.01781
G1 X130.885 Y2.472 E8.02695
G1 X141.227 Y2.35 E8.80095
G1 X141.348 Y2.352 E8.81001
G1 X151.852 Y2.831 E9.59689
G1 X151.969 Y2.84 E9.60567
G1 X162.655 Y3.932 E10.40953
G1 X162.769 Y3.947 E10.41813
G1 X173.654 Y5.664 E11.24279
G1 X173.727 Y5.676 E11.24832
G1 X177.267 Y6.363 E11.51818
G1 X177.399 Y6.394 E11.52833
G1 X180.94 Y7.322 E11.80227
G1 X181.269 Y7.438 E11.82838
G1 X184.326 Y8.813 E12.07923
G1 X184.626 Y8.978 E12.10485
G1 X187.27 Y10.732 E12.34229
G1 X187.516 Y10.923 E12.3656
G1 X189.996 Y13.16 E12.61554
G1 X190.181 Y13.349 E12.63533
G1 X192.656 Y16.225 E12.91928
G1 X192.785 Y16.392 E12.93507
G1 X196.158 Y21.218 E13.37569
G1 X196.194 Y21.271 E13.38049
G1 X199.865 Y26.88 E13.88215
G1 X203.052 Y31.217 E14.28492
G1 X205.788 Y34.282 E14.59238
G1 X208.266 Y36.458 E14.83917
G1 X210.283 Y37.764 E15.01899
G1 X211.799 Y38.442 E15.14327
G1 X213.083 Y38.791 E15.24285
G1 X214.224 Y38.917 E15.32875
G1 X215.381 Y38.856 E15.41546
G1 X216.567 Y38.591 E15.5064
G1 X217.787 Y38.1 E15.60482
G1 X219.163 Y37.278 E15.72476
G1 X220.644 Y36.092 E15.86675
G1 X220.987 Y35.868 E15.89741
G1 X221.366 Y35.715 E15.928
G1 X221.769 Y35.639 E15.95869
G1 X222.178 Y35.643 E15.9893
G1 X222.579 Y35.726 E16.01994
G1 X222.956 Y35.884 E16.05053
G1 X223.295 Y36.114 E16.08119
G1 X223.584 Y36.404 E16.11183
G1 X223.81 Y36.745 E16.14244
G1 X223.966 Y37.124 E16.17311
G1 X224.046 Y37.525 E16.20371
G1 X224.054 Y37.832 E16.2267
G1 X223.917 Y40.683 E16.4403
G1 X223.872 Y41.024 E16.46604
G1 X223.424 Y43.104 E16.62527
G1 X223.329 Y43.421 E16.65003
G1 X222.637 Y45.207 E16.79337
G1 X222.487 Y45.516 E16.81907
G1 X221.473 Y47.232 E16.96823
G1 X221.269 Y47.52 E16.99465
G1 X219.969 Y49.058 E17.14535
G1 X219.734 Y49.294 E17.17027
G1 X218.123 Y50.679 E17.32926
G1 X217.87 Y50.866 E17.35281
G1 X215.784 Y52.175 E17.5371
G1 X215.494 Y52.327 E17.56161
G1 X212.115 Y53.772 E17.83663
G1 X211.872 Y53.858 E17.85592
G1 X210.489 Y54.258 E17.96366
G1 X210.075 Y56.8 E18.15639
G1 X209.994 Y57.127 E18.1816
G1 X208.864 Y60.52 E18.44923
G1 X208.724 Y60.846 E18.47578
G1 X207.137 Y63.813 E18.72759
G1 X206.944 Y64.111 E18.75416
G1 X205.024 Y66.584 E18.98845
G1 X204.791 Y66.838 E19.01425
G1 X202.422 Y69.029 E19.25573
G1 X202.163 Y69.233 E19.2804
G1 X199.424 Y71.063 E19.52692
G1 X199.151 Y71.217 E19.55037
G1 X195.842 Y72.773 E19.82401
G1 X195.564 Y72.881 E19.84633
G1 X191.804 Y74.035 E20.14067
G1 X191.532 Y74.099 E20.16158
G1 X187.121 Y74.831 E20.49619
G1 X186.863 Y74.857 E20.5156
G1 X182.263 Y75.045 E20.86013
G1 X182.021 Y75.041 E20.87824
G1 X177.145 Y74.677 E21.24415
G1 X176.908 Y74.646 E21.26204
G1 X171.937 Y73.699 E21.64074
G1 X171.7 Y73.639 E21.65903
G1 X166.877 Y72.122 E22.0374
G1 X166.631 Y72.027 E22.05713
G1 X162.225 Y70.004 E22.41995
G1 X161.971 Y69.866 E22.44158
G1 X158.857 Y67.878 E22.71806
G1 X25.902 Y67.878 E32.66779
G1 X25.703 Y67.869 E32.68269
G1 X3.49 Y65.755 E34.35252
G1 X3.088 Y65.676 E34.38318
G1 X2.709 Y65.521 E34.41382
G1 X2.367 Y65.296 E34.44446
G1 X2.076 Y65.009 E34.47505
G1 X1.846 Y64.67 E34.5057
G1 X1.686 Y64.293 E34.53635
G1 X1.601 Y63.893 E34.56695
G1 X1.597 Y63.483 E34.59764
G1 X1.672 Y63.081 E34.62824
G1 X1.823 Y62.7 E34.65891
G1 X2.045 Y62.357 E34.68949
G1 X2.268 Y62.118 E34.71395
G1 X11.81 Y53.35 E35.68372
G1 X11.886 Y53.283 E35.6913
G1 X21.536 Y45.238 E36.6315
G1 X21.619 Y45.172 E36.63944
G1 X31.263 Y37.924 E37.54225
G0 F4800 X31.624 Y38.404
G1 F1080 X31.688 Y38.358 E37.54815
G1 X41.336 Y31.868 E38.41831
G1 X41.405 Y31.825 E38.4244
G1 X51.062 Y26.064 E39.26591
G1 X51.134 Y26.023 E39.27211
G1 X60.813 Y20.956 E40.08969
G1 X60.89 Y20.919 E40.09608
G1 X70.598 Y16.523 E40.8936
G1 X70.679 Y16.489 E40.90017
G1 X80.432 Y12.738 E41.68216
G1 X80.515 Y12.709 E41.68874
G1 X90.326 Y9.587 E42.45923
G1 X90.412 Y9.562 E42.46593
G1 X100.293 Y7.052 E43.22886
G1 X100.38 Y7.033 E43.23552
G1 X110.352 Y5.127 E43.99529
G1 X110.44 Y5.113 E44.00196
G1 X120.517 Y3.802 E44.76243
G1 X120.606 Y3.793 E44.76912
G1 X130.805 Y3.076 E45.53425
G1 X130.892 Y3.072 E45.54077
G1 X141.234 Y2.95 E46.31477
G1 X141.32 Y2.952 E46.32121
G1 X151.824 Y3.431 E47.1081
G1 X151.908 Y3.437 E47.1144
G1 X162.594 Y4.529 E47.91825
G1 X162.676 Y4.539 E47.92443
G1 X173.561 Y6.256 E48.74909
G1 X173.613 Y6.265 E48.75304
G1 X177.153 Y6.952 E49.0229
G1 X177.247 Y6.974 E49.03012
G1 X180.788 Y7.902 E49.30406
G1 X181.023 Y7.985 E49.32271
G1 X184.08 Y9.36 E49.57356
G1 X184.294 Y9.478 E49.59185
G1 X186.938 Y11.232 E49.82929
G1 X187.114 Y11.368 E49.84594
G1 X189.594 Y13.605 E50.09588
G1 X189.726 Y13.741 E50.11006
G1 X192.201 Y16.617 E50.39401
G1 X192.293 Y16.736 E50.40527
G1 X195.666 Y21.562 E50.84589
G1 X195.692 Y21.6 E50.84934
G1 X199.37 Y27.22 E51.35197
G1 X202.589 Y31.6 E51.75875
G1 X205.362 Y34.707 E52.0704
G1 X207.903 Y36.938 E52.32345
G1 X209.996 Y38.293 E52.51004
G1 X211.596 Y39.008 E52.64119
G1 X212.967 Y39.382 E52.74754
G1 X214.207 Y39.519 E52.8409
G1 X215.461 Y39.453 E52.93487
G1 X216.745 Y39.165 E53.03335
G1 X218.058 Y38.637 E53.13925
G1 X219.504 Y37.773 E53.26531
G1 X221.019 Y36.56 E53.41055
G1 X221.312 Y36.376 E53.43644
G1 X221.639 Y36.265 E53.46228
G1 X221.983 Y36.231 E53.48815
G1 X222.326 Y36.277 E53.51405
G1 X222.649 Y36.401 E53.53994
G1 X222.935 Y36.595 E53.5658
G1 X223.169 Y36.849 E53.59165
G1 X223.339 Y37.151 E53.61758
G1 X223.435 Y37.483 E53.64345
G1 X223.454 Y37.803 E53.66744
G1 X223.317 Y40.654 E53.88104
G1 X223.285 Y40.898 E53.89945
G1 X222.837 Y42.978 E54.05868
G1 X222.77 Y43.204 E54.07632
G1 X222.078 Y44.99 E54.21966
G1 X221.97 Y45.211 E54.23807
G1 X220.956 Y46.927 E54.38723
G1 X220.811 Y47.132 E54.40602
G1 X219.511 Y48.67 E54.55672
G1 X219.343 Y48.839 E54.57456
G1 X217.732 Y50.224 E54.73355
G1 X217.551 Y50.358 E54.7504
G1 X215.465 Y51.667 E54.9347
G1 X215.258 Y51.775 E54.95217
G1 X211.879 Y53.22 E55.22719
G1 X211.706 Y53.282 E55.24094
G1 X209.958 Y53.787 E55.3771
G1 X209.483 Y56.704 E55.59827
G1 X209.425 Y56.937 E55.61624
G1 X208.295 Y60.33 E55.88387
G1 X208.195 Y60.563 E55.90284
G1 X206.608 Y63.53 E56.15465
G1 X206.47 Y63.743 E56.17364
G1 X204.55 Y66.216 E56.40794
G1 X204.383 Y66.397 E56.42637
G1 X202.014 Y68.588 E56.66785
G1 X201.829 Y68.734 E56.68549
G1 X199.09 Y70.564 E56.932
G1 X198.895 Y70.674 E56.94875
G1 X195.586 Y72.23 E57.2224
G1 X195.388 Y72.307 E57.23829
G1 X191.628 Y73.461 E57.53263
G1 X191.434 Y73.507 E57.54755
G1 X187.023 Y74.239 E57.88216
G1 X186.838 Y74.258 E57.89608
G1 X182.238 Y74.446 E58.24061
G1 X182.065 Y74.443 E58.25356
G1 X177.189 Y74.079 E58.61947
G1 X177.02 Y74.057 E58.63223
G1 X172.049 Y73.11 E59.01092
G1 X171.88 Y73.067 E59.02397
G1 X167.057 Y71.55 E59.40234
G1 X166.881 Y71.482 E59.41646
G1 X162.475 Y69.459 E59.77927
G1 X162.294 Y69.36 E59.79471
G1 X159.033 Y67.278 E60.08425
G1 X25.902 Y67.278 E70.04715
G1 X25.76 Y67.271 E70.05779
G1 X3.547 Y65.157 E71.72761
G1 X3.209 Y65.085 E71.75348
G1 X2.896 Y64.937 E71.77939
G1 X2.625 Y64.722 E71.80527
G1 X2.411 Y64.45 E71.83117
G1 X2.265 Y64.137 E71.85702
G1 X2.195 Y63.798 E71.88292
G1 X2.204 Y63.452 E71.90883
G1 X2.292 Y63.118 E71.93467
G1 X2.454 Y62.812 E71.96058
G1 X2.674 Y62.559 E71.98568
G1 X12.216 Y53.791 E72.95544
G1 X12.27 Y53.744 E72.9608
G1 X21.92 Y45.699 E73.901
G1 X21.98 Y45.652 E73.90671
G1 X31.624 Y38.404 E74.80952
G0 F4800 X31.984 Y38.884
G1 F1080 X32.023 Y38.856 E74.81311
G1 X41.671 Y32.366 E75.68328
G1 X41.712 Y32.34 E75.68691
G1 X51.369 Y26.579 E76.52842
G1 X51.413 Y26.555 E76.53217
G1 X61.092 Y21.488 E77.34975
G1 X61.138 Y21.465 E77.3536
G1 X70.846 Y17.069 E78.15112
G1 X70.894 Y17.049 E78.15501
G1 X80.647 Y13.298 E78.937
G1 X80.697 Y13.28 E78.94097
G1 X90.508 Y10.158 E79.71146
G1 X90.559 Y10.144 E79.71542
G1 X100.44 Y7.634 E80.47835
G1 X100.493 Y7.622 E80.48242
G1 X110.465 Y5.716 E81.24218
G1 X110.518 Y5.708 E81.24619
G1 X120.595 Y4.397 E82.00667
G1 X120.648 Y4.391 E82.01066
G1 X130.847 Y3.674 E82.77579
G1 X130.899 Y3.672 E82.77968
G1 X141.241 Y3.55 E83.55368
G1 X141.293 Y3.551 E83.55757
G1 X151.797 Y4.03 E84.34446
G1 X151.847 Y4.034 E84.34821
G1 X162.533 Y5.126 E85.15207
G1 X162.582 Y5.132 E85.15576
G1 X173.467 Y6.849 E85.98042
G1 X173.498 Y6.854 E85.98277
G1 X177.038 Y7.541 E86.25263
G1 X177.095 Y7.554 E86.257
G1 X180.636 Y8.482 E86.53094
G1 X180.777 Y8.532 E86.54214
G1 X183.834 Y9.907 E86.79299
G1 X183.963 Y9.978 E86.804
G1 X186.607 Y11.732 E87.04145
G1 X186.712 Y11.814 E87.05142
G1 X189.192 Y14.051 E87.30136
G1 X189.271 Y14.132 E87.30982
G1 X191.746 Y17.008 E87.59377
G1 X191.802 Y17.079 E87.60054
G1 X195.175 Y21.905 E88.04117
G1 X195.19 Y21.928 E88.04322
G1 X198.883 Y27.571 E88.54791
G1 X202.124 Y31.982 E88.95753
G1 X204.936 Y35.132 E89.27353
G1 X207.54 Y37.418 E89.53284
G1 X209.704 Y38.819 E89.72576
G1 X211.399 Y39.577 E89.86471
G1 X212.852 Y39.972 E89.97739
G1 X214.191 Y40.12 E90.07821
G1 X215.547 Y40.049 E90.17982
G1 X216.921 Y39.741 E90.2852
G1 X218.326 Y39.176 E90.39852
G1 X219.844 Y38.269 E90.53086
G1 X221.394 Y37.028 E90.67945
G1 X221.625 Y36.894 E90.69943
G1 X221.886 Y36.834 E90.71948
G1 X222.153 Y36.853 E90.73951
G1 X222.402 Y36.949 E90.75948
G1 X222.612 Y37.115 E90.77951
G1 X222.764 Y37.335 E90.79952
G1 X222.845 Y37.59 E90.81954
G1 X222.855 Y37.774 E90.83333
G1 X222.718 Y40.625 E91.04694
G1 X222.699 Y40.772 E91.05803
G1 X222.251 Y42.852 E91.21725
G1 X222.21 Y42.987 E91.22781
G1 X221.518 Y44.773 E91.37115
G1 X221.454 Y44.906 E91.3822
G1 X220.44 Y46.622 E91.53136
G1 X220.352 Y46.745 E91.54268
G1 X219.052 Y48.283 E91.69338
G1 X218.952 Y48.384 E91.70402
G1 X217.341 Y49.769 E91.86301
G1 X217.232 Y49.849 E91.87312
G1 X215.146 Y51.158 E92.05742
G1 X215.022 Y51.224 E92.06793
G1 X211.643 Y52.669 E92.34295
G1 X211.539 Y52.706 E92.35121
G1 X209.426 Y53.317 E92.51582
G1 X208.89 Y56.608 E92.76535
G1 X208.856 Y56.747 E92.77606
G1 X207.726 Y60.14 E93.04368
G1 X207.666 Y60.28 E93.05508
G1 X206.079 Y63.247 E93.30688
G1 X205.996 Y63.375 E93.3183
G1 X204.076 Y65.848 E93.5526
G1 X203.976 Y65.957 E93.56367
G1 X201.607 Y68.148 E93.80515
G1 X201.496 Y68.235 E93.81571
G1 X198.757 Y70.065 E94.06222
G1 X198.64 Y70.131 E94.07227
G1 X195.331 Y71.687 E94.34591
G1 X195.212 Y71.733 E94.35546
G1 X191.452 Y72.887 E94.6498
G1 X191.335 Y72.915 E94.6588
G1 X186.924 Y73.647 E94.99341
G1 X186.814 Y73.658 E95.00169
G1 X182.214 Y73.846 E95.34622
G1 X182.11 Y73.845 E95.354
G1 X177.234 Y73.481 E95.71991
G1 X177.133 Y73.467 E95.72754
G1 X172.162 Y72.52 E96.10624
G1 X172.06 Y72.495 E96.1141
G1 X167.237 Y70.978 E96.49246
G1 X167.131 Y70.937 E96.50097
G1 X162.725 Y68.914 E96.86379
G1 X162.617 Y68.855 E96.87299
G1 X159.207 Y66.678 E97.17575
G1 X25.902 Y66.678 E107.15167
G1 X25.817 Y66.674 E107.15804
G1 X3.604 Y64.56 E108.82787
G1 X3.344 Y64.495 E108.84793
G1 X3.115 Y64.357 E108.86793
G1 X2.937 Y64.158 E108.88791
G1 X2.825 Y63.915 E108.90794
G1 X2.789 Y63.649 E108.92803
G1 X2.833 Y63.386 E108.94798
G1 X2.953 Y63.146 E108.96806
G1 X3.08 Y63.001 E108.98249
G1 X12.622 Y54.233 E109.95225
G1 X12.655 Y54.205 E109.95549
G1 X22.305 Y46.16 E110.89569
G1 X22.34 Y46.132 E110.89905
G1 X31.984 Y38.884 E111.80186
G0 F4800 X32.345 Y39.363
G1 F1080 X32.358 Y39.354 E111.80305
G1 X42.006 Y32.864 E112.67321
G1 X42.019 Y32.855 E112.67439
G1 X51.676 Y27.094 E113.51591
G1 X51.691 Y27.086 E113.51718
G1 X61.37 Y22.019 E114.33476
G1 X61.385 Y22.012 E114.336
G1 X71.093 Y17.616 E115.13351
G1 X71.109 Y17.609 E115.13482
G1 X80.862 Y13.858 E115.91681
G1 X80.879 Y13.852 E115.91816
G1 X90.69 Y10.73 E116.68864
G1 X90.707 Y10.725 E116.68997
G1 X100.588 Y8.215 E117.4529
G1 X100.606 Y8.211 E117.45428
G1 X110.578 Y6.305 E118.21405
G1 X110.595 Y6.303 E118.21533
G1 X120.672 Y4.992 E118.9758
G1 X120.69 Y4.99 E118.97715
G1 X130.889 Y4.273 E119.74228
G1 X130.906 Y4.272 E119.74356
G1 X141.248 Y4.15 E120.51756
G1 X141.266 Y4.15 E120.51891
G1 X151.77 Y4.629 E121.30579
G1 X151.786 Y4.631 E121.307
G1 X162.472 Y5.723 E122.11085
G1 X162.489 Y5.725 E122.11213
G1 X173.374 Y7.442 E122.93679
G1 X173.384 Y7.443 E122.93754
G1 X176.924 Y8.13 E123.2074
G1 X176.943 Y8.135 E123.20887
G1 X180.484 Y9.063 E123.48281
G1 X180.531 Y9.079 E123.48653
G1 X183.588 Y10.454 E123.73737
G1 X183.631 Y10.478 E123.74106
G1 X186.275 Y12.232 E123.9785
G1 X186.31 Y12.259 E123.98181
G1 X188.79 Y14.496 E124.23175
G1 X188.816 Y14.523 E124.23456
G1 X191.291 Y17.399 E124.51851
G1 X191.31 Y17.423 E124.5208
G1 X194.683 Y22.249 E124.96142
G1 X194.688 Y22.257 E124.96213
G1 X198.383 Y27.903 E125.46709
G1 X201.656 Y32.358 E125.88078
G1 X204.519 Y35.564 E126.20244
G1 X207.173 Y37.894 E126.46674
G1 X209.422 Y39.35 E126.66723
G1 X211.194 Y40.143 E126.81251
G1 X212.744 Y40.564 E126.93271
G1 X214.169 Y40.722 E127.04001
G1 X215.627 Y40.645 E127.14927
G1 X217.104 Y40.314 E127.26254
G1 X218.592 Y39.716 E127.38255
G1 X220.19 Y38.761 E127.52187
G1 X221.769 Y37.497 E127.67323
G1 X221.909 Y37.435 E127.68469
G1 X222.062 Y37.45 E127.69619
G1 X222.187 Y37.539 E127.70767
G1 X222.256 Y37.745 E127.72393
G1 X222.119 Y40.596 E127.93753
G1 X222.112 Y40.645 E127.94124
G1 X221.664 Y42.725 E128.10047
G1 X221.651 Y42.77 E128.10397
G1 X220.959 Y44.556 E128.24731
G1 X220.937 Y44.601 E128.25106
G1 X219.923 Y46.317 E128.40022
G1 X219.894 Y46.358 E128.40398
G1 X218.594 Y47.896 E128.55468
G1 X218.561 Y47.929 E128.55817
G1 X216.95 Y49.314 E128.71716
G1 X216.913 Y49.341 E128.72059
G1 X214.827 Y50.65 E128.90489
G1 X214.786 Y50.672 E128.90837
G1 X211.407 Y52.117 E129.18339
G1 X211.372 Y52.129 E129.18616
G1 X208.895 Y52.845 E129.37911
G1 X208.298 Y56.511 E129.65707
G1 X208.287 Y56.558 E129.66069
G1 X207.157 Y59.951 E129.92831
G1 X207.137 Y59.997 E129.93207
G1 X205.55 Y62.964 E130.18387
G1 X205.522 Y63.007 E130.18771
G1 X203.602 Y65.48 E130.42201
G1 X203.569 Y65.516 E130.42566
G1 X201.2 Y67.707 E130.66715
G1 X201.163 Y67.736 E130.67066
G1 X198.424 Y69.566 E130.91718
G1 X198.385 Y69.588 E130.92053
G1 X195.076 Y71.144 E131.19417
G1 X195.036 Y71.16 E131.19739
G1 X191.276 Y72.314 E131.49173
G1 X191.237 Y72.323 E131.49472
G1 X186.826 Y73.055 E131.82934
G1 X186.789 Y73.059 E131.83212
G1 X182.189 Y73.247 E132.17665
G1 X182.155 Y73.246 E132.1792
G1 X177.279 Y72.882 E132.54511
G1 X177.245 Y72.878 E132.54767
G1 X172.274 Y71.931 E132.92637
G1 X172.24 Y71.922 E132.929
G1 X167.417 Y70.405 E133.30736
G1 X167.382 Y70.392 E133.31016
G1 X162.976 Y68.369 E133.67298
G1 X162.94 Y68.349 E133.67606
G1 X159.383 Y66.078 E133.99188
G1 X25.902 Y66.078 E143.98097
G1 X25.874 Y66.077 E143.98306
G1 X3.661 Y63.963 E145.65289
G1 X3.516 Y63.909 E145.66447
G1 X3.418 Y63.792 E145.67589
G1 X3.39 Y63.641 E145.68738
G1 X3.486 Y63.443 E145.70385
G1 X13.028 Y54.675 E146.67362
G1 X13.039 Y54.666 E146.67468
G1 X22.689 Y46.621 E147.61489
G1 X22.701 Y46.611 E147.61605
G1 X32.345 Y39.363 E148.51887
;MESH:Part1.STL
G0 F4800 X32.706 Y39.842
;TYPE:WALL-OUTER
G1 F1080 X42.327 Y33.371 E149.38656
G1 X51.985 Y27.609 E150.22818
