;FLAVOR:Marlin
;TIME:3083
;Filament used: 9.63708m, 0m
;Layer height: 0.45
;Generated with Cura_SteamEngine master
T0
M140 S70
M105
M190 S70
M104 S220
M105
M109 S220
M82 ;absolute extrusion mode
;Sliced at: Fri 01-04-2022 19:05:52
G21 ;metric values
M107
G28
M420 S1
G90 ;absolute positioning
G92 E0; reset extruder distance
G1 X0 Y0 Z5 F5000 ;move nozzle up 5mm for safe homing
G29;ABL
M500
M82 ;set extruder to absolute mode
M107 ;start with the fan off
G1 X0 Y0 Z15.0 F5000 ;move the platform down 15mm
G92 E0 ;zero the extruded length
G1 F200 E3 ;extrude 3mm of feed stock
G1 F200 E0 ;Retract
G4 S2 ;Wait for material to fall
G1 F200 E3
G92 E0 ;zero the extruded length again
M117 Printing...
G92 E0
G1 F2400 E-1
;LAYER_COUNT:5
;LAYER:-5
M107
M204 S800
M205 X10 Y10
G0 F7200 X9.915 Y21.156 Z0.36
;TYPE:SUPPORT-INTERFACE
G1 F2400 E0
G1 F1350 X10.684 Y20.802 E0.15205
G1 X10.856 Y20.73 E0.18554
G1 X11.815 Y20.374 E0.36926
G1 X12.677 Y20.12 E0.53066
G1 X12.88 Y20.069 E0.56826
G1 X13.703 Y19.89 E0.71953
G1 X13.878 Y19.858 E0.75148
G1 X14.742 Y19.737 E0.90817
G1 X14.931 Y19.718 E0.94229
G1 X16.404 Y19.645 E1.20717
G1 X96.324 Y19.646 E15.56118
G1 X97.444 Y19.69 E15.76249
G1 X98.509 Y19.814 E15.95506
G1 X99.53 Y20.009 E16.14175
G1 X100.387 Y20.233 E16.30085
G1 X100.573 Y20.289 E16.33573
G1 X101.394 Y20.569 E16.49153
G1 X101.566 Y20.635 E16.52462
G1 X102.344 Y20.965 E16.6764
G1 X102.526 Y21.05 E16.71248
G1 X103.299 Y21.448 E16.86863
G1 X104.203 Y21.992 E17.05813
G1 X104.359 Y22.096 E17.0918
G1 X105.051 Y22.591 E17.24461
G1 X105.189 Y22.697 E17.27587
G1 X105.991 Y23.371 E17.46402
G1 X106.629 Y23.986 E17.62318
G1 X106.749 Y24.111 E17.6543
G1 X107.348 Y24.777 E17.81518
G1 X107.993 Y25.606 E18.00383
G1 X108.587 Y26.493 E18.19556
G1 X109.157 Y27.508 E18.40464
G1 X109.554 Y28.353 E18.57232
G1 X109.923 Y29.307 E18.75604
G1 X109.984 Y29.485 E18.78983
G1 X110.271 Y30.456 E18.97168
G1 X110.496 Y31.483 E19.16051
G1 X110.646 Y32.529 E19.3503
G1 X110.713 Y33.423 E19.51132
G1 X110.719 Y33.593 E19.54187
G1 X110.719 Y34.465 E19.69849
G1 X110.712 Y34.658 E19.73317
G1 X110.65 Y35.524 E19.88911
G1 X110.499 Y36.588 E20.08212
G1 X110.284 Y37.58 E20.26443
G1 X110.234 Y37.768 E20.29937
G1 X109.788 Y39.165 E20.56275
G1 X79.82 Y119.081 E35.89204
G1 X79.378 Y120.129 E36.09632
G1 X78.968 Y120.94 E36.25954
G1 X78.443 Y121.822 E36.44389
G1 X78.339 Y121.982 E36.47816
G1 X77.719 Y122.851 E36.66989
G1 X77.179 Y123.507 E36.8225
G1 X77.061 Y123.641 E36.85456
G1 X76.334 Y124.397 E37.04294
G1 X75.556 Y125.097 E37.23091
G1 X74.74 Y125.73 E37.41639
G1 X73.979 Y126.242 E37.58113
G1 X73.856 Y126.318 E37.60709
G1 X73.065 Y126.769 E37.77063
G1 X72.926 Y126.842 E37.79883
G1 X72.117 Y127.228 E37.95982
G1 X71.981 Y127.287 E37.98645
G1 X71.149 Y127.611 E38.14681
G1 X70.982 Y127.669 E38.17856
G1 X70.14 Y127.929 E38.33683
G1 X70.003 Y127.966 E38.36232
G1 X69.133 Y128.165 E38.52261
G1 X68.947 Y128.201 E38.55664
G1 X68.09 Y128.334 E38.7124
G1 X67.922 Y128.353 E38.74277
G1 X66.883 Y128.433 E38.92993
G1 X66.275 Y128.445 E39.03915
G1 X46.334 Y128.444 E42.62065
G1 X45.214 Y128.4 E42.82196
G1 X44.149 Y128.276 E43.01453
G1 X43.128 Y128.081 E43.20122
G1 X42.271 Y127.857 E43.36032
G1 X42.085 Y127.801 E43.3952
G1 X41.264 Y127.521 E43.551
G1 X41.092 Y127.455 E43.58409
G1 X40.314 Y127.125 E43.73587
G1 X40.132 Y127.04 E43.77195
G1 X39.359 Y126.642 E43.9281
G1 X38.455 Y126.098 E44.1176
G1 X38.299 Y125.994 E44.15127
G1 X37.601 Y125.495 E44.30538
G1 X37.469 Y125.393 E44.33534
G1 X36.667 Y124.719 E44.52349
G1 X36.029 Y124.104 E44.68265
G1 X35.909 Y123.979 E44.71377
G1 X35.31 Y123.313 E44.87465
G1 X34.665 Y122.484 E45.0633
G1 X34.071 Y121.597 E45.25504
G1 X33.568 Y120.71 E45.43818
G1 X33.497 Y120.573 E45.46589
G1 X33.051 Y119.614 E45.65585
G1 X32.83 Y119.059 E45.76314
G1 X2.846 Y39.101 E61.1005
G1 X2.534 Y38.166 E61.27754
G1 X2.49 Y38.017 E61.30544
G1 X2.276 Y37.173 E61.46182
G1 X2.238 Y36.996 E61.49434
G1 X2.082 Y36.116 E61.65485
G1 X2.06 Y35.957 E61.68368
G1 X1.968 Y35.069 E61.84403
G1 X1.959 Y34.925 E61.86994
G1 X1.932 Y34.024 E62.03184
G1 X1.933 Y33.849 E62.06327
G1 X1.983 Y32.833 E62.24597
G1 X2.087 Y31.94 E62.40744
G1 X2.115 Y31.757 E62.44069
G1 X2.28 Y30.898 E62.59779
G1 X2.547 Y29.883 E62.78629
G1 X2.889 Y28.886 E62.9756
G1 X3.294 Y27.934 E63.16141
G1 X3.37 Y27.775 E63.19306
G1 X3.85 Y26.865 E63.37785
G1 X4.331 Y26.086 E63.54228
G1 X4.425 Y25.947 E63.57242
G1 X4.943 Y25.233 E63.73085
G1 X5.719 Y24.313 E63.94702
G1 X6.337 Y23.68 E64.1059
G1 X6.451 Y23.571 E64.13423
G1 X7.111 Y22.987 E64.29251
G1 X7.272 Y22.854 E64.33002
G1 X7.945 Y22.341 E64.48201
G1 X8.117 Y22.22 E64.51978
G1 X8.834 Y21.752 E64.67356
G1 X8.966 Y21.673 E64.70119
G1 X9.735 Y21.248 E64.85899
G1 X9.915 Y21.156 E64.8953
G0 F7200 X9.6 Y21.322
G1 F1350 X9.6 Y57.111 E71.32317
G0 F7200 X12 Y63.511
G1 F1350 X12 Y20.319 E79.08066
G0 F7200 X14.4 Y19.784
G1 F1350 X14.4 Y69.911 E88.08371
G0 F7200 X16.8 Y76.311
G1 F1350 X16.8 Y19.646 E98.26101
G0 F7200 X19.2 Y19.646
G1 F1350 X19.2 Y82.712 E109.58796
G0 F7200 X21.6 Y89.112
G1 F1350 X21.6 Y19.646 E122.06438
G0 F7200 X24 Y19.646
G1 F1350 X24 Y95.512 E135.69028
G0 F7200 X26.4 Y101.912
G1 F1350 X26.4 Y19.646 E150.46564
G0 F7200 X28.8 Y19.646
G1 F1350 X28.8 Y108.312 E166.39047
G0 F7200 X31.2 Y114.712
G1 F1350 X31.2 Y19.646 E183.46477
G0 F7200 X33.6 Y19.646
G1 F1350 X33.6 Y120.766 E201.62641
G0 F7200 X36 Y124.073
G1 F1350 X36 Y19.646 E220.38199
G0 F7200 X38.4 Y19.646
G1 F1350 X38.4 Y126.061 E239.49463
G0 F7200 X40.8 Y127.331
G1 F1350 X40.8 Y19.646 E258.83536
G0 F7200 X43.2 Y19.646
G1 F1350 X43.2 Y128.094 E278.31313
G0 F7200 X45.6 Y128.415
G1 F1350 X45.6 Y19.646 E297.84856
G0 F7200 X48 Y19.646
G1 F1350 X48 Y128.444 E317.3892
G0 F7200 X50.4 Y128.444
G1 F1350 X50.4 Y19.646 E336.92983
G0 F7200 X52.8 Y19.646
G1 F1350 X52.8 Y128.444 E356.47047
G0 F7200 X55.2 Y128.444
G1 F1350 X55.2 Y19.646 E376.0111
G0 F7200 X57.6 Y19.646
G1 F1350 X57.6 Y128.444 E395.55174
G0 F7200 X60 Y128.444
G1 F1350 X60 Y19.646 E415.09237
G0 F7200 X62.4 Y19.646
G1 F1350 X62.4 Y128.444 E434.63301
G0 F7200 X64.8 Y128.444
G1 F1350 X64.8 Y19.646 E454.17364
G0 F7200 X67.2 Y19.646
G1 F1350 X67.2 Y128.409 E473.70799
G0 F7200 X69.6 Y128.059
G1 F1350 X69.6 Y19.646 E493.17948
G0 F7200 X72 Y19.646
G1 F1350 X72 Y127.279 E512.51088
G0 F7200 X74.4 Y125.959
G1 F1350 X74.4 Y19.646 E531.60519
G0 F7200 X76.8 Y19.646
G1 F1350 X76.8 Y123.913 E550.33204
G0 F7200 X79.2 Y120.482
G1 F1350 X79.2 Y19.646 E568.44266
G0 F7200 X81.6 Y19.646
G1 F1350 X81.6 Y114.335 E585.44925
G0 F7200 X84 Y107.935
G1 F1350 X84 Y19.646 E601.30638
G0 F7200 X86.4 Y19.646
G1 F1350 X86.4 Y101.535 E616.01403
G0 F7200 X88.8 Y95.134
G1 F1350 X88.8 Y19.646 E629.57203
G0 F7200 X91.2 Y19.646
G1 F1350 X91.2 Y88.734 E641.98056
G0 F7200 X93.6 Y82.334
G1 F1350 X93.6 Y19.646 E653.23962
G0 F7200 X96 Y19.646
G1 F1350 X96 Y75.934 E663.34921
G0 F7200 X98.4 Y69.534
G1 F1350 X98.4 Y19.802 E672.28132
G0 F7200 X100.8 Y20.367
G1 F1350 X100.8 Y63.134 E679.96247
G0 F7200 X103.2 Y56.734
M104 S210
G1 F1350 X103.2 Y21.398 E686.30898
G0 F7200 X105.6 Y23.043
G1 F1350 X105.6 Y50.334 E691.21058
G0 F7200 X108 Y43.934
G1 F1350 X108 Y25.617 E694.5004
G0 F7200 X110.4 Y31.045
G1 F1350 X110.4 Y37.045 E695.57803
G1 F2400 E694.57803
G0 F7200 X113.821 Y38.44
G0 X114.242 Y36.15
G0 X114.358 Y34.541
G0 X114.271 Y32.207
G0 X114.041 Y30.637
G0 X113.447 Y28.36
G0 X112.875 Y26.864
G0 X111.796 Y24.766
G0 X110.911 Y23.43
G0 X109.409 Y21.626
G0 X108.265 Y20.522
G0 X106.417 Y19.094
G0 X105.035 Y18.249
G0 X103.832 Y17.643
G0 X101.675 Y16.819
G0 X100.121 Y16.411
G0 X97.779 Y16.066
G0 X96.347 Y16.006
G0 X16.149 Y16.011
G0 X14.311 Y16.122
G0 X12.039 Y16.528
G0 X10.484 Y16.982
G0 X8.325 Y17.882
G0 X6.914 Y18.66
G0 X5 Y20.01
G0 X3.786 Y21.084
G0 X2.214 Y22.815
G0 X1.265 Y24.124
G0 X0.119 Y26.139
G0 X-.528 Y27.63
G0 X-1.211 Y29.846
G0 X-1.522 Y31.467
G0 X-1.706 Y33.773
G0 X-1.658 Y35.387
G0 X-1.516 Y36.677
G0 X-1.016 Y38.993
G0 X-.771 Y39.749
G0 X3.792 Y51.989
G0 X7.2 Y50.711
G1 F2400 E695.57803
G1 F1350 X7.2 Y22.913 E700.57068
G0 F7200 X4.8 Y25.43
G1 F1350 X4.8 Y44.311 E703.96179
G0 F7200 X2.4 Y37.662
G1 F1350 X2.4 Y30.441 E705.25872
G1 F2400 E704.25872
G0 F7200 X-.955 Y28.89
G0 X-.414 Y27.343
G0 X0.582 Y25.25
G0 X1.435 Y23.872
G0 X2.869 Y22.038
G0 X3.996 Y20.883
G0 X5.783 Y19.413
G0 X7.143 Y18.523
G0 X9.218 Y17.47
G0 X10.737 Y16.897
G0 X12.993 Y16.32
G0 X14.661 Y16.089
G0 X16.354 Y16.006
G0 X96.44 Y16.008
G0 X97.779 Y16.066
G0 X100.121 Y16.411
G0 X101.001 Y16.642
G0 X102.622 Y17.143
G0 X101.992 Y20.816
;TIME_ELAPSED:186.975703
;LAYER:-4
M140 S60
G0 X101.992 Y20.816 Z1.035
;TYPE:SUPPORT
G1 F2400 E705.25872
G1 F1350 X101.565 Y20.635 E705.4149
G1 X101.392 Y20.569 E705.47726
G1 X100.572 Y20.289 E705.76905
G1 X100.386 Y20.233 E705.83447
G1 X99.528 Y20.009 E706.13309
G1 X99.128 Y19.932 E706.27027
G1 X110.444 Y31.248 E711.6595
G1 X110.495 Y31.483 E711.74048
G1 X110.645 Y32.529 E712.09634
G1 X110.712 Y33.422 E712.39791
G1 X110.715 Y33.499 E712.42386
G1 X96.884 Y19.668 E719.01086
G1 X96.323 Y19.646 E719.19992
G1 X94.882 Y19.646 E719.68519
G1 X110.657 Y35.421 E727.19802
G1 X110.649 Y35.523 E727.23247
G1 X110.498 Y36.588 E727.59471
G1 X110.382 Y37.125 E727.77972
G1 X92.902 Y19.646 E736.10431
G1 X90.922 Y19.646 E736.7711
G1 X109.945 Y38.669 E745.83078
G1 X109.787 Y39.164 E746.00576
G1 X109.426 Y40.129 E746.35273
G1 X88.942 Y19.646 E756.10797
G1 X86.962 Y19.646 E756.77476
G1 X108.885 Y41.569 E767.21556
G1 X108.346 Y43.009 E767.73335
G1 X84.982 Y19.646 E778.8602
G1 X83.003 Y19.646 E779.52664
G1 X107.806 Y44.449 E791.33904
G1 X107.265 Y45.889 E791.85707
G1 X81.023 Y19.646 E804.35503
G1 X79.043 Y19.646 E805.02182
G1 X106.726 Y47.329 E818.20582
G1 X106.186 Y48.769 E818.72373
G1 X77.063 Y19.646 E832.59352
G1 X75.083 Y19.646 E833.26031
G1 X105.646 Y50.209 E847.8159
G1 X105.106 Y51.649 E848.33381
G1 X73.103 Y19.646 E863.57521
G1 X71.123 Y19.646 E864.24199
G1 X104.566 Y53.088 E880.16895
G1 X104.026 Y54.529 E880.68717
G1 X69.143 Y19.645 E897.3004
G1 X67.163 Y19.645 E897.96718
G1 X103.486 Y55.968 E915.26597
G1 X102.946 Y57.409 E915.7842
G1 X65.183 Y19.645 E933.76902
G1 X63.203 Y19.645 E934.43581
G1 X102.406 Y58.848 E953.1062
G1 X101.866 Y60.288 E953.6241
G1 X61.223 Y19.645 E972.98029
G1 X59.243 Y19.645 E973.64707
G1 X101.326 Y61.729 E993.6893
G1 X100.786 Y63.168 E994.20689
G1 X57.263 Y19.645 E1014.93467
G1 X55.283 Y19.645 E1015.60145
G1 X100.246 Y64.608 E1037.01504
G1 X99.707 Y66.048 E1037.53283
G1 X53.303 Y19.645 E1059.63245
G1 X51.323 Y19.645 E1060.29923
G1 X99.166 Y67.488 E1083.08441
G1 X98.627 Y68.928 E1083.6022
G1 X49.344 Y19.645 E1107.07317
G1 X47.364 Y19.645 E1107.73996
G1 X98.087 Y70.368 E1131.89673
G1 X97.546 Y71.808 E1132.41476
G1 X45.384 Y19.645 E1157.2571
G1 X43.404 Y19.645 E1157.92388
G1 X97.007 Y73.248 E1183.45225
G1 X96.467 Y74.688 E1183.97016
G1 X41.423 Y19.644 E1210.18481
G1 X39.443 Y19.644 E1210.85159
G1 X95.927 Y76.128 E1237.75204
G1 X95.387 Y77.568 E1238.26994
G1 X37.463 Y19.644 E1265.85619
G1 X35.484 Y19.644 E1266.52263
G1 X94.847 Y79.007 E1294.7942
G1 X94.307 Y80.448 E1295.31243
G1 X33.504 Y19.644 E1324.27003
G1 X31.524 Y19.644 E1324.93681
G1 X93.767 Y81.887 E1354.57998
G1 X93.227 Y83.327 E1355.09788
G1 X29.544 Y19.644 E1385.42685
G1 X27.564 Y19.644 E1386.09363
G1 X92.687 Y84.767 E1417.10839
G1 X92.147 Y86.207 E1417.6263
G1 X25.584 Y19.644 E1449.32686
G1 X23.604 Y19.644 E1449.99364
G1 X91.607 Y87.648 E1482.38024
G1 X91.067 Y89.087 E1482.89783
G1 X21.624 Y19.644 E1515.96999
G1 X19.644 Y19.644 E1516.63677
G1 X90.527 Y90.527 E1550.39472
G1 X89.987 Y91.967 E1550.91263
G1 X17.664 Y19.644 E1585.35638
G1 X16.404 Y19.644 E1585.7807
G1 X15.718 Y19.678 E1586.012
G1 X89.447 Y93.407 E1621.12536
G1 X88.908 Y94.847 E1621.64315
G1 X13.913 Y19.852 E1657.35944
G1 X13.877 Y19.856 E1657.37164
G1 X13.703 Y19.888 E1657.43122
G1 X12.879 Y20.068 E1657.71525
G1 X12.677 Y20.118 E1657.78533
G1 X12.308 Y20.228 E1657.915
G1 X88.367 Y96.287 E1694.13802
G1 X87.827 Y97.727 E1694.65592
G1 X10.837 Y20.737 E1731.32233
G1 X10.683 Y20.8 E1731.37836
G1 X9.915 Y21.155 E1731.66329
G1 X9.735 Y21.247 E1731.73136
G1 X9.499 Y21.378 E1731.82226
G1 X87.288 Y99.167 E1768.86919
G1 X86.747 Y100.607 E1769.38722
G1 X8.264 Y22.123 E1806.7649
G1 X8.116 Y22.219 E1806.82431
G1 X7.945 Y22.34 E1806.89486
G1 X7.271 Y22.853 E1807.1801
G1 X7.131 Y22.97 E1807.24154
G1 X86.208 Y102.047 E1844.90188
G1 X85.668 Y103.487 E1845.41979
G1 X6.1 Y23.92 E1883.31373
G1 X5.719 Y24.311 E1883.49757
G1 X5.166 Y24.965 E1883.78599
G1 X85.127 Y104.926 E1921.86734
G1 X84.588 Y106.367 E1922.38544
G1 X4.321 Y26.1 E1960.61252
G1 X3.849 Y26.864 E1960.91494
G1 X3.592 Y27.35 E1961.10008
G1 X84.048 Y107.806 E1999.41717
G1 X83.507 Y109.246 E1999.93519
G1 X2.965 Y28.704 E2038.29324
G1 X2.889 Y28.885 E2038.35935
G1 X2.546 Y29.882 E2038.71441
G1 X2.467 Y30.185 E2038.81986
G1 X82.968 Y110.686 E2077.15837
G1 X82.428 Y112.126 E2077.67628
G1 X2.107 Y31.805 E2115.92908
G1 X2.086 Y31.939 E2115.97475
G1 X1.982 Y32.832 E2116.27751
G1 X1.943 Y33.621 E2116.54354
G1 X81.888 Y113.567 E2154.6175
G1 X81.348 Y115.006 E2155.13509
G1 X2.032 Y35.691 E2192.90902
G1 X2.06 Y35.956 E2192.99875
G1 X2.082 Y36.115 E2193.05281
G1 X2.237 Y36.995 E2193.35372
G1 X2.276 Y37.171 E2193.41443
G1 X2.489 Y38.016 E2193.70789
G1 X2.534 Y38.165 E2193.7603
G1 X2.537 Y38.175 E2193.76382
G1 X80.808 Y116.446 E2231.0403
G1 X80.268 Y117.886 E2231.55821
G1 X3.663 Y41.281 E2268.04126
G1 X4.851 Y44.449 E2269.18066
G1 X79.72 Y119.318 E2304.83694
G1 X79.377 Y120.128 E2305.13317
G1 X79.1 Y120.678 E2305.34055
G1 X6.039 Y47.617 E2340.13577
G1 X7.227 Y50.785 E2341.27517
G1 X78.372 Y121.93 E2375.1579
G1 X78.338 Y121.981 E2375.17854
G1 X77.718 Y122.85 E2375.53804
G1 X77.535 Y123.073 E2375.63518
G1 X8.415 Y53.952 E2408.55375
G1 X9.603 Y57.12 E2409.69315
G1 X76.601 Y124.119 E2441.60111
G1 X76.334 Y124.396 E2441.73067
G1 X75.578 Y125.075 E2442.07287
G1 X10.791 Y60.288 E2472.92762
G1 X11.979 Y63.456 E2474.06701
G1 X74.447 Y125.925 E2503.81757
G1 X73.978 Y126.241 E2504.00802
G1 X73.855 Y126.317 E2504.05671
G1 X73.22 Y126.678 E2504.30269
G1 X13.167 Y66.624 E2532.90311
G1 X14.354 Y69.792 E2534.04239
G1 X71.885 Y127.323 E2561.44147
G1 X71.149 Y127.61 E2561.7075
G1 X70.982 Y127.668 E2561.76703
G1 X70.422 Y127.839 E2561.96421
G1 X15.542 Y72.959 E2588.10076
G1 X16.73 Y76.127 E2589.24016
G1 X68.821 Y128.218 E2614.04844
G1 X68.09 Y128.332 E2614.29759
G1 X67.921 Y128.352 E2614.3549
G1 X67.042 Y128.419 E2614.65176
G1 X17.918 Y79.295 E2638.04702
G1 X19.106 Y82.463 E2639.18642
G1 X65.086 Y128.443 E2661.08434
G1 X63.106 Y128.443 E2661.75113
G1 X20.293 Y85.63 E2682.14077
G1 X21.481 Y88.798 E2683.28017
G1 X61.126 Y128.443 E2702.16106
G1 X59.146 Y128.443 E2702.82784
G1 X22.669 Y91.966 E2720.19998
G1 X23.857 Y95.134 E2721.33938
G1 X57.166 Y128.443 E2737.20275
G1 X55.186 Y128.443 E2737.86954
G1 X25.045 Y98.301 E2752.22439
G1 X26.233 Y101.469 E2753.36379
G1 X53.206 Y128.443 E2766.20989
G1 X51.227 Y128.443 E2766.87634
G1 X27.421 Y104.637 E2778.21392
G1 X28.609 Y107.805 E2779.35332
G1 X49.247 Y128.443 E2789.18215
G1 X47.267 Y128.443 E2789.84893
G1 X29.797 Y110.973 E2798.169
G1 X30.985 Y114.141 E2799.3084
G1 X45.244 Y128.399 E2806.09899
G1 X45.213 Y128.399 E2806.10943
G1 X44.148 Y128.274 E2806.47054
G1 X43.128 Y128.08 E2806.82019
G1 X42.879 Y128.015 E2806.90686
G1 X32.173 Y117.309 E2812.00558
G1 X32.829 Y119.058 E2812.63464
G1 X33.05 Y119.613 E2812.83581
G1 X33.496 Y120.572 E2813.19198
G1 X33.54 Y120.655 E2813.22361
G1 X39.702 Y126.818 E2816.1585
G1 X39.358 Y126.641 E2816.28878
G1 X38.455 Y126.096 E2816.64396
G1 X38.299 Y125.992 E2816.7071
G1 X37.601 Y125.494 E2816.99585
G1 X37.468 Y125.391 E2817.0525
G1 X36.667 Y124.718 E2817.40482
G1 X36.029 Y124.103 E2817.70324
G1 X35.909 Y123.977 E2817.76184
G1 X35.31 Y123.312 E2818.06324
G1 X34.665 Y122.483 E2818.41696
G1 X34.07 Y121.596 E2818.77664
G1 X33.568 Y120.709 E2819.11987
G1 F2400 E2818.11987
G0 F7200 X30.233 Y122.184
G0 X31.004 Y123.557
G0 X32.374 Y125.472
G0 X33.445 Y126.668
G0 X35.199 Y128.239
G0 X36.511 Y129.176
G0 X38.535 Y130.311
G0 X40.036 Y130.947
G0 X42.282 Y131.621
G0 X43.857 Y131.91
G0 X45.142 Y132.043
G0 X66.3 Y132.085
