;FLAVOR:Marlin
;TIME:402
;Filament used: 0.863596m, 0m
;Layer height: 0.45
;Generated with Cura_SteamEngine master
T0
M140 S70
M105
M190 S70
M104 S220
M105
M109 S220
M82 ;absolute extrusion mode
;Sliced at: Fri 01-04-2022 10:43:49
G21 ;metric values
M107
G28
M420 S1
G90 ;absolute positioning
G92 E0; reset extruder distance
G1 X0 Y0 Z5 F5000 ;move nozzle up 5mm for safe homing
G29;ABL
M500
M82 ;set extruder to absolute mode
M107 ;start with the fan off
G1 X0 Y0 Z15.0 F5000 ;move the platform down 15mm
G92 E0 ;zero the extruded length
G1 F200 E3 ;extrude 3mm of feed stock
G1 F200 E0 ;Retract
G4 S2 ;Wait for material to fall
G1 F200 E3
G92 E0 ;zero the extruded length again
M117 Printing...
G92 E0
G1 F2400 E-1
;LAYER_COUNT:5
;LAYER:0
M107
M204 S800
M205 X10 Y10
G0 F4800 X4.743 Y11.541 Z0.3
;TYPE:SKIRT
G1 F2400 E0
G1 F1080 X5.134 Y11.42 E0.03063
G1 X5.559 Y11.376 E0.0626
G1 X73.559 Y11.376 E5.15141
G1 X73.966 Y11.416 E5.18201
G1 X74.498 Y11.598 E5.22409
G1 X81.459 Y15.079 E5.80652
G1 X81.459 Y13.476 E5.92648
G1 X81.499 Y13.069 E5.95709
G1 X81.617 Y12.677 E5.98772
G1 X81.809 Y12.315 E6.01839
G1 X82.068 Y11.998 E6.04902
G1 X82.383 Y11.736 E6.07968
G1 X82.743 Y11.541 E6.11032
G1 X83.134 Y11.42 E6.14095
G1 X83.559 Y11.376 E6.17293
G1 X85.559 Y11.376 E6.3226
G1 X85.966 Y11.416 E6.3532
G1 X86.358 Y11.534 E6.38384
G1 X86.72 Y11.726 E6.4145
G1 X87.037 Y11.985 E6.44514
G1 X87.299 Y12.3 E6.4758
G1 X87.494 Y12.66 E6.50644
G1 X87.615 Y13.051 E6.53707
G1 X87.659 Y13.476 E6.56904
G1 X87.659 Y31.476 E7.91608
G1 X87.619 Y31.883 E7.94668
G1 X87.501 Y32.275 E7.97732
G1 X87.309 Y32.637 E8.00798
G1 X87.05 Y32.954 E8.03862
G1 X86.735 Y33.216 E8.06928
G1 X86.375 Y33.411 E8.09992
G1 X85.984 Y33.532 E8.13055
G1 X85.577 Y33.576 E8.16118
G1 X85.222 Y33.549 E8.18782
G1 X5.222 Y20.549 E14.25318
G1 X4.826 Y20.444 E14.28384
G1 X4.458 Y20.265 E14.31446
G1 X4.132 Y20.017 E14.34512
G1 X3.861 Y19.711 E14.3757
G1 X3.653 Y19.358 E14.40637
G1 X3.518 Y18.971 E14.43704
G1 X3.459 Y18.476 E14.47434
G1 X3.459 Y13.476 E14.84852
G1 X3.499 Y13.069 E14.87913
G1 X3.617 Y12.677 E14.90976
G1 X3.809 Y12.315 E14.94043
G1 X4.068 Y11.998 E14.97106
G1 X4.383 Y11.736 E15.00172
G1 X4.743 Y11.541 E15.03236
G0 F4800 X4.954 Y12.104
G1 F1080 X5.284 Y12.001 E15.05823
G1 X5.559 Y11.976 E15.0789
G1 X73.559 Y11.976 E20.1677
G1 X73.903 Y12.016 E20.19361
G1 X74.23 Y12.134 E20.21963
G1 X82.059 Y16.049 E20.87469
G1 X82.059 Y13.476 E21.06724
G1 X82.099 Y13.132 E21.09315
G1 X82.216 Y12.807 E21.119
G1 X82.405 Y12.517 E21.14491
G1 X82.655 Y12.279 E21.17074
G1 X82.954 Y12.104 E21.19667
G1 X83.284 Y12.001 E21.22254
G1 X83.559 Y11.976 E21.2432
G1 X85.559 Y11.976 E21.39287
G1 X85.903 Y12.016 E21.41879
G1 X86.228 Y12.133 E21.44464
G1 X86.518 Y12.322 E21.47054
G1 X86.756 Y12.572 E21.49637
G1 X86.931 Y12.871 E21.5223
G1 X87.034 Y13.201 E21.54817
G1 X87.059 Y13.476 E21.56883
G1 X87.059 Y31.476 E22.91587
G1 X87.019 Y31.82 E22.94179
G1 X86.902 Y32.145 E22.96764
G1 X86.713 Y32.435 E22.99354
G1 X86.463 Y32.673 E23.01937
G1 X86.164 Y32.848 E23.0453
G1 X85.834 Y32.951 E23.07117
G1 X85.318 Y32.957 E23.10979
G1 X5.318 Y19.957 E29.17514
G1 X4.986 Y19.862 E29.20098
G1 X4.684 Y19.694 E29.22685
G1 X4.428 Y19.461 E29.25275
G1 X4.232 Y19.176 E29.27863
G1 X4.107 Y18.853 E29.30455
G1 X4.059 Y18.476 E29.33299
G1 X4.059 Y13.476 E29.70717
G1 X4.099 Y13.132 E29.73309
G1 X4.216 Y12.807 E29.75894
G1 X4.405 Y12.517 E29.78484
G1 X4.655 Y12.279 E29.81067
G1 X4.954 Y12.104 E29.8366
G0 F4800 X5.228 Y12.639
G1 F1080 X5.559 Y12.576 E29.86181
G1 X73.559 Y12.576 E34.95062
G1 X73.824 Y12.616 E34.97067
G1 X73.961 Y12.671 E34.98172
G1 X82.659 Y17.02 E35.70947
G1 X82.659 Y13.476 E35.97468
G1 X82.699 Y13.211 E35.99474
G1 X82.815 Y12.97 E36.01475
G1 X82.996 Y12.774 E36.03472
G1 X83.228 Y12.639 E36.05481
G1 X83.559 Y12.576 E36.08002
G1 X85.559 Y12.576 E36.22969
G1 X85.824 Y12.616 E36.24975
G1 X86.065 Y12.732 E36.26976
G1 X86.261 Y12.913 E36.28973
G1 X86.396 Y13.145 E36.30982
G1 X86.459 Y13.476 E36.33503
G1 X86.459 Y31.476 E37.68207
G1 X86.419 Y31.741 E37.70212
G1 X86.303 Y31.982 E37.72214
G1 X86.122 Y32.178 E37.74211
G1 X85.89 Y32.313 E37.76219
G1 X85.63 Y32.373 E37.78216
G1 X85.415 Y32.364 E37.79826
G1 X5.415 Y19.364 E43.86362
G1 X5.16 Y19.283 E43.88364
G1 X4.94 Y19.13 E43.9037
G1 X4.775 Y18.919 E43.92374
G1 X4.68 Y18.669 E43.94375
G1 X4.659 Y18.476 E43.95828
G1 X4.659 Y13.476 E44.33246
G1 X4.699 Y13.211 E44.35252
G1 X4.815 Y12.97 E44.37253
G1 X4.996 Y12.774 E44.3925
G1 X5.228 Y12.639 E44.41258
G0 F4800 X5.406 Y13.218
G1 F1080 X5.559 Y13.176 E44.42446
G1 X73.559 Y13.176 E49.51326
G1 X73.693 Y13.208 E49.52357
G1 X83.259 Y17.991 E50.32394
G1 X83.259 Y13.476 E50.66182
G1 X83.298 Y13.327 E50.67335
G1 X83.406 Y13.218 E50.68483
G1 X83.559 Y13.176 E50.6967
G1 X85.559 Y13.176 E50.84637
G1 X85.708 Y13.215 E50.8579
G1 X85.817 Y13.323 E50.86938
G1 X85.859 Y13.476 E50.88126
G1 X85.859 Y31.476 E52.22829
G1 X85.82 Y31.625 E52.23982
G1 X85.712 Y31.734 E52.2513
G1 X85.511 Y31.772 E52.26661
G1 X5.511 Y18.772 E58.33196
G1 X5.371 Y18.709 E58.34345
G1 X5.28 Y18.586 E58.3549
G1 X5.259 Y18.476 E58.36328
G1 X5.259 Y13.476 E58.73746
G1 X5.298 Y13.327 E58.74899
G1 X5.406 Y13.218 E58.76047
;MESH:Part5.STL
G0 F4800 X5.859 Y13.776
;TYPE:WALL-OUTER
G1 F1080 X73.489 Y13.776 E63.82158
G1 X83.859 Y18.961 E64.68922
G1 X83.859 Y13.776 E65.07724
G1 X85.259 Y13.776 E65.18201
G1 X85.259 Y31.123 E66.48018
G1 X5.859 Y18.221 E72.50004
G1 X5.859 Y13.776 E72.83268
G0 F4800 X6.159 Y13.776
G0 X6.519 Y14.436
G0 X6.459 Y14.376
;TYPE:WALL-INNER
G1 F1080 X73.347 Y14.376 E77.83826
G1 X84.459 Y19.932 E78.76799
G1 X84.459 Y14.376 E79.18377
G1 X84.659 Y14.376 E79.19874
G1 X84.659 Y30.418 E80.39925
G1 X6.459 Y17.711 E86.32813
G1 X6.459 Y14.376 E86.5777
G0 F4800 X7.049 Y14.966
;TYPE:SKIN
G1 F1080 X73.209 Y14.966 E91.5288
G1 X84.069 Y20.396 E92.43744
G1 X84.069 Y29.724 E93.13551
G1 X7.049 Y17.209 E98.97492
G1 X7.049 Y14.966 E99.14277
G0 F4800 X7.649 Y15.566
G1 F1080 X73.067 Y15.566 E104.03835
G1 X83.469 Y20.767 E104.90867
G1 X83.469 Y29.019 E105.52621
G1 X7.649 Y16.699 E111.27464
G1 X7.649 Y15.566 E111.35943
G0 F4800 X7.768 Y16.254
G1 F1080 X8.176 Y16.662 E111.40261
G0 F4800 X8.049 Y15.686
G1 F1080 X9.19 Y16.827 E111.52336
G0 F4800 X10.203 Y16.991
G1 F1080 X8.898 Y15.686 E111.66148
G0 F4800 X9.746 Y15.686
G1 F1080 X11.216 Y17.156 E111.81705
G0 F4800 X12.23 Y17.321
G1 F1080 X10.595 Y15.686 E111.99009
G0 F4800 X11.443 Y15.686
G1 F1080 X13.243 Y17.486 E112.18059
G0 F4800 X14.255 Y17.65
G1 F1080 X12.292 Y15.686 E112.38839
G0 F4800 X13.14 Y15.686
G1 F1080 X15.269 Y17.814 E112.61366
G0 F4800 X16.282 Y17.979
G1 F1080 X13.989 Y15.686 E112.85633
G0 F4800 X14.837 Y15.686
G1 F1080 X17.295 Y18.144 E113.11647
G0 F4800 X18.309 Y18.309
G1 F1080 X15.686 Y15.686 E113.39407
G0 F4800 X16.534 Y15.686
G1 F1080 X19.322 Y18.473 E113.68908
G0 F4800 X20.334 Y18.637
G1 F1080 X17.383 Y15.686 E114.00139
G0 F4800 X18.232 Y15.686
G1 F1080 X21.348 Y18.802 E114.33117
G0 F4800 X22.361 Y18.967
G1 F1080 X19.08 Y15.686 E114.67841
G0 F4800 X19.929 Y15.686
G1 F1080 X23.374 Y19.132 E115.04306
G0 F4800 X24.388 Y19.296
G1 F1080 X20.777 Y15.686 E115.42517
G0 F4800 X21.626 Y15.686
G1 F1080 X25.401 Y19.461 E115.82469
G0 F4800 X26.414 Y19.626
G1 F1080 X22.474 Y15.686 E116.24167
G0 F4800 X23.323 Y15.686
G1 F1080 X27.427 Y19.79 E116.67601
G0 F4800 X28.44 Y19.955
G1 F1080 X24.171 Y15.686 E117.12781
G0 F4800 X25.02 Y15.686
G1 F1080 X29.453 Y20.12 E117.59702
G0 F4800 X30.467 Y20.284
G1 F1080 X25.868 Y15.686 E118.08369
G0 F4800 X26.717 Y15.686
G1 F1080 X31.48 Y20.449 E118.58778
G0 F4800 X32.493 Y20.614
G1 F1080 X27.565 Y15.686 E119.10932
G0 F4800 X28.414 Y15.686
G1 F1080 X33.506 Y20.778 E119.64822
G0 F4800 X34.519 Y20.943
G1 F1080 X29.262 Y15.686 E120.20459
G0 F4800 X30.111 Y15.686
G1 F1080 X35.532 Y21.107 E120.77831
G0 F4800 X36.546 Y21.272
G1 F1080 X30.959 Y15.686 E121.36955
G0 F4800 X31.808 Y15.686
G1 F1080 X37.559 Y21.437 E121.97819
G0 F4800 X38.572 Y21.602
G1 F1080 X32.657 Y15.686 E122.60425
G0 F4800 X33.505 Y15.686
G1 F1080 X39.585 Y21.766 E123.24771
G0 F4800 X40.598 Y21.93
G1 F1080 X34.354 Y15.686 E123.90854
G0 F4800 X35.202 Y15.686
G1 F1080 X41.611 Y22.095 E124.58682
G0 F4800 X42.625 Y22.26
G1 F1080 X36.051 Y15.686 E125.28257
G0 F4800 X36.899 Y15.686
G1 F1080 X43.638 Y22.425 E125.99578
G0 F4800 X44.651 Y22.589
G1 F1080 X37.748 Y15.686 E126.72634
G0 F4800 X38.596 Y15.686
G1 F1080 X45.664 Y22.753 E127.47432
G0 F4800 X46.677 Y22.918
G1 F1080 X39.445 Y15.686 E128.2397
G0 F4800 X40.293 Y15.686
G1 F1080 X47.69 Y23.083 E129.02255
G0 F4800 X48.704 Y23.248
G1 F1080 X41.142 Y15.686 E129.82286
G0 F4800 X41.99 Y15.686
G1 F1080 X49.717 Y23.413 E130.64063
G0 F4800 X50.73 Y23.577
G1 F1080 X42.839 Y15.686 E131.47576
G0 F4800 X43.687 Y15.686
G1 F1080 X51.743 Y23.741 E132.3283
G0 F4800 X52.756 Y23.906
G1 F1080 X44.536 Y15.686 E133.19825
G0 F4800 X45.384 Y15.686
G1 F1080 X53.769 Y24.071 E134.08566
G0 F4800 X54.783 Y24.236
G1 F1080 X46.233 Y15.686 E134.99053
G0 F4800 X47.081 Y15.686
G1 F1080 X55.796 Y24.4 E135.91281
G0 F4800 X56.809 Y24.565
G1 F1080 X47.93 Y15.686 E136.85251
G0 F4800 X48.779 Y15.686
G1 F1080 X57.822 Y24.73 E137.80961
G0 F4800 X58.835 Y24.894
G1 F1080 X49.627 Y15.686 E138.78412
G0 F4800 X50.476 Y15.686
G1 F1080 X59.848 Y25.059 E139.77604
G0 F4800 X60.862 Y25.223
G1 F1080 X51.324 Y15.686 E140.78542
G0 F4800 X52.173 Y15.686
G1 F1080 X61.875 Y25.388 E141.81222
G0 F4800 X62.888 Y25.553
G1 F1080 X53.021 Y15.686 E142.85647
G0 F4800 X53.87 Y15.686
G1 F1080 X63.901 Y25.718 E143.91814
G0 F4800 X64.914 Y25.882
G1 F1080 X54.718 Y15.686 E144.99721
G0 F4800 X55.567 Y15.686
G1 F1080 X65.927 Y26.046 E146.09364
G0 F4800 X66.941 Y26.211
G1 F1080 X56.415 Y15.686 E147.20759
G0 F4800 X57.264 Y15.686
G1 F1080 X67.954 Y26.376 E148.33894
G0 F4800 X68.967 Y26.541
G1 F1080 X58.112 Y15.686 E149.48776
G0 F4800 X58.961 Y15.686
G1 F1080 X69.98 Y26.706 E150.65399
G0 F4800 X70.993 Y26.87
G1 F1080 X59.809 Y15.686 E151.83763
G0 F4800 X60.658 Y15.686
G1 F1080 X72.006 Y27.034 E153.03862
G0 F4800 X73.02 Y27.199
G1 F1080 X61.506 Y15.686 E154.25713
G0 F4800 X62.355 Y15.686
G1 F1080 X74.033 Y27.364 E155.49305
G0 F4800 X75.046 Y27.529
G1 F1080 X63.204 Y15.686 E156.74638
G0 F4800 X64.052 Y15.686
G1 F1080 X76.059 Y27.693 E158.01712
G0 F4800 X77.072 Y27.857
G1 F1080 X64.901 Y15.686 E159.30521
G0 F4800 X65.749 Y15.686
G1 F1080 X78.085 Y28.022 E160.61077
G0 F4800 X79.099 Y28.187
G1 F1080 X66.598 Y15.686 E161.93379
G0 F4800 X67.446 Y15.686
G1 F1080 X80.112 Y28.352 E163.27427
G0 F4800 X81.125 Y28.516
M104 S210
G1 F1080 X68.295 Y15.686 E164.63211
G0 F4800 X69.143 Y15.686
G1 F1080 X82.138 Y28.681 E166.00741
G0 F4800 X83.151 Y28.845
G1 F1080 X69.992 Y15.686 E167.40007
G0 F4800 X70.84 Y15.686
G1 F1080 X83.348 Y28.193 E168.72377
G0 F4800 X83.348 Y27.345
G1 F1080 X71.689 Y15.686 E169.95768
G0 F4800 X72.537 Y15.686
G1 F1080 X83.348 Y26.496 E171.10179
G0 F4800 X83.348 Y25.648
G1 F1080 X73.734 Y16.034 E172.11927
G1 X73.628 Y15.928
G0 F4800 X74.098 Y14.988
G0 X75.922 Y15.899
G0 X75.431 Y16.882
G1 F1080 X83.348 Y24.799 E172.95715
G0 F4800 X83.348 Y23.951
G1 F1080 X77.128 Y17.731 E173.61543
G1 X77.022 Y17.625
G0 F4800 X77.492 Y16.684
G0 X79.317 Y17.597
G0 X78.825 Y18.579
G1 F1080 X83.348 Y23.102 E174.09412
G0 F4800 X83.348 Y22.254
G1 F1080 X80.522 Y19.428 E174.3932
G1 X80.416 Y19.322
G0 F4800 X80.886 Y18.382
G0 X82.711 Y19.294
G0 X82.219 Y20.276
G1 F1080 X83.348 Y21.405 E174.51269
G1 X83.454 Y21.511
G0 F4800 X84.359 Y21.511
G1 F2400 E173.51269
;MESH:NONMESH
G0 F4800 X84.449 Y21.511
G0 X84.383 Y20.203
G0 X73.283 Y14.648
G0 X6.459 Y14.376
;TIME_ELAPSED:140.376685
;LAYER:1
M140 S60
M106 S255
;MESH:Part5.STL
G0 F6000 X6.459 Y14.376 Z0.75
;TYPE:WALL-INNER
G1 F2400 E174.51269
G1 F1470 X73.347 Y14.376 E182.02106
G1 X84.459 Y19.932 E183.41565
G1 X84.459 Y14.376 E184.03932
G1 X84.659 Y14.376 E184.06177
G1 X84.659 Y30.418 E185.86254
G1 X6.459 Y17.711 E194.75585
G1 X6.459 Y14.376 E195.13022
G0 F6000 X5.859 Y13.776
;TYPE:WALL-OUTER
G1 F1170 X73.489 Y13.776 E202.72188
G1 X83.859 Y18.961 E204.02335
G1 X83.859 Y13.776 E204.60538
G1 X85.259 Y13.776 E204.76253
G1 X85.259 Y31.123 E206.70978
G1 X5.859 Y18.221 E215.73957
G1 X5.859 Y13.776 E216.23854
G0 F6000 X6.159 Y13.776
G0 X6.519 Y14.436
G0 X7.049 Y14.966
;TYPE:SKIN
G1 F1440 X73.209 Y14.966 E223.66519
G1 X84.069 Y20.396 E225.02815
G1 X84.069 Y29.724 E226.07524
G1 X7.049 Y17.209 E234.83436
G1 X7.049 Y14.966 E235.08614
G0 F6000 X7.649 Y15.566
G1 F1440 X73.067 Y15.566 E242.42951
G1 X83.469 Y20.767 E243.73499
G1 X83.469 Y29.019 E244.6613
G1 X7.649 Y16.699 E253.28394
G1 X7.649 Y15.566 E253.41113
G0 F6000 X7.768 Y15.989
G1 F1440 X8.073 Y15.685 E253.45946
G0 F6000 X8.921 Y15.685
G1 F1440 X7.976 Y16.63 E253.60948
G0 F6000 X8.706 Y16.749
G1 F1440 X9.77 Y15.685 E253.77839
G0 F6000 X10.618 Y15.685
G1 F1440 X9.436 Y16.868 E253.96611
G0 F6000 X10.166 Y16.986
G1 F1440 X11.467 Y15.685 E254.17265
G0 F6000 X12.315 Y15.685
G1 F1440 X10.896 Y17.104 E254.39791
G0 F6000 X11.626 Y17.223
G1 F1440 X13.164 Y15.685 E254.64207
G0 F6000 X14.012 Y15.685
G1 F1440 X12.355 Y17.342 E254.90512
G0 F6000 X13.085 Y17.461
G1 F1440 X14.861 Y15.685 E255.18706
G0 F6000 X15.709 Y15.685
G1 F1440 X13.816 Y17.579 E255.48765
G0 F6000 X14.545 Y17.698
G1 F1440 X16.558 Y15.685 E255.80721
G0 F6000 X17.406 Y15.685
G1 F1440 X15.275 Y17.816 E256.14551
G0 F6000 X16.006 Y17.935
G1 F1440 X18.255 Y15.685 E256.50262
G0 F6000 X19.103 Y15.685
G1 F1440 X16.735 Y18.053 E256.87854
G0 F6000 X17.465 Y18.172
G1 F1440 X19.952 Y15.685 E257.27335
G0 F6000 X20.8 Y15.685
G1 F1440 X18.195 Y18.291 E257.68697
G0 F6000 X18.925 Y18.409
G1 F1440 X21.649 Y15.685 E258.1194
G0 F6000 X22.498 Y15.685
G1 F1440 X19.655 Y18.528 E258.57073
G0 F6000 X20.385 Y18.647
G1 F1440 X23.346 Y15.685 E259.04086
G0 F6000 X24.195 Y15.685
G1 F1440 X21.114 Y18.765 E259.52989
G0 F6000 X21.845 Y18.883
G1 F1440 X25.043 Y15.685 E260.03757
G0 F6000 X25.892 Y15.685
G1 F1440 X22.575 Y19.002 E260.56415
G0 F6000 X23.304 Y19.121
G1 F1440 X26.74 Y15.685 E261.10961
G0 F6000 X27.589 Y15.685
G1 F1440 X24.034 Y19.24 E261.67397
G0 F6000 X24.765 Y19.358
G1 F1440 X28.437 Y15.685 E262.25697
G0 F6000 X29.286 Y15.685
G1 F1440 X25.494 Y19.477 E262.85895
G0 F6000 X26.224 Y19.596
G1 F1440 X30.134 Y15.685 E263.47974
G0 F6000 X30.983 Y15.685
G1 F1440 X26.954 Y19.714 E264.11935
G0 F6000 X27.684 Y19.832
G1 F1440 X31.831 Y15.685 E264.77768
G0 F6000 X32.68 Y15.685
G1 F1440 X28.414 Y19.951 E265.45491
G0 F6000 X29.144 Y20.07
G1 F1440 X33.528 Y15.685 E266.15094
G0 F6000 X34.377 Y15.685
G1 F1440 X29.873 Y20.189 E266.86595
G0 F6000 X30.604 Y20.307
G1 F1440 X35.225 Y15.685 E267.59961
G0 F6000 X36.074 Y15.685
G1 F1440 X31.334 Y20.426 E268.35217
G0 F6000 X32.063 Y20.544
G1 F1440 X36.922 Y15.685 E269.12353
G0 F6000 X37.771 Y15.685
G1 F1440 X32.793 Y20.663 E269.91379
G0 F6000 X33.523 Y20.781
G1 F1440 X38.62 Y15.685 E270.72285
G0 F6000 X39.468 Y15.685
G1 F1440 X34.253 Y20.9 E271.55073
G0 F6000 X34.983 Y21.019
G1 F1440 X40.317 Y15.685 E272.3975
G0 F6000 X41.165 Y15.685
G1 F1440 X35.713 Y21.138 E273.26309
G0 F6000 X36.443 Y21.256
G1 F1440 X42.014 Y15.685 E274.14748
G0 F6000 X42.862 Y15.685
G1 F1440 X37.173 Y21.375 E275.05069
G0 F6000 X37.903 Y21.493
G1 F1440 X43.711 Y15.685 E275.97271
G0 F6000 X44.559 Y15.685
G1 F1440 X38.632 Y21.612 E276.91361
G0 F6000 X39.363 Y21.73
G1 F1440 X45.408 Y15.685 E277.87326
G0 F6000 X46.256 Y15.685
G1 F1440 X40.092 Y21.849 E278.85179
G0 F6000 X40.822 Y21.968
G1 F1440 X47.105 Y15.685 E279.84921
G0 F6000 X47.953 Y15.685
G1 F1440 X41.552 Y22.087 E280.86545
G0 F6000 X42.282 Y22.205
G1 F1440 X48.802 Y15.685 E281.9005
G0 F6000 X49.65 Y15.685
G1 F1440 X43.012 Y22.324 E282.95436
G0 F6000 X43.742 Y22.442
G1 F1440 X50.499 Y15.685 E284.02703
G0 F6000 X51.347 Y15.685
G1 F1440 X44.472 Y22.56 E285.11843
G0 F6000 X45.202 Y22.679
G1 F1440 X52.196 Y15.685 E286.22873
G0 F6000 X53.045 Y15.685
G1 F1440 X45.932 Y22.798 E287.35791
G0 F6000 X46.661 Y22.917
G1 F1440 X53.893 Y15.685 E288.50599
G0 F6000 X54.742 Y15.685
G1 F1440 X47.392 Y23.035 E289.6728
G0 F6000 X48.122 Y23.154
G1 F1440 X55.59 Y15.685 E290.85842
G0 F6000 X56.439 Y15.685
G1 F1440 X48.851 Y23.273 E292.06301
