;FLAVOR:Marlin
;TIME:1759
;Filament used: 4.31947m, 0m
;Layer height: 0.45
;Generated with Cura_SteamEngine master
T0
M140 S70
M105
M190 S70
M104 S220
M105
M109 S220
M82 ;absolute extrusion mode
;Sliced at: Fri 01-04-2022 10:41:42
G21 ;metric values
M107
G28
M420 S1
G90 ;absolute positioning
G92 E0; reset extruder distance
G1 X0 Y0 Z5 F5000 ;move nozzle up 5mm for safe homing
G29;ABL
M500
M82 ;set extruder to absolute mode
M107 ;start with the fan off
G1 X0 Y0 Z15.0 F5000 ;move the platform down 15mm
G92 E0 ;zero the extruded length
G1 F200 E3 ;extrude 3mm of feed stock
G1 F200 E0 ;Retract
G4 S2 ;Wait for material to fall
G1 F200 E3
G92 E0 ;zero the extruded length again
M117 Printing...
G92 E0
G1 F2400 E-1
;LAYER_COUNT:5
;LAYER:0
M107
M204 S800
M205 X10 Y10
G0 F4800 X9.226 Y9.592 Z0.3
;TYPE:SKIRT
G1 F2400 E0
G1 F1080 X9.521 Y9.308 E0.03064
G1 X9.865 Y9.087 E0.06124
G1 X10.246 Y8.937 E0.09188
G1 X10.821 Y8.857 E0.13533
G1 X110.821 Y8.857 E7.61886
G1 X111.228 Y8.897 E7.64946
G1 X111.62 Y9.015 E7.6801
G1 X111.982 Y9.207 E7.71077
G1 X112.299 Y9.466 E7.7414
G1 X112.561 Y9.781 E7.77206
G1 X112.756 Y10.141 E7.8027
G1 X112.877 Y10.532 E7.83333
G1 X112.921 Y10.939 E7.86396
G1 X112.885 Y11.346 E7.89454
G1 X112.699 Y11.896 E7.93799
G1 X72.699 Y91.896 E14.63146
G1 X72.481 Y92.243 E14.66213
G1 X72.2 Y92.54 E14.69273
G1 X71.867 Y92.778 E14.72336
G1 X71.494 Y92.946 E14.75397
G1 X71.095 Y93.039 E14.78463
G1 X70.821 Y93.057 E14.80518
G1 X50.821 Y93.057 E16.30189
G1 X50.414 Y93.017 E16.33249
G1 X50.022 Y92.899 E16.36313
G1 X49.66 Y92.707 E16.39379
G1 X49.343 Y92.448 E16.42443
G1 X49.081 Y92.133 E16.45509
G1 X48.943 Y91.896 E16.47561
G1 X8.943 Y11.896 E23.16909
G1 X8.796 Y11.514 E23.19972
G1 X8.727 Y11.11 E23.23039
G1 X8.737 Y10.701 E23.261
G1 X8.826 Y10.302 E23.2916
G1 X8.991 Y9.927 E23.32226
G1 X9.226 Y9.592 E23.35288
G0 F4800 X9.666 Y10
G1 F1080 X9.916 Y9.761 E23.37876
G1 X10.214 Y9.586 E23.40463
G1 X10.544 Y9.483 E23.4305
G1 X10.821 Y9.457 E23.45132
G1 X110.821 Y9.457 E30.93485
G1 X111.165 Y9.497 E30.96076
G1 X111.49 Y9.614 E30.98661
G1 X111.78 Y9.803 E31.01252
G1 X112.018 Y10.053 E31.03835
G1 X112.193 Y10.352 E31.06428
G1 X112.296 Y10.682 E31.09015
G1 X112.319 Y11.027 E31.11602
G1 X112.264 Y11.368 E31.14187
G1 X112.163 Y11.628 E31.16274
G1 X72.163 Y91.628 E37.85622
G1 X71.973 Y91.917 E37.8821
G1 X71.723 Y92.156 E37.90798
G1 X71.424 Y92.33 E37.93387
G1 X71.094 Y92.432 E37.95972
G1 X70.821 Y92.457 E37.98023
G1 X50.821 Y92.457 E39.47694
G1 X50.477 Y92.417 E39.50286
G1 X50.152 Y92.3 E39.52871
G1 X49.862 Y92.111 E39.55461
G1 X49.624 Y91.861 E39.58044
G1 X49.479 Y91.628 E39.60098
G1 X9.479 Y11.628 E46.29445
G1 X9.361 Y11.303 E46.32033
G1 X9.321 Y10.959 E46.34624
G1 X9.36 Y10.616 E46.37208
G1 X9.477 Y10.29 E46.398
G1 X9.666 Y10 E46.4239
G0 F4800 X10.15 Y10.357
G1 F1080 X10.356 Y10.186 E46.44394
G1 X10.604 Y10.084 E46.46401
G1 X10.821 Y10.057 E46.48037
G1 X110.821 Y10.057 E53.9639
G1 X111.086 Y10.097 E53.98396
G1 X111.327 Y10.213 E54.00397
G1 X111.523 Y10.394 E54.02394
G1 X111.658 Y10.626 E54.04403
G1 X111.718 Y10.886 E54.06399
G1 X111.699 Y11.153 E54.08403
G1 X111.626 Y11.359 E54.10038
G1 X71.626 Y91.359 E60.79385
G1 X71.472 Y91.578 E60.81389
G1 X71.261 Y91.742 E60.83389
G1 X71.01 Y91.837 E60.85397
G1 X70.821 Y91.857 E60.86819
G1 X50.821 Y91.857 E62.3649
G1 X50.556 Y91.817 E62.38496
G1 X50.315 Y91.701 E62.40497
G1 X50.119 Y91.52 E62.42494
G1 X50.016 Y91.359 E62.43924
G1 X10.016 Y11.359 E69.13271
G1 X9.933 Y11.105 E69.15271
G1 X9.929 Y10.837 E69.17277
G1 X10.004 Y10.58 E69.1928
G1 X10.15 Y10.357 E69.21275
G0 F4800 X10.569 Y10.795
G1 F1080 X10.682 Y10.691 E69.22424
G1 X10.821 Y10.657 E69.23495
G1 X110.821 Y10.657 E76.71848
G1 X110.97 Y10.696 E76.73001
G1 X111.079 Y10.804 E76.74149
G1 X111.121 Y10.952 E76.75301
G1 X111.089 Y11.091 E76.76368
G1 X71.089 Y91.091 E83.45715
G1 X70.988 Y91.206 E83.46861
G1 X70.821 Y91.257 E83.48167
G1 X50.821 Y91.257 E84.97838
G1 X50.672 Y91.218 E84.98991
G1 X50.553 Y91.091 E85.00293
G1 X10.553 Y11.091 E91.6964
G1 X10.521 Y10.941 E91.70788
G1 X10.569 Y10.795 E91.71938
;MESH:Part2.STL
G0 F4800 X11.306 Y11.257
;TYPE:WALL-OUTER
G1 F1080 X110.336 Y11.257 E99.13032
G1 X70.636 Y90.657 E105.77359
G1 X51.006 Y90.657 E107.24261
G1 X11.306 Y11.257 E113.88588
G0 F4800 X11.606 Y11.257
G0 X12.277 Y11.857
;TYPE:WALL-INNER
G1 F1080 X109.365 Y11.857 E121.15149
G1 X70.265 Y90.057 E127.69436
G1 X51.377 Y90.057 E129.10785
G1 X12.277 Y11.857 E135.65072
G0 F4800 X13.231 Y12.447
;TYPE:SKIN
G1 F1080 X108.411 Y12.447 E142.77355
G1 X69.901 Y89.467 E149.21769
G1 X51.741 Y89.467 E150.5767
G1 X13.231 Y12.447 E157.02084
G0 F4800 X14.202 Y13.047
G1 F1080 X107.44 Y13.047 E163.99833
G1 X69.53 Y88.867 E170.34207
G1 X52.112 Y88.867 E171.64555
G1 X14.202 Y13.047 E177.98929
G1 F2400 E176.98929
G0 F4800 X14.202 Y12.067
G0 X12.744 Y12.146
G0 X51.547 Y89.781
G0 X52.259 Y89.847
G0 X52.259 Y88.746
G1 F2400 E177.98929
G1 F1080 X52.111 Y88.598 E178.00496
G0 F4800 X53.107 Y88.746
G1 F1080 X51.263 Y86.901 E178.20016
G1 X51.157 Y86.795
G0 F4800 X50.215 Y87.264
G0 X49.43 Y85.694
G0 X50.414 Y85.204
G1 F1080 X53.956 Y88.746 E178.57503
G0 F4800 X54.805 Y88.746
G1 F1080 X49.566 Y83.507 E179.12949
G1 X49.46 Y83.401
G0 F4800 X48.518 Y83.87
G0 X47.734 Y82.301
G0 X48.717 Y81.81
G1 F1080 X55.653 Y88.746 E179.86354
G0 F4800 X56.502 Y88.746
G1 F1080 X47.869 Y80.113 E180.7772
G1 X47.763 Y80.007
G0 F4800 X46.821 Y80.476
G0 X46.036 Y78.906
G0 X47.02 Y78.416
G1 F1080 X57.35 Y88.746 E181.87046
G0 F4800 X58.199 Y88.746
G1 F1080 X46.171 Y76.718 E183.14342
G1 X46.065 Y76.612
G0 F4800 X45.124 Y77.081
G0 X44.339 Y75.511
G0 X45.323 Y75.021
G1 F1080 X59.047 Y88.746 E184.59592
G0 F4800 X59.896 Y88.746
G1 F1080 X44.474 Y73.324 E186.22808
G1 X44.368 Y73.218
G0 F4800 X43.427 Y73.687
G0 X42.642 Y72.117
G0 X43.626 Y71.627
G1 F1080 X60.744 Y88.746 E188.03979
G0 F4800 X61.593 Y88.746
G1 F1080 X42.777 Y69.93 E190.03114
G1 X42.671 Y69.824
G0 F4800 X41.73 Y70.293
G0 X40.945 Y68.723
G0 X41.929 Y68.233
G1 F1080 X62.441 Y88.746 E192.20204
G0 F4800 X63.29 Y88.746
G1 F1080 X41.08 Y66.536 E194.5526
G1 X40.974 Y66.43
G0 F4800 X40.033 Y66.899
G0 X39.248 Y65.33
G0 X40.232 Y64.839
G1 F1080 X64.138 Y88.746 E197.08269
G0 F4800 X64.987 Y88.746
G1 F1080 X39.383 Y63.142 E199.79245
G1 X39.277 Y63.036
G0 F4800 X38.336 Y63.505
G0 X37.551 Y61.935
G0 X38.535 Y61.445
G1 F1080 X65.835 Y88.746 E202.68174
G0 F4800 X66.684 Y88.746
G1 F1080 X37.686 Y59.748 E205.75069
G1 X37.58 Y59.642
G0 F4800 X36.639 Y60.111
G0 X35.854 Y58.541
G0 X36.838 Y58.051
G1 F1080 X67.532 Y88.746 E208.99918
G0 F4800 X68.381 Y88.746
G1 F1080 X35.989 Y56.354 E212.42733
G1 X35.883 Y56.248
G0 F4800 X34.942 Y56.717
G0 X34.157 Y55.148
G0 X35.141 Y54.657
G1 F1080 X69.229 Y88.746 E216.03502
G0 F4800 X69.664 Y88.331
G1 F1080 X34.292 Y52.96 E219.7785
G1 X34.186 Y52.854
G0 F4800 X33.245 Y53.323
G0 X32.46 Y51.753
G0 X33.444 Y51.263
G1 F1080 X69.947 Y87.766 E223.64172
G0 F4800 X70.229 Y87.2
G1 F1080 X32.594 Y49.565 E227.62475
G1 X32.488 Y49.459
G0 F4800 X31.547 Y49.928
G0 X30.762 Y48.358
G0 X31.746 Y47.868
G1 F1080 X70.512 Y86.634 E231.72748
G0 F4800 X70.795 Y86.069
G1 F1080 X30.897 Y46.171 E235.95001
G1 X30.791 Y46.065
G0 F4800 X29.85 Y46.533
G0 X29.065 Y44.964
G0 X30.049 Y44.474
G1 F1080 X71.078 Y85.503 E240.29223
G0 F4800 X71.361 Y84.937
G1 F1080 X29.2 Y42.777 E244.75421
G1 X29.094 Y42.671
G0 F4800 X28.153 Y43.14
G0 X27.368 Y41.57
G0 X28.352 Y41.08
G1 F1080 X71.644 Y84.371 E249.33588
G0 F4800 X71.926 Y83.806
G1 F1080 X27.503 Y39.383 E254.03731
G1 X27.397 Y39.277
G0 F4800 X26.456 Y39.745
G0 X25.671 Y38.176
G0 X26.655 Y37.685
G1 F1080 X72.209 Y83.24 E258.85848
G0 F4800 X72.492 Y82.674
G1 F1080 X25.806 Y35.988 E263.79941
G1 X25.7 Y35.882
G0 F4800 X24.759 Y36.351
G0 X23.974 Y34.781
G0 X24.958 Y34.291
G1 F1080 X72.775 Y82.109 E268.86008
G0 F4800 X73.058 Y81.543
G1 F1080 X24.109 Y32.594 E274.0405
G1 X24.003 Y32.488
G0 F4800 X23.062 Y32.957
G0 X22.277 Y31.387
G0 X23.26 Y30.897
G1 F1080 X73.341 Y80.977 E279.34068
G0 F4800 X73.623 Y80.412
G1 F1080 X22.412 Y29.2 E284.76055
G1 X22.306 Y29.094
G0 F4800 X21.365 Y29.563
G0 X20.58 Y27.993
G0 X21.563 Y27.503
G1 F1080 X73.906 Y79.846 E290.30017
G0 F4800 X74.189 Y79.28
G1 F1080 X20.715 Y25.806 E295.95949
G1 X20.609 Y25.7
G0 F4800 X19.668 Y26.169
G0 X18.883 Y24.599
G0 X19.866 Y24.109
G1 F1080 X74.472 Y78.715 E301.73861
G0 F4800 X74.755 Y78.149
G1 F1080 X19.018 Y22.412 E307.63743
G1 X18.912 Y22.306
G0 F4800 X17.971 Y22.775
G0 X17.186 Y21.205
G0 X18.169 Y20.715
G1 F1080 X75.038 Y77.583 E313.656
G0 F4800 X75.321 Y77.018
G1 F1080 X17.321 Y19.018 E319.79432
G1 X17.215 Y18.912
G0 F4800 X16.274 Y19.381
G0 X15.489 Y17.811
G0 X16.472 Y17.321
G1 F1080 X75.603 Y76.452 E326.05234
G0 F4800 X75.886 Y75.886
G1 F1080 X15.624 Y15.624 E332.43006
G1 X15.518 Y15.518
G0 F4800 X14.577 Y15.987
G0 X13.792 Y14.417
G0 X14.775 Y13.927
G1 F1080 X76.169 Y75.321 E338.92757
G0 F4800 X76.452 Y74.755
G1 F1080 X14.864 Y13.167 E345.44562
G0 F4800 X15.712 Y13.167
G1 F1080 X76.735 Y74.189 E351.90382
G0 F4800 X77.018 Y73.623
G1 F1080 X16.561 Y13.167 E358.30212
G0 F4800 X17.409 Y13.167
G1 F1080 X77.3 Y73.058 E364.64057
G0 F4800 X77.583 Y72.492
G1 F1080 X18.258 Y13.167 E370.91912
G0 F4800 X19.106 Y13.167
G1 F1080 X77.866 Y71.926 E377.13782
G0 F4800 X78.149 Y71.361
G1 F1080 X19.955 Y13.167 E383.29667
G0 F4800 X20.803 Y13.167
G1 F1080 X78.432 Y70.795 E389.39568
G0 F4800 X78.715 Y70.229
G1 F1080 X21.652 Y13.167 E395.43478
G0 F4800 X22.5 Y13.167
G1 F1080 X78.997 Y69.664 E401.41403
G0 F4800 X79.28 Y69.098
G1 F1080 X23.349 Y13.167 E407.33338
G0 F4800 X24.197 Y13.167
G1 F1080 X79.563 Y68.532 E413.19288
G0 F4800 X79.846 Y67.967
G1 F1080 X25.046 Y13.167 E418.99254
G0 F4800 X25.894 Y13.167
G1 F1080 X80.129 Y67.401 E424.73234
G0 F4800 X80.412 Y66.835
G1 F1080 X26.743 Y13.167 E430.41225
G0 F4800 X27.592 Y13.167
G1 F1080 X80.695 Y66.27 E436.0323
G0 F4800 X80.977 Y65.704
G1 F1080 X28.44 Y13.167 E441.59246
G0 F4800 X29.289 Y13.167
G1 F1080 X81.26 Y65.138 E447.09271
G0 F4800 X81.543 Y64.572
G1 F1080 X30.137 Y13.167 E452.53311
G0 F4800 X30.986 Y13.167
G1 F1080 X81.826 Y64.007 E457.91367
G0 F4800 X82.108 Y63.44
G1 F1080 X31.834 Y13.167 E463.23427
G0 F4800 X32.683 Y13.167
G1 F1080 X82.391 Y62.875 E468.49502
G0 F4800 X82.674 Y62.309
G1 F1080 X33.531 Y13.167 E473.69592
G0 F4800 X34.38 Y13.167
G1 F1080 X82.957 Y61.743 E478.83692
G0 F4800 X83.239 Y61.178
G1 F1080 X35.228 Y13.167 E483.91808
G0 F4800 X36.077 Y13.167
G1 F1080 X83.522 Y60.612 E488.93933
G0 F4800 X83.805 Y60.046
G1 F1080 X36.925 Y13.167 E493.90073
G0 F4800 X37.774 Y13.167
G1 F1080 X84.088 Y59.481 E498.80228
G0 F4800 X84.371 Y58.915
G1 F1080 X38.622 Y13.167 E503.64399
G0 F4800 X39.471 Y13.167
G1 F1080 X84.654 Y58.349 E508.42579
G0 F4800 X84.936 Y57.784
G1 F1080 X40.319 Y13.167 E513.14775
G0 F4800 X41.168 Y13.167
G1 F1080 X85.219 Y57.218 E517.8098
G0 F4800 X85.502 Y56.652
G1 F1080 X42.016 Y13.167 E522.41201
G0 F4800 X42.865 Y13.167
G1 F1080 X85.785 Y56.087 E526.95437
G0 F4800 X86.068 Y55.521
G1 F1080 X43.714 Y13.167 E531.43682
G0 F4800 X44.562 Y13.167
G1 F1080 X86.351 Y54.955 E535.85943
G0 F4800 X86.634 Y54.389
G1 F1080 X45.411 Y13.167 E540.22213
G0 F4800 X46.259 Y13.167
G1 F1080 X86.916 Y53.824 E544.52499
G0 F4800 X87.199 Y53.258
G1 F1080 X47.108 Y13.167 E548.76794
G0 F4800 X47.956 Y13.167
G1 F1080 X87.482 Y52.692 E552.95105
G0 F4800 X87.765 Y52.127
G1 F1080 X48.805 Y13.167 E557.07431
G0 F4800 X49.653 Y13.167
G1 F1080 X88.048 Y51.561 E561.13772
G0 F4800 X88.331 Y50.995
G1 F1080 X50.502 Y13.167 E565.14122
G0 F4800 X51.35 Y13.167
G1 F1080 X88.613 Y50.43 E569.08488
G0 F4800 X88.896 Y49.864
G1 F1080 X52.199 Y13.167 E572.96864
G0 F4800 X53.047 Y13.167
G1 F1080 X89.179 Y49.298 E576.79255
G0 F4800 X89.462 Y48.733
G1 F1080 X53.896 Y13.167 E580.55661
G0 F4800 X54.744 Y13.167
G1 F1080 X89.745 Y48.167 E584.26082
G0 F4800 X90.028 Y47.601
G1 F1080 X55.593 Y13.167 E587.90513
G0 F4800 X56.441 Y13.167
G1 F1080 X90.31 Y47.036 E591.48959
G0 F4800 X90.593 Y46.47
G1 F1080 X57.29 Y13.167 E595.01415
G0 F4800 X58.139 Y13.167
G1 F1080 X90.876 Y45.904 E598.47881
G0 F4800 X91.159 Y45.338
G1 F1080 X58.987 Y13.167 E601.88362
G0 F4800 X59.836 Y13.167
G1 F1080 X91.442 Y44.773 E605.22858
G0 F4800 X91.725 Y44.207
G1 F1080 X60.684 Y13.167 E608.51369
G0 F4800 X61.533 Y13.167
G1 F1080 X92.008 Y43.641 E611.7389
G0 F4800 X92.29 Y43.076
G1 F1080 X62.381 Y13.167 E614.90427
G0 F4800 X63.23 Y13.167
G1 F1080 X92.573 Y42.51 E618.00973
G0 F4800 X92.856 Y41.944
G1 F1080 X64.078 Y13.167 E621.05534
G0 F4800 X64.927 Y13.167
G1 F1080 X93.139 Y41.379 E624.0411
G0 F4800 X93.422 Y40.813
G1 F1080 X65.775 Y13.167 E626.96702
G0 F4800 X66.624 Y13.167
G1 F1080 X93.705 Y40.247 E629.83303
G0 F4800 X93.987 Y39.682
G1 F1080 X67.472 Y13.167 E632.6392
G0 F4800 X68.321 Y13.167
G1 F1080 X94.27 Y39.116 E635.38546
G0 F4800 X94.553 Y38.55
G1 F1080 X69.169 Y13.167 E638.07187
G0 F4800 X70.018 Y13.167
G1 F1080 X94.836 Y37.985 E640.69844
G0 F4800 X95.119 Y37.419
G1 F1080 X70.866 Y13.167 E643.26516
G0 F4800 X71.715 Y13.167
G1 F1080 X95.402 Y36.853 E645.77197
G0 F4800 X95.684 Y36.288
G1 F1080 X72.564 Y13.167 E648.21889
G0 F4800 X73.412 Y13.167
G1 F1080 X95.967 Y35.722 E650.60595
G0 F4800 X96.25 Y35.156
G1 F1080 X74.261 Y13.167 E652.93312
G0 F4800 X75.109 Y13.167
G1 F1080 X96.533 Y34.59 E655.20043
G0 F4800 X96.816 Y34.025
G1 F1080 X75.958 Y13.167 E657.4079
G0 F4800 X76.806 Y13.167
G1 F1080 X97.099 Y33.459 E659.55552
G0 F4800 X97.382 Y32.893
G1 F1080 X77.655 Y13.167 E661.64323
G0 F4800 X78.503 Y13.167
G1 F1080 X97.664 Y32.328 E663.6711
G0 F4800 X97.947 Y31.762
G1 F1080 X79.352 Y13.167 E665.63907
G0 F4800 X80.2 Y13.167
G1 F1080 X98.23 Y31.196 E667.54719
G0 F4800 X98.513 Y30.631
G1 F1080 X81.049 Y13.167 E669.39545
G0 F4800 X81.897 Y13.167
G1 F1080 X98.796 Y30.065 E671.18388
G0 F4800 X99.079 Y29.499
G1 F1080 X82.746 Y13.167 E672.91239
G0 F4800 X83.594 Y13.167
G1 F1080 X99.361 Y28.934 E674.58107
G0 F4800 X99.644 Y28.368
G1 F1080 X84.443 Y13.167 E676.18983
G0 F4800 X85.291 Y13.167
G1 F1080 X99.927 Y27.802 E677.73875
G0 F4800 X100.21 Y27.237
G1 F1080 X86.14 Y13.167 E679.22783
G0 F4800 X86.988 Y13.167
G1 F1080 X100.493 Y26.671 E680.65705
G0 F4800 X100.776 Y26.105
G1 F1080 X87.837 Y13.167 E682.02637
G0 F4800 X88.686 Y13.167
G1 F1080 X101.058 Y25.539 E683.33574
G0 F4800 X101.341 Y24.974
G1 F1080 X89.534 Y13.167 E684.58531
G0 F4800 X90.383 Y13.167
G1 F1080 X101.624 Y24.408 E685.77498
G0 F4800 X101.907 Y23.842
M104 S210
G1 F1080 X91.231 Y13.167 E686.9048
G0 F4800 X92.08 Y13.167
G1 F1080 X102.19 Y23.277 E687.97477
G0 F4800 X102.473 Y22.711
G1 F1080 X92.928 Y13.167 E688.9849
G0 F4800 X93.777 Y13.167
G1 F1080 X102.756 Y22.145 E689.93512
G0 F4800 X103.038 Y21.58
G1 F1080 X94.625 Y13.167 E690.82549
G0 F4800 X95.474 Y13.167
G1 F1080 X103.321 Y21.014 E691.65597
G0 F4800 X103.604 Y20.448
G1 F1080 X96.322 Y13.167 E692.42659
G0 F4800 X97.171 Y13.167
G1 F1080 X103.887 Y19.883 E693.13736
G0 F4800 X104.17 Y19.317
G1 F1080 X98.019 Y13.167 E693.78829
G0 F4800 X98.868 Y13.167
G1 F1080 X104.453 Y18.751 E694.37932
G0 F4800 X104.735 Y18.186
G1 F1080 X99.716 Y13.167 E694.91049
G0 F4800 X100.565 Y13.167
G1 F1080 X105.018 Y17.62 E695.38177
G0 F4800 X105.301 Y17.054
G1 F1080 X101.413 Y13.167 E695.79319
G0 F4800 X102.262 Y13.167
G1 F1080 X105.584 Y16.489 E696.14477
G0 F4800 X105.867 Y15.923
G1 F1080 X103.111 Y13.167 E696.43645
G0 F4800 X103.959 Y13.167
G1 F1080 X106.15 Y15.357 E696.66827
G0 F4800 X106.433 Y14.791
G1 F1080 X104.808 Y13.167 E696.8402
G0 F4800 X105.656 Y13.167
G1 F1080 X106.715 Y14.226 E696.95228
G0 F4800 X106.998 Y13.66
G1 F1080 X106.505 Y13.167 E697.00445
G0 F4800 X106.505 Y12.157
G1 F2400 E696.00445
;MESH:NONMESH
G0 F4800 X106.505 Y12.067
G0 X12.277 Y11.857
;TIME_ELAPSED:536.301608
;LAYER:1
M140 S60
M106 S255
;MESH:Part2.STL
G0 F6000 X12.277 Y11.857 Z0.75
;TYPE:WALL-INNER
G1 F2400 E697.00445
G1 F1470 X109.365 Y11.857 E707.90287
G1 X70.265 Y90.057 E717.71717
G1 X51.377 Y90.057 E719.83741
G1 X12.277 Y11.857 E729.65171
G0 F6000 X11.306 Y11.257
;TYPE:WALL-OUTER
G1 F1170 X110.336 Y11.257 E740.76812
G1 X70.636 Y90.657 E750.73303
G1 X51.006 Y90.657 E752.93656
G1 X11.306 Y11.257 E762.90146
