;FLAVOR:Marlin
;TIME:610
;Filament used: 1.39865m, 0m
;Layer height: 0.45
;Generated with Cura_SteamEngine master
T0
M140 S70
M105
M190 S70
M104 S220
M105
M109 S220
M82 ;absolute extrusion mode
;Sliced at: Fri 01-04-2022 10:42:46
G21 ;metric values
M107
G28
M420 S1
G90 ;absolute positioning
G92 E0; reset extruder distance
G1 X0 Y0 Z5 F5000 ;move nozzle up 5mm for safe homing
G29;ABL
M500
M82 ;set extruder to absolute mode
M107 ;start with the fan off
G1 X0 Y0 Z15.0 F5000 ;move the platform down 15mm
G92 E0 ;zero the extruded length
G1 F200 E3 ;extrude 3mm of feed stock
G1 F200 E0 ;Retract
G4 S2 ;Wait for material to fall
G1 F200 E3
G92 E0 ;zero the extruded length again
M117 Printing...
G92 E0
G1 F2400 E-1
;LAYER_COUNT:5
;LAYER:0
M107
M204 S800
M205 X10 Y10
G0 F4800 X7.561 Y7.746 Z0.3
;TYPE:SKIRT
G1 F2400 E0
G1 F1080 X7.876 Y7.484 E0.03066
G1 X8.236 Y7.289 E0.0613
G1 X8.627 Y7.168 E0.09193
G1 X9.052 Y7.124 E0.12391
G1 X79.052 Y7.124 E5.36238
G1 X79.459 Y7.164 E5.39298
G1 X79.851 Y7.282 E5.42362
G1 X80.161 Y7.441 E5.44969
G1 X84.952 Y10.421 E5.87192
G1 X84.952 Y9.224 E5.9615
G1 X84.992 Y8.817 E5.99211
G1 X85.11 Y8.425 E6.02274
G1 X85.302 Y8.063 E6.05341
G1 X85.561 Y7.746 E6.08404
G1 X85.876 Y7.484 E6.1147
G1 X86.236 Y7.289 E6.14534
G1 X86.627 Y7.168 E6.17597
G1 X87.052 Y7.124 E6.20795
G1 X89.052 Y7.124 E6.35762
G1 X89.459 Y7.164 E6.38822
G1 X89.851 Y7.282 E6.41886
G1 X90.213 Y7.474 E6.44952
G1 X90.53 Y7.733 E6.48016
G1 X90.792 Y8.048 E6.51082
G1 X90.987 Y8.408 E6.54146
G1 X91.108 Y8.799 E6.57209
G1 X91.152 Y9.224 E6.60406
G1 X91.152 Y39.224 E8.84912
G1 X91.112 Y39.631 E8.87972
G1 X90.994 Y40.023 E8.91036
G1 X90.802 Y40.385 E8.94102
G1 X90.543 Y40.702 E8.97166
G1 X90.228 Y40.964 E9.00232
G1 X89.868 Y41.159 E9.03296
G1 X89.477 Y41.28 E9.06359
G1 X89.07 Y41.324 E9.09422
G1 X88.495 Y41.249 E9.13762
G1 X8.495 Y19.249 E15.3467
G1 X8.113 Y19.102 E15.37733
G1 X7.766 Y18.884 E15.40799
G1 X7.469 Y18.603 E15.43859
G1 X7.231 Y18.27 E15.46922
G1 X7.063 Y17.897 E15.49984
G1 X6.97 Y17.498 E15.5305
G1 X6.952 Y17.224 E15.55104
G1 X6.952 Y9.224 E16.14973
G1 X6.992 Y8.817 E16.18033
G1 X7.11 Y8.425 E16.21097
G1 X7.302 Y8.063 E16.24163
G1 X7.561 Y7.746 E16.27227
G0 F4800 X7.898 Y8.265
G1 F1080 X8.148 Y8.027 E16.2981
G1 X8.447 Y7.852 E16.32402
G1 X8.777 Y7.749 E16.34989
G1 X9.052 Y7.724 E16.37056
G1 X79.052 Y7.724 E21.60903
G1 X79.396 Y7.764 E21.63495
G1 X79.844 Y7.95 E21.67125
G1 X85.552 Y11.5 E22.17428
G1 X85.552 Y9.224 E22.34461
G1 X85.592 Y8.88 E22.37052
G1 X85.709 Y8.555 E22.39637
G1 X85.898 Y8.265 E22.42228
G1 X86.148 Y8.027 E22.44811
G1 X86.447 Y7.852 E22.47404
G1 X86.777 Y7.749 E22.49991
G1 X87.052 Y7.724 E22.52057
G1 X89.052 Y7.724 E22.67024
G1 X89.396 Y7.764 E22.69616
G1 X89.721 Y7.881 E22.72201
G1 X90.011 Y8.07 E22.74791
G1 X90.249 Y8.32 E22.77374
G1 X90.424 Y8.619 E22.79967
G1 X90.527 Y8.949 E22.82554
G1 X90.552 Y9.224 E22.8462
G1 X90.552 Y39.224 E25.09126
G1 X90.512 Y39.568 E25.11718
G1 X90.395 Y39.893 E25.14303
G1 X90.206 Y40.183 E25.16893
G1 X89.956 Y40.421 E25.19477
G1 X89.657 Y40.596 E25.22069
G1 X89.327 Y40.699 E25.24656
G1 X88.982 Y40.722 E25.27244
G1 X88.654 Y40.67 E25.29729
G1 X8.654 Y18.67 E31.50637
G1 X8.334 Y18.541 E31.53219
G1 X8.051 Y18.341 E31.55812
G1 X7.822 Y18.082 E31.58399
G1 X7.658 Y17.778 E31.60984
G1 X7.568 Y17.444 E31.63573
G1 X7.552 Y17.224 E31.65224
G1 X7.552 Y9.224 E32.25092
G1 X7.592 Y8.88 E32.27683
G1 X7.709 Y8.555 E32.30268
G1 X7.898 Y8.265 E32.32859
G0 F4800 X8.489 Y8.522
G1 F1080 X8.721 Y8.387 E32.34868
G1 X9.052 Y8.324 E32.37389
G1 X79.052 Y8.324 E37.61236
G1 X79.317 Y8.364 E37.63242
G1 X79.527 Y8.46 E37.6497
G1 X86.152 Y12.581 E38.23357
G1 X86.152 Y9.224 E38.48479
G1 X86.192 Y8.959 E38.50485
G1 X86.308 Y8.718 E38.52487
G1 X86.489 Y8.522 E38.54483
G1 X86.721 Y8.387 E38.56492
G1 X87.052 Y8.324 E38.59013
G1 X89.052 Y8.324 E38.7398
G1 X89.317 Y8.364 E38.75986
G1 X89.558 Y8.48 E38.77988
G1 X89.754 Y8.661 E38.79984
G1 X89.889 Y8.893 E38.81993
G1 X89.952 Y9.224 E38.84514
G1 X89.952 Y39.224 E41.0902
G1 X89.912 Y39.489 E41.11026
G1 X89.796 Y39.73 E41.13027
G1 X89.615 Y39.926 E41.15024
G1 X89.383 Y40.061 E41.17033
G1 X89.123 Y40.121 E41.1903
G1 X88.813 Y40.092 E41.2136
G1 X8.813 Y18.092 E47.42267
G1 X8.569 Y17.983 E47.44267
G1 X8.367 Y17.808 E47.46267
G1 X8.226 Y17.58 E47.48273
G1 X8.152 Y17.224 E47.50994
G1 X8.152 Y9.224 E48.10863
G1 X8.192 Y8.959 E48.12868
G1 X8.308 Y8.718 E48.1487
G1 X8.489 Y8.522 E48.16866
G0 F4800 X8.899 Y8.966
G1 F1080 X9.052 Y8.924 E48.18054
G1 X79.052 Y8.924 E53.41901
G1 X79.21 Y8.969 E53.4313
G1 X86.752 Y13.66 E54.09598
G1 X86.752 Y9.224 E54.42795
G1 X86.791 Y9.075 E54.43947
G1 X86.899 Y8.966 E54.45096
G1 X87.052 Y8.924 E54.46283
G1 X89.052 Y8.924 E54.6125
G1 X89.201 Y8.963 E54.62403
G1 X89.31 Y9.071 E54.63551
G1 X89.352 Y9.224 E54.64738
G1 X89.352 Y39.224 E56.89244
G1 X89.313 Y39.373 E56.90397
G1 X89.205 Y39.482 E56.91545
G1 X89.057 Y39.524 E56.92696
G1 X88.972 Y39.513 E56.93338
G1 X8.972 Y17.513 E63.14245
G1 X8.84 Y17.436 E63.15389
G1 X8.763 Y17.303 E63.16539
G1 X8.752 Y17.224 E63.17136
G1 X8.752 Y9.224 E63.77004
G1 X8.791 Y9.075 E63.78157
G1 X8.899 Y8.966 E63.79305
;MESH:Part4.STL
G0 F4800 X9.352 Y9.524
;TYPE:WALL-OUTER
G1 F1080 X78.967 Y9.524 E69.00271
G1 X87.043 Y14.572 E69.71543
G1 X87.352 Y14.401 E69.74186
G1 X87.352 Y9.524 E70.10683
G1 X88.752 Y9.524 E70.2116
G1 X88.752 Y38.831 E72.4048
G1 X9.352 Y16.996 E78.56731
G1 X9.352 Y9.524 E79.12648
G0 F4800 X9.652 Y9.524
G0 X10.012 Y10.184
G0 X9.952 Y10.124
;TYPE:WALL-INNER
G1 F1080 X78.795 Y10.124 E84.27837
G1 X87.024 Y15.268 E85.0046
G1 X87.952 Y14.755 E85.08396
G1 X87.952 Y10.124 E85.43052
G1 X88.152 Y10.124 E85.44549
G1 X88.152 Y38.043 E87.53481
G1 X9.952 Y16.538 E93.60418
G1 X9.952 Y10.124 E94.08418
G0 F4800 X10.542 Y10.714
;TYPE:SKIN
G1 F1080 X78.626 Y10.714 E99.17926
G1 X87.006 Y15.952 E99.91881
G1 X87.562 Y15.645 E99.96634
G1 X87.562 Y37.269 E101.58458
G1 X10.542 Y16.089 E107.56236
G1 X10.542 Y10.714 E107.9646
G0 F4800 X11.142 Y11.314
G1 F1080 X78.454 Y11.314 E113.00191
G1 X86.962 Y16.632 E113.75276
G1 X86.962 Y36.481 E115.23816
G1 X11.142 Y15.631 E121.12281
G1 X11.142 Y11.314 E121.44587
G0 F4800 X11.142 Y10.334
G0 X10.234 Y10.406
G0 X10.162 Y14.656
G0 X11.262 Y14.656
G1 F1080 X12.479 Y15.873 E121.57467
G1 X12.585 Y15.979
G0 F4800 X13.649 Y16.194
G1 F1080 X11.262 Y13.807 E121.82729
G0 F4800 X11.262 Y12.959
G1 F1080 X14.819 Y16.516 E122.20374
G1 X14.925 Y16.622
G0 F4800 X15.99 Y16.839
G1 F1080 X11.262 Y12.11 E122.70417
G0 F4800 X11.433 Y11.433
G1 F1080 X17.16 Y17.16 E123.31028
G1 X17.266 Y17.266
G0 F4800 X18.331 Y17.482
G1 F1080 X12.282 Y11.433 E123.95046
G0 F4800 X13.13 Y11.433
G1 F1080 X19.501 Y17.804 E124.62473
G1 X19.607 Y17.91
G0 F4800 X20.671 Y18.125
G1 F1080 X13.979 Y11.433 E125.33296
G0 F4800 X14.828 Y11.433
G1 F1080 X21.842 Y18.448 E126.07533
G1 X21.948 Y18.554
G0 F4800 X23.012 Y18.77
G1 F1080 X15.676 Y11.433 E126.85177
G0 F4800 X16.525 Y11.433
G1 F1080 X24.183 Y19.091 E127.66224
G1 X24.289 Y19.197
G0 F4800 X25.353 Y19.413
G1 F1080 X17.373 Y11.433 E128.50679
G0 F4800 X18.222 Y11.433
G1 F1080 X26.523 Y19.735 E129.38536
G1 X26.629 Y19.841
G0 F4800 X27.694 Y20.057
G1 F1080 X19.07 Y11.433 E130.29807
G0 F4800 X19.919 Y11.433
G1 F1080 X28.864 Y20.379 E131.2448
G1 X28.97 Y20.485
G0 F4800 X30.035 Y20.701
G1 F1080 X20.767 Y11.433 E132.22566
G0 F4800 X21.616 Y11.433
G1 F1080 X31.205 Y21.022 E133.24049
G1 X31.311 Y21.128
G0 F4800 X32.375 Y21.344
G1 F1080 X22.464 Y11.433 E134.28941
G0 F4800 X23.313 Y11.433
G1 F1080 X33.546 Y21.667 E135.37245
G1 X33.652 Y21.773
G0 F4800 X34.716 Y21.988
G1 F1080 X24.161 Y11.433 E136.48952
G0 F4800 X25.01 Y11.433
G1 F1080 X35.887 Y22.31 E137.64066
G1 X35.993 Y22.416
G0 F4800 X37.057 Y22.632
G1 F1080 X25.858 Y11.433 E138.82589
G0 F4800 X26.707 Y11.433
G1 F1080 X38.227 Y22.954 E140.04514
G1 X38.333 Y23.06
G0 F4800 X39.398 Y23.276
G1 F1080 X27.555 Y11.433 E141.29852
G0 F4800 X28.404 Y11.433
G1 F1080 X40.568 Y23.598 E142.58593
G1 X40.674 Y23.704
G0 F4800 X41.739 Y23.92
G1 F1080 X29.253 Y11.433 E143.90741
G0 F4800 X30.101 Y11.433
G1 F1080 X42.909 Y24.241 E145.26292
G1 X43.015 Y24.347
G0 F4800 X44.08 Y24.564
G1 F1080 X30.95 Y11.433 E146.65256
G0 F4800 X31.798 Y11.433
G1 F1080 X45.25 Y24.885 E148.07623
G1 X45.356 Y24.991
G0 F4800 X46.42 Y25.207
G1 F1080 X32.647 Y11.433 E149.53392
G0 F4800 X33.495 Y11.433
G1 F1080 X47.591 Y25.529 E151.02575
G1 X47.697 Y25.635
G0 F4800 X48.761 Y25.851
G1 F1080 X34.344 Y11.433 E152.55159
G0 F4800 X35.192 Y11.433
G1 F1080 X49.932 Y26.173 E154.11157
G1 X50.038 Y26.279
G0 F4800 X51.102 Y26.495
G1 F1080 X36.041 Y11.433 E155.70558
G0 F4800 X36.889 Y11.433
G1 F1080 X52.272 Y26.817 E157.33366
G1 X52.378 Y26.923
G0 F4800 X53.443 Y27.138
G1 F1080 X37.738 Y11.433 E158.99577
G0 F4800 X38.586 Y11.433
G1 F1080 X54.613 Y27.46 E160.69196
G1 X54.719 Y27.566
G0 F4800 X55.784 Y27.782
G1 F1080 X39.435 Y11.433 E162.42222
G0 F4800 X40.283 Y11.433
G1 F1080 X56.954 Y28.104 E164.18657
G1 X57.06 Y28.21
G0 F4800 X58.124 Y28.426
G1 F1080 X41.132 Y11.433 E165.98494
G0 F4800 X41.98 Y11.433
G1 F1080 X59.295 Y28.748 E167.81744
G1 X59.401 Y28.854
G0 F4800 X60.465 Y29.069
G1 F1080 X42.829 Y11.433 E169.68391
G0 F4800 X43.677 Y11.433
G1 F1080 X61.636 Y29.392 E171.58457
G1 X61.742 Y29.498
G0 F4800 X62.806 Y29.714
G1 F1080 X44.526 Y11.433 E173.51925
G0 F4800 X45.375 Y11.434
G1 F1080 X63.976 Y30.035 E175.48785
G1 X64.082 Y30.141
G0 F4800 X65.147 Y30.357
G1 F1080 X46.224 Y11.434 E177.49053
G0 F4800 X47.072 Y11.434
G1 F1080 X66.317 Y30.679 E179.52729
G1 X66.423 Y30.785
G0 F4800 X67.488 Y31.001
G1 F1080 X47.921 Y11.434 E181.59812
G0 F4800 X48.769 Y11.434
G1 F1080 X68.658 Y31.323 E183.70304
G1 X68.764 Y31.429
G0 F4800 X69.828 Y31.645
G1 F1080 X49.618 Y11.434 E185.84198
G0 F4800 X50.466 Y11.434
G1 F1080 X70.999 Y31.966 E188.015
G1 X71.105 Y32.072
G0 F4800 X72.169 Y32.288
G1 F1080 X51.315 Y11.434 E190.22204
G0 F4800 X52.163 Y11.434
G1 F1080 X73.34 Y32.611 E192.46327
G1 X73.446 Y32.717
G0 F4800 X74.51 Y32.932
G1 F1080 X53.012 Y11.434 E194.73847
G0 F4800 X53.861 Y11.434
G1 F1080 X75.68 Y33.254 E197.04769
G1 X75.786 Y33.36
G0 F4800 X76.851 Y33.576
G1 F1080 X54.709 Y11.434 E199.39105
G0 F4800 X55.558 Y11.434
G1 F1080 X78.022 Y33.898 E201.76848
G1 X78.128 Y34.004
G0 F4800 X79.192 Y34.22
G1 F1080 X56.406 Y11.434 E204.18
G0 F4800 X57.255 Y11.434
G1 F1080 X80.362 Y34.542 E206.62554
G1 X80.468 Y34.648
G0 F4800 X81.532 Y34.863
G1 F1080 X58.103 Y11.434 E209.1051
G0 F4800 X58.952 Y11.434
G1 F1080 X82.703 Y35.185 E211.61874
G1 X82.809 Y35.291
G0 F4800 X83.874 Y35.508
G1 F1080 X59.8 Y11.434 E214.16657
G0 F4800 X60.649 Y11.434
G1 F1080 X85.044 Y35.829 E216.74837
G1 X85.15 Y35.935
G0 F4800 X86.214 Y36.151
G1 F1080 X61.497 Y11.434 E219.36424
G0 F4800 X62.346 Y11.434
G1 F1080 X86.841 Y35.929 E221.95663
G0 F4800 X86.841 Y35.08
G1 F1080 X63.194 Y11.434 E224.45921
G0 F4800 X64.043 Y11.434
G1 F1080 X86.841 Y34.232 E226.87199
G0 F4800 X86.841 Y33.383
G1 F1080 X64.891 Y11.434 E229.19497
G0 F4800 X65.74 Y11.434
G1 F1080 X86.841 Y32.535 E231.42816
G0 F4800 X86.841 Y31.686
G1 F1080 X66.588 Y11.434 E233.57154
G0 F4800 X67.437 Y11.434
G1 F1080 X86.841 Y30.838 E235.62513
G0 F4800 X86.841 Y29.989
G1 F1080 X68.286 Y11.434 E237.58886
G0 F4800 X69.134 Y11.434
G1 F1080 X86.841 Y29.141 E239.46285
G0 F4800 X86.841 Y28.292
G1 F1080 X69.983 Y11.434 E241.24698
G0 F4800 X70.831 Y11.434
G1 F1080 X86.841 Y27.444 E242.94137
G0 F4800 X86.841 Y26.595
G1 F1080 X71.68 Y11.434 E244.54591
G0 F4800 X72.528 Y11.434
M104 S210
G1 F1080 X86.841 Y25.747 E246.0607
G0 F4800 X86.841 Y24.898
G1 F1080 X73.377 Y11.434 E247.48563
G0 F4800 X74.225 Y11.434
G1 F1080 X86.841 Y24.05 E248.82082
G0 F4800 X86.841 Y23.201
G1 F1080 X75.074 Y11.434 E250.06616
G0 F4800 X75.922 Y11.434
G1 F1080 X86.841 Y22.353 E251.22175
G0 F4800 X86.841 Y21.504
G1 F1080 X76.771 Y11.434 E252.28749
G0 F4800 X77.619 Y11.434
G1 F1080 X86.841 Y20.656 E253.26349
G0 F4800 X86.841 Y19.807
G1 F1080 X78.548 Y11.515 E254.14111
G1 X78.442 Y11.409
G0 F4800 X79.007 Y10.505
G0 X81.393 Y11.997
G0 X80.811 Y12.929
G1 F1080 X86.841 Y18.958 E254.77923
G0 F4800 X86.841 Y18.11
G1 F1080 X83.074 Y14.343 E255.1779
G1 X82.968 Y14.237
G0 F4800 X83.533 Y13.335
G0 X85.92 Y14.827
G0 X85.337 Y15.757
G1 F1080 X86.841 Y17.261 E255.33707
G1 X86.947 Y17.367
G0 F4800 X87.852 Y17.367
G1 F2400 E254.33707
;MESH:NONMESH
G0 F4800 X87.942 Y17.367
G0 X87.862 Y15.136
G0 X87.015 Y15.589
G0 X78.717 Y10.396
G0 X9.952 Y10.124
;TIME_ELAPSED:201.059416
;LAYER:1
M140 S60
M106 S255
;MESH:Part4.STL
G0 F6000 X9.952 Y10.124 Z0.75
;TYPE:WALL-INNER
G1 F2400 E255.33707
G1 F1470 X78.795 Y10.124 E263.0649
G1 X87.024 Y15.268 E264.15426
G1 X87.952 Y14.755 E264.27329
G1 X87.952 Y10.124 E264.79313
G1 X88.152 Y10.124 E264.81558
G1 X88.152 Y38.043 E267.94957
G1 X9.952 Y16.538 E277.05363
G1 X9.952 Y10.124 E277.77362
G0 F6000 X9.352 Y9.524
;TYPE:WALL-OUTER
G1 F1170 X78.967 Y9.524 E285.58811
G1 X87.043 Y14.572 E286.65719
G1 X87.352 Y14.401 E286.69684
G1 X87.352 Y9.524 E287.24429
G1 X88.752 Y9.524 E287.40145
G1 X88.752 Y38.831 E290.69125
G1 X9.352 Y16.996 E299.93501
G1 X9.352 Y9.524 E300.77376
G0 F6000 X9.652 Y9.524
G0 X10.012 Y10.184
G0 X10.542 Y10.714
;TYPE:SKIN
G1 F1440 X78.626 Y10.714 E308.41639
G1 X87.006 Y15.952 E309.52572
G1 X87.562 Y15.645 E309.59701
G1 X87.562 Y37.269 E312.02437
G1 X10.542 Y16.089 E320.99104
G1 X10.542 Y10.714 E321.5944
G0 F6000 X11.142 Y11.314
G1 F1440 X78.454 Y11.314 E329.15037
G1 X86.962 Y16.632 E330.27663
G1 X86.962 Y36.481 E332.50474
G1 X11.142 Y15.631 E341.33171
G1 X11.142 Y11.314 E341.8163
G0 F6000 X11.262 Y11.648
G1 F1440 X11.477 Y11.433 E341.85043
G0 F6000 X12.325 Y11.433
G1 F1440 X11.262 Y12.496 E342.01918
G0 F6000 X11.262 Y13.345
G1 F1440 X13.174 Y11.433 E342.32271
G0 F6000 X14.022 Y11.433
G1 F1440 X11.262 Y14.193 E342.76086
G0 F6000 X11.262 Y15.042
G1 F1440 X14.871 Y11.433 E343.33379
G0 F6000 X15.719 Y11.433
G1 F1440 X11.537 Y15.615 E343.99768
G0 F6000 X12.203 Y15.798
G1 F1440 X16.568 Y11.433 E344.69062
G0 F6000 X17.416 Y11.433
G1 F1440 X12.868 Y15.981 E345.41262
G0 F6000 X13.534 Y16.163
G1 F1440 X18.265 Y11.433 E346.16358
G0 F6000 X19.113 Y11.433
G1 F1440 X14.2 Y16.346 E346.94352
G0 F6000 X14.865 Y16.53
G1 F1440 X19.962 Y11.433 E347.75267
G0 F6000 X20.81 Y11.433
G1 F1440 X15.53 Y16.713 E348.59086
G0 F6000 X16.196 Y16.896
G1 F1440 X21.659 Y11.433 E349.45811
G0 F6000 X22.507 Y11.433
G1 F1440 X16.861 Y17.079 E350.35441
G0 F6000 X17.527 Y17.261
G1 F1440 X23.356 Y11.433 E351.27969
G0 F6000 X24.204 Y11.433
G1 F1440 X18.193 Y17.445 E352.23401
G0 F6000 X18.858 Y17.628
G1 F1440 X25.053 Y11.433 E353.21746
G0 F6000 X25.902 Y11.433
G1 F1440 X19.523 Y17.811 E354.23005
G0 F6000 X20.189 Y17.994
G1 F1440 X26.75 Y11.433 E355.2716
G0 F6000 X27.599 Y11.433
G1 F1440 X20.854 Y18.177 E356.34229
G0 F6000 X21.52 Y18.36
G1 F1440 X28.447 Y11.433 E357.44195
G0 F6000 X29.296 Y11.433
G1 F1440 X22.186 Y18.543 E358.57066
G0 F6000 X22.851 Y18.726
G1 F1440 X30.144 Y11.433 E359.72842
G0 F6000 X30.993 Y11.433
G1 F1440 X23.516 Y18.909 E360.91531
G0 F6000 X24.182 Y19.092
G1 F1440 X31.841 Y11.433 E362.13118
G0 F6000 X32.69 Y11.433
G1 F1440 X24.847 Y19.275 E363.37617
G0 F6000 X25.513 Y19.458
G1 F1440 X33.538 Y11.433 E364.65014
G0 F6000 X34.387 Y11.433
G1 F1440 X26.179 Y19.641 E365.95315
G0 F6000 X26.844 Y19.824
G1 F1440 X35.235 Y11.433 E367.28522
G0 F6000 X36.084 Y11.433
G1 F1440 X27.509 Y20.007 E368.64642
G0 F6000 X28.175 Y20.19
G1 F1440 X36.932 Y11.433 E370.03659
G0 F6000 X37.781 Y11.433
G1 F1440 X28.84 Y20.373 E371.45589
G0 F6000 X29.506 Y20.556
G1 F1440 X38.629 Y11.433 E372.90417
G0 F6000 X39.478 Y11.433
G1 F1440 X30.172 Y20.739 E374.38149
G0 F6000 X30.837 Y20.922
G1 F1440 X40.327 Y11.433 E375.88795
G0 F6000 X41.175 Y11.433
G1 F1440 X31.503 Y21.105 E377.42337
G0 F6000 X32.168 Y21.288
G1 F1440 X42.024 Y11.433 E378.98793
G0 F6000 X42.872 Y11.433
G1 F1440 X32.833 Y21.472 E380.58162
G0 F6000 X33.499 Y21.654
G1 F1440 X43.721 Y11.433 E382.20428
G0 F6000 X44.569 Y11.433
G1 F1440 X34.165 Y21.837 E383.85591
G0 F6000 X34.83 Y22.02
G1 F1440 X45.417 Y11.433 E385.53659
G0 F6000 X46.265 Y11.433
G1 F1440 X35.496 Y22.203 E387.24625
G0 F6000 X36.161 Y22.387
