;FLAVOR:Marlin
;TIME:752
;Filament used: 1.80017m, 0m
;Layer height: 0.45
;Generated with Cura_SteamEngine master
T0
M140 S70
M105
M190 S70
M104 S220
M105
M109 S220
M82 ;absolute extrusion mode
;Sliced at: Fri 01-04-2022 10:43:26
G21 ;metric values
M107
G28
M420 S1
G90 ;absolute positioning
G92 E0; reset extruder distance
G1 X0 Y0 Z5 F5000 ;move nozzle up 5mm for safe homing
G29;ABL
M500
M82 ;set extruder to absolute mode
M107 ;start with the fan off
G1 X0 Y0 Z15.0 F5000 ;move the platform down 15mm
G92 E0 ;zero the extruded length
G1 F200 E3 ;extrude 3mm of feed stock
G1 F200 E0 ;Retract
G4 S2 ;Wait for material to fall
G1 F200 E3
G92 E0 ;zero the extruded length again
M117 Printing...
G92 E0
G1 F2400 E-1
;LAYER_COUNT:5
;LAYER:0
M107
M204 S800
M205 X10 Y10
G0 F4800 X13.798 Y19.358 Z0.3
;TYPE:SKIRT
G1 F2400 E0
G1 F1080 X14.15 Y19.148 E0.03067
G1 X14.535 Y19.01 E0.06128
G1 X15.046 Y18.947 E0.09981
G1 X65.046 Y18.947 E3.84158
G1 X65.453 Y18.987 E3.87218
G1 X65.845 Y19.105 E3.90282
G1 X66.207 Y19.297 E3.93348
G1 X66.524 Y19.556 E3.96412
G1 X66.786 Y19.871 E3.99478
G1 X66.981 Y20.231 E4.02542
G1 X67.12 Y20.715 E4.0631
G1 X67.7 Y24.332 E4.33724
G1 X67.713 Y24.433 E4.34486
G1 X68.107 Y27.998 E4.61327
G1 X68.116 Y28.103 E4.62116
G1 X68.325 Y31.593 E4.8828
G1 X68.329 Y31.702 E4.89096
G1 X68.357 Y35.121 E5.14683
G1 X68.355 Y35.23 E5.15499
G1 X68.208 Y38.583 E5.40616
G1 X68.2 Y38.695 E5.41456
G1 X67.879 Y41.988 E5.66216
G1 X67.865 Y42.099 E5.67053
G1 X67.374 Y45.337 E5.91562
G1 X67.354 Y45.449 E5.92413
G1 X66.692 Y48.637 E6.1678
G1 X66.666 Y48.746 E6.17618
G1 X65.836 Y51.888 E6.41938
G1 X65.804 Y51.997 E6.42788
G1 X64.803 Y55.098 E6.67174
G1 X64.766 Y55.204 E6.68014
G1 X63.592 Y58.271 E6.9259
G1 X63.547 Y58.38 E6.93472
G1 X61.963 Y61.907 E7.22407
G1 X61.759 Y62.263 E7.25477
G1 X61.491 Y62.572 E7.28538
G1 X61.168 Y62.823 E7.31599
G1 X60.802 Y63.007 E7.34665
G1 X60.407 Y63.116 E7.37731
G1 X60.047 Y63.147 E7.40435
G1 X20.046 Y63.147 E10.39784
G1 X19.639 Y63.107 E10.42845
G1 X19.247 Y62.989 E10.45908
G1 X18.885 Y62.797 E10.48975
G1 X18.568 Y62.538 E10.52038
G1 X18.306 Y62.223 E10.55104
G1 X18.134 Y61.915 E10.57744
G1 X16.752 Y58.871 E10.82762
G1 X16.709 Y58.77 E10.83583
G1 X15.499 Y55.685 E11.08382
G1 X15.461 Y55.579 E11.09225
G1 X14.43 Y52.469 E11.33744
G1 X14.397 Y52.361 E11.34589
G1 X13.54 Y49.22 E11.58954
G1 X13.513 Y49.109 E11.59809
G1 X12.828 Y45.931 E11.84138
G1 X12.807 Y45.821 E11.84976
G1 X12.292 Y42.604 E12.09357
G1 X12.278 Y42.492 E12.10202
G1 X11.934 Y39.231 E12.34741
G1 X11.925 Y39.121 E12.35567
G1 X11.751 Y35.811 E12.60372
G1 X11.748 Y35.702 E12.61188
G1 X11.746 Y32.336 E12.86377
G1 X11.749 Y32.23 E12.87171
G1 X11.921 Y28.804 E13.12842
G1 X11.929 Y28.699 E13.1363
G1 X12.28 Y25.209 E13.39879
G1 X12.294 Y25.098 E13.40716
G1 X12.971 Y20.726 E13.73824
G1 X13.073 Y20.329 E13.76892
G1 X13.249 Y19.96 E13.79951
G1 X13.494 Y19.632 E13.83015
G1 X13.798 Y19.358 E13.86078
G0 F4800 X14.052 Y19.923
G1 F1080 X14.336 Y19.726 E13.88664
G1 X14.658 Y19.598 E13.91257
G1 X15.046 Y19.547 E13.94186
G1 X65.046 Y19.547 E17.68362
G1 X65.39 Y19.587 E17.70954
G1 X65.715 Y19.704 E17.73539
G1 X66.005 Y19.893 E17.7613
G1 X66.243 Y20.143 E17.78713
G1 X66.418 Y20.442 E17.81305
G1 X66.527 Y20.81 E17.84177
G1 X67.107 Y24.427 E18.11591
G1 X67.117 Y24.499 E18.12135
G1 X67.511 Y28.064 E18.38976
G1 X67.517 Y28.139 E18.39539
G1 X67.726 Y31.629 E18.65704
G1 X67.729 Y31.707 E18.66288
G1 X67.757 Y35.126 E18.91875
G1 X67.756 Y35.204 E18.92459
G1 X67.609 Y38.557 E19.17575
G1 X67.603 Y38.637 E19.18175
G1 X67.282 Y41.93 E19.42936
G1 X67.272 Y42.009 E19.43531
G1 X66.781 Y45.247 E19.6804
G1 X66.767 Y45.327 E19.68648
G1 X66.105 Y48.515 E19.93014
G1 X66.086 Y48.593 E19.93615
G1 X65.256 Y51.735 E20.17935
G1 X65.233 Y51.813 E20.18544
G1 X64.232 Y54.914 E20.42929
G1 X64.206 Y54.989 E20.43523
G1 X63.032 Y58.056 E20.68099
G1 X62.999 Y58.135 E20.6874
G1 X61.415 Y61.662 E20.97674
G1 X61.238 Y61.959 E21.00261
G1 X60.998 Y62.207 E21.02844
G1 X60.707 Y62.394 E21.05433
G1 X60.381 Y62.509 E21.0802
G1 X60.047 Y62.547 E21.10535
G1 X20.046 Y62.547 E24.09884
G1 X19.702 Y62.507 E24.12476
G1 X19.377 Y62.39 E24.1506
G1 X19.087 Y62.201 E24.17651
G1 X18.849 Y61.951 E24.20234
G1 X18.68 Y61.667 E24.22707
G1 X17.298 Y58.623 E24.47725
G1 X17.268 Y58.551 E24.48309
G1 X16.058 Y55.466 E24.73108
G1 X16.03 Y55.39 E24.73714
G1 X14.999 Y52.28 E24.98233
G1 X14.976 Y52.203 E24.98834
G1 X14.119 Y49.062 E25.23199
G1 X14.1 Y48.983 E25.23807
G1 X13.415 Y45.805 E25.48136
G1 X13.4 Y45.726 E25.48738
G1 X12.885 Y42.509 E25.73119
G1 X12.874 Y42.429 E25.73723
G1 X12.53 Y39.168 E25.98263
G1 X12.524 Y39.09 E25.98848
G1 X12.35 Y35.78 E26.23653
G1 X12.348 Y35.702 E26.24237
G1 X12.346 Y32.336 E26.49426
G1 X12.348 Y32.26 E26.49995
G1 X12.52 Y28.834 E26.75666
G1 X12.526 Y28.759 E26.76229
G1 X12.877 Y25.269 E27.02478
G1 X12.887 Y25.189 E27.03082
G1 X13.564 Y20.817 E27.3619
G1 X13.656 Y20.484 E27.38775
G1 X13.822 Y20.181 E27.41361
G1 X14.052 Y19.923 E27.43947
G0 F4800 X14.597 Y20.267
G1 F1080 X14.847 Y20.169 E27.45957
G1 X15.046 Y20.147 E27.47455
G1 X65.046 Y20.147 E31.21631
G1 X65.311 Y20.187 E31.23637
G1 X65.552 Y20.303 E31.25639
G1 X65.748 Y20.484 E31.27635
G1 X65.883 Y20.716 E31.29644
G1 X65.935 Y20.905 E31.31111
G1 X66.515 Y24.522 E31.58525
G1 X66.521 Y24.565 E31.58849
G1 X66.915 Y28.13 E31.85691
G1 X66.918 Y28.175 E31.86028
G1 X67.127 Y31.665 E32.12192
G1 X67.129 Y31.712 E32.12544
G1 X67.157 Y35.131 E32.38132
G1 X67.156 Y35.177 E32.38476
G1 X67.009 Y38.53 E32.63592
G1 X67.006 Y38.578 E32.63952
G1 X66.685 Y41.871 E32.88712
G1 X66.679 Y41.919 E32.89074
G1 X66.188 Y45.157 E33.13583
G1 X66.179 Y45.205 E33.13948
G1 X65.517 Y48.393 E33.38315
G1 X65.506 Y48.44 E33.38676
G1 X64.676 Y51.582 E33.62996
G1 X64.662 Y51.628 E33.63356
G1 X63.661 Y54.729 E33.87741
G1 X63.646 Y54.775 E33.88103
G1 X62.472 Y57.842 E34.12679
G1 X62.452 Y57.889 E34.13062
G1 X60.868 Y61.416 E34.41996
G1 X60.723 Y61.641 E34.43999
G1 X60.519 Y61.813 E34.45996
G1 X60.273 Y61.918 E34.47997
G1 X60.047 Y61.947 E34.49702
G1 X20.046 Y61.947 E37.49051
G1 X19.781 Y61.907 E37.51057
G1 X19.54 Y61.791 E37.53058
G1 X19.344 Y61.61 E37.55055
G1 X19.227 Y61.419 E37.56731
G1 X17.845 Y58.375 E37.81749
G1 X17.826 Y58.332 E37.82101
G1 X16.616 Y55.247 E38.069
G1 X16.6 Y55.201 E38.07264
G1 X15.569 Y52.091 E38.31783
G1 X15.555 Y52.045 E38.32143
G1 X14.698 Y48.904 E38.56508
G1 X14.686 Y48.857 E38.56871
G1 X14.001 Y45.679 E38.812
G1 X13.992 Y45.631 E38.81565
G1 X13.477 Y42.414 E39.05947
G1 X13.471 Y42.366 E39.06309
G1 X13.127 Y39.105 E39.30848
G1 X13.123 Y39.058 E39.31201
G1 X12.949 Y35.748 E39.56005
G1 X12.948 Y35.702 E39.5635
G1 X12.946 Y32.336 E39.81539
G1 X12.947 Y32.29 E39.81884
G1 X13.119 Y28.864 E40.07555
G1 X13.123 Y28.819 E40.07893
G1 X13.474 Y25.329 E40.34142
G1 X13.48 Y25.281 E40.34504
G1 X14.157 Y20.909 E40.67612
G1 X14.236 Y20.654 E40.6961
G1 X14.388 Y20.433 E40.71617
G1 X14.597 Y20.267 E40.73614
G0 F4800 X14.934 Y20.769
G1 F1080 X15.046 Y20.747 E40.74468
G1 X65.046 Y20.747 E44.48645
G1 X65.195 Y20.786 E44.49798
G1 X65.304 Y20.894 E44.50946
G1 X65.342 Y21 E44.51789
G1 X65.922 Y24.617 E44.79202
G1 X65.924 Y24.631 E44.79308
G1 X66.318 Y28.196 E45.06149
G1 X66.319 Y28.211 E45.06262
G1 X66.528 Y31.701 E45.32426
G1 X66.529 Y31.717 E45.32546
G1 X66.557 Y35.136 E45.58133
G1 X66.557 Y35.151 E45.58245
G1 X66.41 Y38.504 E45.83362
G1 X66.409 Y38.52 E45.83482
G1 X66.088 Y41.813 E46.08242
G1 X66.086 Y41.829 E46.08362
G1 X65.595 Y45.067 E46.32871
G1 X65.592 Y45.083 E46.32993
G1 X64.93 Y48.271 E46.57359
G1 X64.926 Y48.287 E46.57483
G1 X64.096 Y51.429 E46.81803
G1 X64.091 Y51.444 E46.81921
G1 X63.09 Y54.545 E47.06307
G1 X63.085 Y54.56 E47.06425
G1 X61.911 Y57.627 E47.31001
G1 X61.905 Y57.643 E47.31129
G1 X60.321 Y61.17 E47.60063
G1 X60.224 Y61.289 E47.61212
G1 X60.047 Y61.347 E47.62606
G1 X20.046 Y61.347 E50.61954
G1 X19.897 Y61.308 E50.63107
G1 X19.773 Y61.171 E50.6449
G1 X18.391 Y58.127 E50.89507
G1 X18.385 Y58.113 E50.89621
G1 X17.175 Y55.028 E51.1442
G1 X17.169 Y55.012 E51.14548
G1 X16.138 Y51.902 E51.39068
G1 X16.134 Y51.887 E51.39184
G1 X15.277 Y48.746 E51.63549
G1 X15.273 Y48.73 E51.63672
G1 X14.588 Y45.552 E51.88001
G1 X14.585 Y45.536 E51.88123
G1 X14.07 Y42.319 E52.12504
G1 X14.068 Y42.303 E52.12625
G1 X13.724 Y39.042 E52.37164
G1 X13.722 Y39.027 E52.37277
G1 X13.548 Y35.717 E52.62082
G1 X13.548 Y35.701 E52.62201
G1 X13.546 Y32.335 E52.87391
G1 X13.546 Y32.32 E52.87503
G1 X13.718 Y28.894 E53.13174
G1 X13.72 Y28.879 E53.13287
G1 X14.071 Y25.389 E53.39537
G1 X14.073 Y25.373 E53.39657
G1 X14.75 Y21.001 E53.72765
G1 X14.811 Y20.86 E53.73915
G1 X14.934 Y20.769 E53.7506
;MESH:Part6.STL
G0 F4800 X15.297 Y21.347
;TYPE:WALL-OUTER
G1 F1080 X64.791 Y21.347 E57.4545
G1 X65.328 Y24.697 E57.7084
G1 X65.722 Y28.263 E57.97688
G1 X65.929 Y31.722 E58.2362
G1 X65.957 Y35.126 E58.49095
G1 X65.811 Y38.463 E58.74091
G1 X65.492 Y41.74 E58.98731
G1 X65.002 Y44.971 E59.23187
G1 X64.344 Y48.144 E59.47437
G1 X63.516 Y51.275 E59.71674
G1 X62.525 Y54.346 E59.95822
G1 X61.353 Y57.409 E60.20365
G1 X60.083 Y60.277 E60.43838
G1 X59.858 Y60.747 E60.47738
G1 X20.239 Y60.747 E63.44228
G1 X18.936 Y57.878 E63.67808
G1 X17.739 Y54.824 E63.92356
G1 X16.708 Y51.714 E64.16875
G1 X15.858 Y48.597 E64.41053
G1 X15.174 Y45.426 E64.65329
G1 X14.662 Y42.225 E64.89588
G1 X14.322 Y38.995 E65.13894
G1 X14.148 Y35.684 E65.38706
G1 X14.146 Y32.349 E65.63664
G1 X14.318 Y28.924 E65.89327
G1 X14.666 Y25.463 E66.15358
G1 X15.171 Y22.056 E66.41133
G1 X15.297 Y21.347 E66.46522
G0 F4800 X15.597 Y21.347
G0 X15.841 Y22.051
G0 X15.762 Y22.161
;TYPE:WALL-INNER
G1 F1080 X15.8 Y21.947 E66.48148
G1 X64.28 Y21.947 E70.1095
G1 X64.733 Y24.776 E70.32391
G1 X65.123 Y28.299 E70.58916
G1 X65.329 Y31.744 E70.84743
G1 X65.357 Y35.131 E71.10091
G1 X65.213 Y38.416 E71.34698
G1 X64.897 Y41.666 E71.59134
G1 X64.414 Y44.849 E71.83226
G1 X63.757 Y48.019 E72.07453
G1 X62.941 Y51.105 E72.31341
G1 X61.957 Y54.154 E72.55317
G1 X60.804 Y57.166 E72.79453
G1 X59.48 Y60.147 E73.03863
G1 X20.625 Y60.147 E75.94635
G1 X19.494 Y57.656 E76.15108
G1 X18.305 Y54.622 E76.39494
G1 X17.281 Y51.534 E76.63841
G1 X16.443 Y48.462 E76.8767
G1 X15.761 Y45.299 E77.11885
G1 X15.259 Y42.16 E77.35674
G1 X14.919 Y38.932 E77.59965
G1 X14.748 Y35.672 E77.84394
G1 X14.746 Y32.359 E78.09187
G1 X14.915 Y28.984 E78.34476
G1 X15.26 Y25.551 E78.60296
G1 X15.762 Y22.161 E78.85942
G0 F4800 X16.303 Y22.537
;TYPE:SKIN
G1 F1080 X63.778 Y22.537 E82.41223
G1 X64.147 Y24.841 E82.58685
G1 X64.537 Y28.364 E82.8521
G1 X64.739 Y31.748 E83.10579
G1 X64.767 Y35.105 E83.35703
G1 X64.625 Y38.359 E83.60077
G1 X64.311 Y41.588 E83.84355
G1 X63.832 Y44.749 E84.08281
G1 X63.18 Y47.895 E84.32324
G1 X62.379 Y50.924 E84.55771
G1 X61.4 Y53.958 E84.79629
G1 X60.26 Y56.936 E85.03492
G1 X59.096 Y59.557 E85.24954
G1 X21.005 Y59.557 E88.10009
G1 X20.035 Y57.42 E88.27571
G1 X18.86 Y54.422 E88.51669
G1 X17.846 Y51.364 E88.75779
G1 X17.015 Y48.317 E88.99414
G1 X16.339 Y45.186 E89.23385
G1 X15.841 Y42.067 E89.47021
G1 X15.509 Y38.901 E89.70844
G1 X15.338 Y35.641 E89.95274
G1 X15.336 Y32.389 E90.1961
G1 X15.504 Y29.028 E90.44794
G1 X15.846 Y25.624 E90.70396
G1 X16.303 Y22.537 E90.9375
G0 F4800 X16.821 Y23.137
G1 F1080 X63.267 Y23.137 E94.4133
G1 X63.552 Y24.92 E94.54842
G1 X63.938 Y28.4 E94.81045
G1 X64.139 Y31.77 E95.06309
G1 X64.167 Y35.11 E95.31305
G1 X64.027 Y38.312 E95.5529
G1 X63.716 Y41.514 E95.79365
G1 X63.244 Y44.627 E96.02927
G1 X62.593 Y47.77 E96.26947
G1 X61.804 Y50.754 E96.50046
G1 X60.834 Y53.76 E96.73683
G1 X59.705 Y56.707 E96.973
G1 X58.706 Y58.957 E97.15723
G1 X21.391 Y58.957 E99.94971
G1 X20.593 Y57.198 E100.09426
G1 X19.426 Y54.22 E100.33362
G1 X18.419 Y51.184 E100.57299
G1 X17.594 Y48.159 E100.80764
G1 X16.928 Y45.075 E101.04375
G1 X16.438 Y42.002 E101.27662
G1 X16.106 Y38.838 E101.5147
G1 X15.938 Y35.629 E101.75518
G1 X15.936 Y32.389 E101.99764
G1 X16.102 Y29.078 E102.24574
G1 X16.44 Y25.712 E102.4989
G1 X16.821 Y23.137 E102.6937
G1 F2400 E101.6937
G0 F4800 X16.821 Y22.157
G0 X16.035 Y22.227
G0 X15.528 Y25.592
G0 X15.186 Y28.998
G0 X15.017 Y32.375
G0 X15.019 Y35.657
G0 X15.19 Y38.919
G0 X15.526 Y42.116
G0 X16.025 Y45.241
G0 X16.704 Y48.389
G0 X17.541 Y51.458
G0 X18.557 Y54.522
G0 X19.747 Y57.558
G0 X20.803 Y59.87
G0 X22.349 Y59.937
G0 X22.349 Y58.836
G1 F2400 E102.6937
G1 F1080 X20.736 Y57.223 E102.86441
G1 X20.63 Y57.117
G0 F4800 X19.658 Y57.497
G0 X19.157 Y56.221
G0 X20.182 Y55.82
G1 F1080 X23.198 Y58.836 E103.1836
G0 F4800 X24.046 Y58.836
G1 F1080 X19.635 Y54.425 E103.65043
G1 X19.529 Y54.319
G0 F4800 X18.56 Y54.697
G0 X18.148 Y53.48
G0 X19.192 Y53.134
G1 F1080 X24.895 Y58.836 E104.25394
G0 F4800 X25.743 Y58.836
G1 F1080 X18.771 Y51.864 E104.99181
G1 X18.665 Y51.758
G0 F4800 X18.394 Y50.638
G1 F1080 X26.592 Y58.836 E105.85943
G0 F4800 X27.44 Y58.836
G1 F1080 X18.076 Y49.472 E106.85045
G1 X17.97 Y49.366
G0 F4800 X17.757 Y48.304
G1 F1080 X28.289 Y58.836 E107.96509
G0 F4800 X29.137 Y58.836
G1 F1080 X17.511 Y47.209 E109.19555
G0 F4800 X17.278 Y46.128
G1 F1080 X29.986 Y58.836 E110.54048
G0 F4800 X30.834 Y58.836
G1 F1080 X17.044 Y45.045 E111.99997
G0 F4800 X16.882 Y44.035
G1 F1080 X31.683 Y58.836 E113.56641
G0 F4800 X32.531 Y58.836
G1 F1080 X16.721 Y43.026 E115.23963
G0 F4800 X16.56 Y42.016
G1 F1080 X33.38 Y58.836 E117.01974
G0 F4800 X34.228 Y58.836
G1 F1080 X16.459 Y41.066 E118.90034
G0 F4800 X16.359 Y40.118
G1 F1080 X35.077 Y58.836 E120.88133
G0 F4800 X35.925 Y58.836
G1 F1080 X16.26 Y39.17 E122.96259
G0 F4800 X16.195 Y38.257
G1 F1080 X36.774 Y58.836 E125.14053
G0 F4800 X37.623 Y58.836
G1 F1080 X16.148 Y37.362 E127.41324
G0 F4800 X16.101 Y36.466
G1 F1080 X38.471 Y58.836 E129.78073
G0 F4800 X39.32 Y58.836
G1 F1080 X16.056 Y35.573 E132.24278
G0 F4800 X16.056 Y34.724
G1 F1080 X40.168 Y58.836 E134.79462
G0 F4800 X41.017 Y58.836
G1 F1080 X16.056 Y33.875 E137.43632
G0 F4800 X16.056 Y33.026
G1 F1080 X41.865 Y58.836 E140.16782
G0 F4800 X42.714 Y58.836
G1 F1080 X16.066 Y32.188 E142.98806
G0 F4800 X16.106 Y31.379
G1 F1080 X43.562 Y58.836 E145.89387
G0 F4800 X44.411 Y58.836
G1 F1080 X16.146 Y30.571 E148.88524
G0 F4800 X16.187 Y29.763
G1 F1080 X45.259 Y58.836 E151.96208
G0 F4800 X46.108 Y58.836
G1 F1080 X16.233 Y28.96 E155.12389
G0 F4800 X16.31 Y28.19
G1 F1080 X46.956 Y58.836 E158.36725
G0 F4800 X47.805 Y58.836
G1 F1080 X16.387 Y27.418 E161.69232
G0 F4800 X16.465 Y26.648
G1 F1080 X48.653 Y58.836 E165.09887
G0 F4800 X49.502 Y58.836
G1 F1080 X16.542 Y25.876 E168.58713
G0 F4800 X16.646 Y25.131
G1 F1080 X50.35 Y58.836 E172.15418
G0 F4800 X51.199 Y58.836
G1 F1080 X16.755 Y24.392 E175.7995
G0 F4800 X16.865 Y23.653
G1 F1080 X52.048 Y58.836 E179.52303
G0 F4800 X52.896 Y58.836
G1 F1080 X17.317 Y23.256 E183.28851
G0 F4800 X18.165 Y23.256
G1 F1080 X53.745 Y58.836 E187.05406
G0 F4800 X54.593 Y58.836
G1 F1080 X19.014 Y23.256 E190.81954
G0 F4800 X19.862 Y23.256
G1 F1080 X55.442 Y58.836 E194.58509
G0 F4800 X56.29 Y58.836
G1 F1080 X20.711 Y23.256 E198.35058
G0 F4800 X21.559 Y23.256
G1 F1080 X57.139 Y58.836 E202.11612
G0 F4800 X57.987 Y58.836
G1 F1080 X22.408 Y23.256 E205.88161
G0 F4800 X23.256 Y23.256
G1 F1080 X58.692 Y58.692 E209.63191
G0 F4800 X58.952 Y58.104
G1 F1080 X24.105 Y23.256 E213.31993
G0 F4800 X24.953 Y23.256
G1 F1080 X59.213 Y57.516 E216.94577
G0 F4800 X59.474 Y56.929
G1 F1080 X25.802 Y23.256 E220.50943
G0 F4800 X26.65 Y23.256
G1 F1080 X59.721 Y56.327 E224.00944
G0 F4800 X59.956 Y55.714
G1 F1080 X27.499 Y23.256 E227.44452
G0 F4800 X28.347 Y23.256
G1 F1080 X60.191 Y55.1 E230.81467
G0 F4800 X60.426 Y54.486
G1 F1080 X29.196 Y23.256 E234.11984
G0 F4800 X30.044 Y23.256
G1 F1080 X60.661 Y53.873 E237.36013
G0 F4800 X60.875 Y53.238
G1 F1080 X30.893 Y23.256 E240.53322
G0 F4800 X31.742 Y23.256
G1 F1080 X61.082 Y52.597 E243.63841
G0 F4800 X61.289 Y51.956
G1 F1080 X32.59 Y23.256 E246.67577
G0 F4800 X33.439 Y23.256
G1 F1080 X61.496 Y51.314 E249.64518
G0 F4800 X61.701 Y50.67
G1 F1080 X34.287 Y23.256 E252.54649
G0 F4800 X35.136 Y23.256
G1 F1080 X61.878 Y49.999 E255.37673
G0 F4800 X62.056 Y49.328
G1 F1080 X35.984 Y23.256 E258.13601
G0 F4800 X36.833 Y23.256
G1 F1080 X62.233 Y48.657 E260.82423
